indra/newview/app_settings/luts/cinematic.cube
TITLE "Cinematic"
LUT_3D_SIZE 5
0.007363 0.006975 0.008138
0.122639 0.006975 0.008138
0.475000 0.006975 0.008138
0.827361 0.006975 0.008138
0.942637 0.006975 0.008138
0.014863 0.116184 0.008138
0.130139 0.116184 0.008138
0.482500 0.116184 0.008138
0.834861 0.116184 0.008138
0.950137 0.116184 0.008138
0.022363 0.450000 0.008138
0.137639 0.450000 0.008138
0.490000 0.450000 0.008138
0.842361 0.450000 0.008138
0.957637 0.450000 0.008138
0.029863 0.783816 0.008138
0.145139 0.783816 0.008138
0.497500 0.783816 0.008138
0.849861 0.783816 0.008138
0.965137 0.783816 0.008138
0.037362 0.893025 0.008138
0.152639 0.893025 0.008138
0.505000 0.893025 0.008138
0.857361 0.893025 0.008138
0.972637 0.893025 0.008138
0.012363 0.006975 0.135548
0.127639 0.006975 0.135548
0.480000 0.006975 0.135548
0.832361 0.006975 0.135548
0.947637 0.006975 0.135548
0.019863 0.116184 0.135548
0.135139 0.116184 0.135548
0.487500 0.116184 0.135548
0.839861 0.116184 0.135548
0.955137 0.116184 0.135548
0.027363 0.450000 0.135548
0.142639 0.450000 0.135548
0.495000 0.450000 0.135548
0.847361 0.450000 0.135548
0.962637 0.450000 0.135548
0.034862 0.783816 0.135548
0.150139 0.783816 0.135548
0.502500 0.783816 0.135548
0.854861 0.783816 0.135548
0.970137 0.783816 0.135548
0.042362 0.893025 0.135548
0.157639 0.893025 0.135548
0.510000 0.893025 0.135548
0.862361 0.893025 0.135548
0.977637 0.893025 0.135548
0.017363 0.006975 0.525000
0.132639 0.006975 0.525000
0.485000 0.006975 0.525000
0.837361 0.006975 0.525000
0.952637 0.006975 0.525000
0.024863 0.116184 0.525000
0.140139 0.116184 0.525000
0.492500 0.116184 0.525000
0.844861 0.116184 0.525000
0.960137 0.116184 0.525000
0.032363 0.450000 0.525000
0.147639 0.450000 0.525000
0.500000 0.450000 0.525000
0.852361 0.450000 0.525000
0.967637 0.450000 0.525000
0.039863 0.783816 0.525000
0.155139 0.783816 0.525000
0.507500 0.783816 0.525000
0.859861 0.783816 0.525000
0.975137 0.783816 0.525000
0.047363 0.893025 0.525000
0.162639 0.893025 0.525000
0.515000 0.893025 0.525000
0.867361 0.893025 0.525000
0.982637 0.893025 0.525000
0.022363 0.006975 0.914452
0.137639 0.006975 0.914452
0.490000 0.006975 0.914452
0.842361 0.006975 0.914452
0.957637 0.006975 0.914452
0.029863 0.116184 0.914452
0.145139 0.116184 0.914452
0.497500 0.116184 0.914452
0.849861 0.116184 0.914452
0.965137 0.116184 0.914452
0.037362 0.450000 0.914452
0.152639 0.450000 0.914452
0.505000 0.450000 0.914452
0.857361 0.450000 0.914452
0.972637 0.450000 0.914452
0.044862 0.783816 0.914452
0.160139 0.783816 0.914452
0.512500 0.783816 0.914452
0.864861 0.783816 0.914452
0.980137 0.783816 0.914452
0.052362 0.893025 0.914452
0.167639 0.893025 0.914452
0.520000 0.893025 0.914452
0.872361 0.893025 0.914452
0.987637 0.893025 0.914452
0.027363 0.006975 1.000000
0.142639 0.006975 1.000000
0.495000 0.006975 1.000000
0.847361 0.006975 1.000000
0.962637 0.006975 1.000000
0.034863 0.116184 1.000000
0.150139 0.116184 1.000000
0.502500 0.116184 1.000000
0.854861 0.116184 1.000000
0.970137 0.116184 1.000000
0.042362 0.450000 1.000000
0.157639 0.450000 1.000000
0.510000 0.450000 1.000000
0.862361 0.450000 1.000000
0.977637 0.450000 1.000000
0.049863 0.783816 1.000000
0.165139 0.783816 1.000000
0.517500 0.783816 1.000000
0.869861 0.783816 1.000000
0.985137 0.783816 1.000000
0.057362 0.893025 1.000000
0.172639 0.893025 1.000000
0.525000 0.893025 1.000000
0.877361 0.893025 1.000000
0.992637 0.893025 1.000000
