indra/newview/app_settings/luts/cinematic.cube
TITLE "Cinematic"
LUT_3D_SIZE 9
0.007363 0.006975 0.008138
0.020547 0.006975 0.008138
0.122639 0.006975 0.008138
0.284002 0.006975 0.008138
0.475000 0.006975 0.008138
0.665998 0.006975 0.008138
0.827361 0.006975 0.008138
0.929453 0.006975 0.008138
0.942637 0.006975 0.008138
0.011113 0.019466 0.008138
0.024297 0.019466 0.008138
0.126389 0.019466 0.008138
0.287752 0.019466 0.008138
0.478750 0.019466 0.008138
0.669748 0.019466 0.008138
0.831111 0.019466 0.008138
0.933203 0.019466 0.008138
0.946387 0.019466 0.008138
0.014863 0.116184 0.008138
0.028047 0.116184 0.008138
0.130139 0.116184 0.008138
0.291502 0.116184 0.008138
0.482500 0.116184 0.008138
0.673498 0.116184 0.008138
0.834861 0.116184 0.008138
0.936953 0.116184 0.008138
0.950137 0.116184 0.008138
0.018613 0.269054 0.008138
0.031797 0.269054 0.008138
0.133889 0.269054 0.008138
0.295252 0.269054 0.008138
0.486250 0.269054 0.008138
0.677248 0.269054 0.008138
0.838611 0.269054 0.008138
0.940703 0.269054 0.008138
0.953887 0.269054 0.008138
0.022363 0.450000 0.008138
0.035547 0.450000 0.008138
0.137639 0.450000 0.008138
0.299002 0.450000 0.008138
0.490000 0.450000 0.008138
0.680998 0.450000 0.008138
0.842361 0.450000 0.008138
0.944453 0.450000 0.008138
0.957637 0.450000 0.008138
0.026113 0.630946 0.008138
0.039297 0.630946 0.008138
0.141389 0.630946 0.008138
0.302752 0.630946 0.008138
0.493750 0.630946 0.008138
0.684748 0.630946 0.008138
0.846111 0.630946 0.008138
0.948203 0.630946 0.008138
0.961387 0.630946 0.008138
0.029863 0.783816 0.008138
0.043047 0.783816 0.008138
0.145139 0.783816 0.008138
0.306502 0.783816 0.008138
0.497500 0.783816 0.008138
0.688498 0.783816 0.008138
0.849861 0.783816 0.008138
0.951953 0.783816 0.008138
0.965137 0.783816 0.008138
0.033613 0.880534 0.008138
0.046797 0.880534 0.008138
0.148889 0.880534 0.008138
0.310252 0.880534 0.008138
0.501250 0.880534 0.008138
0.692248 0.880534 0.008138
0.853611 0.880534 0.008138
0.955703 0.880534 0.008138
0.968887 0.880534 0.008138
0.037362 0.893025 0.008138
0.050547 0.893025 0.008138
0.152639 0.893025 0.008138
0.314002 0.893025 0.008138
0.505000 0.893025 0.008138
0.695998 0.893025 0.008138
0.857361 0.893025 0.008138
0.959453 0.893025 0.008138
0.972637 0.893025 0.008138
0.009863 0.006975 0.022710
0.023047 0.006975 0.022710
0.125139 0.006975 0.022710
0.286502 0.006975 0.022710
0.477500 0.006975 0.022710
0.668498 0.006975 0.022710
0.829861 0.006975 0.022710
0.931953 0.006975 0.022710
0.945137 0.006975 0.022710
0.013613 0.019466 0.022710
0.026797 0.019466 0.022710
0.128889 0.019466 0.022710
0.290252 0.019466 0.022710
0.481250 0.019466 0.022710
0.672248 0.019466 0.022710
0.833611 0.019466 0.022710
0.935703 0.019466 0.022710
0.948887 0.019466 0.022710
0.017362 0.116184 0.022710
0.030547 0.116184 0.022710
0.132639 0.116184 0.022710
0.294002 0.116184 0.022710
0.485000 0.116184 0.022710
0.675998 0.116184 0.022710
0.837361 0.116184 0.022710
0.939453 0.116184 0.022710
0.952637 0.116184 0.022710
0.021112 0.269054 0.022710
0.034297 0.269054 0.022710
0.136389 0.269054 0.022710
0.297752 0.269054 0.022710
0.488750 0.269054 0.022710
0.679748 0.269054 0.022710
0.841111 0.269054 0.022710
0.943203 0.269054 0.022710
0.956387 0.269054 0.022710
0.024862 0.450000 0.022710
0.038047 0.450000 0.022710
0.140139 0.450000 0.022710
0.301502 0.450000 0.022710
0.492500 0.450000 0.022710
0.683498 0.450000 0.022710
0.844861 0.450000 0.022710
0.946953 0.450000 0.022710
0.960137 0.450000 0.022710
0.028612 0.630946 0.022710
0.041797 0.630946 0.022710
0.143889 0.630946 0.022710
0.305252 0.630946 0.022710
0.496250 0.630946 0.022710
0.687248 0.630946 0.022710
0.848611 0.630946 0.022710
0.950703 0.630946 0.022710
0.963887 0.630946 0.022710
0.032363 0.783816 0.022710
0.045547 0.783816 0.022710
0.147639 0.783816 0.022710
0.309002 0.783816 0.022710
0.500000 0.783816 0.022710
0.690998 0.783816 0.022710
0.852361 0.783816 0.022710
0.954453 0.783816 0.022710
0.967637 0.783816 0.022710
0.036113 0.880534 0.022710
0.049297 0.880534 0.022710
0.151389 0.880534 0.022710
0.312752 0.880534 0.022710
0.503750 0.880534 0.022710
0.694748 0.880534 0.022710
0.856111 0.880534 0.022710
0.958203 0.880534 0.022710
0.971387 0.880534 0.022710
0.039863 0.893025 0.022710
0.053047 0.893025 0.022710
0.155139 0.893025 0.022710
0.316502 0.893025 0.022710
0.507500 0.893025 0.022710
0.698498 0.893025 0.022710
0.859861 0.893025 0.022710
0.961953 0.893025 0.022710
0.975137 0.893025 0.022710
0.012363 0.006975 0.135548
0.025547 0.006975 0.135548
0.127639 0.006975 0.135548
0.289002 0.006975 0.135548
0.480000 0.006975 0.135548
0.670998 0.006975 0.135548
0.832361 0.006975 0.135548
0.934453 0.006975 0.135548
0.947637 0.006975 0.135548
0.016113 0.019466 0.135548
0.029297 0.019466 0.135548
0.131389 0.019466 0.135548
0.292752 0.019466 0.135548
0.483750 0.019466 0.135548
0.674748 0.019466 0.135548
0.836111 0.019466 0.135548
0.938203 0.019466 0.135548
0.951387 0.019466 0.135548
0.019863 0.116184 0.135548
0.033047 0.116184 0.135548
0.135139 0.116184 0.135548
0.296502 0.116184 0.135548
0.487500 0.116184 0.135548
0.678498 0.116184 0.135548
0.839861 0.116184 0.135548
0.941953 0.116184 0.135548
0.955137 0.116184 0.135548
0.023613 0.269054 0.135548
0.036797 0.269054 0.135548
0.138889 0.269054 0.135548
0.300252 0.269054 0.135548
0.491250 0.269054 0.135548
0.682248 0.269054 0.135548
0.843611 0.269054 0.135548
0.945703 0.269054 0.135548
0.958887 0.269054 0.135548
0.027363 0.450000 0.135548
0.040547 0.450000 0.135548
0.142639 0.450000 0.135548
0.304002 0.450000 0.135548
0.495000 0.450000 0.135548
0.685998 0.450000 0.135548
0.847361 0.450000 0.135548
0.949453 0.450000 0.135548
0.962637 0.450000 0.135548
0.031113 0.630946 0.135548
0.044297 0.630946 0.135548
0.146389 0.630946 0.135548
0.307752 0.630946 0.135548
0.498750 0.630946 0.135548
0.689748 0.630946 0.135548
0.851111 0.630946 0.135548
0.953203 0.630946 0.135548
0.966387 0.630946 0.135548
0.034862 0.783816 0.135548
0.048047 0.783816 0.135548
0.150139 0.783816 0.135548
0.311502 0.783816 0.135548
0.502500 0.783816 0.135548
0.693498 0.783816 0.135548
0.854861 0.783816 0.135548
0.956953 0.783816 0.135548
0.970137 0.783816 0.135548
0.038613 0.880534 0.135548
0.051797 0.880534 0.135548
0.153889 0.880534 0.135548
0.315252 0.880534 0.135548
0.506250 0.880534 0.135548
0.697248 0.880534 0.135548
0.858611 0.880534 0.135548
0.960703 0.880534 0.135548
0.973887 0.880534 0.135548
0.042362 0.893025 0.135548
0.055547 0.893025 0.135548
0.157639 0.893025 0.135548
0.319002 0.893025 0.135548
0.510000 0.893025 0.135548
0.700998 0.893025 0.135548
0.862361 0.893025 0.135548
0.964453 0.893025 0.135548
0.977637 0.893025 0.135548
0.014863 0.006975 0.313897
0.028047 0.006975 0.313897
0.130139 0.006975 0.313897
0.291502 0.006975 0.313897
0.482500 0.006975 0.313897
0.673498 0.006975 0.313897
0.834861 0.006975 0.313897
0.936953 0.006975 0.313897
0.950137 0.006975 0.313897
0.018613 0.019466 0.313897
0.031797 0.019466 0.313897
0.133889 0.019466 0.313897
0.295252 0.019466 0.313897
0.486250 0.019466 0.313897
0.677248 0.019466 0.313897
0.838611 0.019466 0.313897
0.940703 0.019466 0.313897
0.953887 0.019466 0.313897
0.022363 0.116184 0.313897
0.035547 0.116184 0.313897
0.137639 0.116184 0.313897
0.299002 0.116184 0.313897
0.490000 0.116184 0.313897
0.680998 0.116184 0.313897
0.842361 0.116184 0.313897
0.944453 0.116184 0.313897
0.957637 0.116184 0.313897
0.026113 0.269054 0.313897
0.039297 0.269054 0.313897
0.141389 0.269054 0.313897
0.302752 0.269054 0.313897
0.493750 0.269054 0.313897
0.684748 0.269054 0.313897
0.846111 0.269054 0.313897
0.948203 0.269054 0.313897
0.961387 0.269054 0.313897
0.029863 0.450000 0.313897
0.043047 0.450000 0.313897
0.145139 0.450000 0.313897
0.306502 0.450000 0.313897
0.497500 0.450000 0.313897
0.688498 0.450000 0.313897
0.849861 0.450000 0.313897
0.951953 0.450000 0.313897
0.965137 0.450000 0.313897
0.033613 0.630946 0.313897
0.046797 0.630946 0.313897
0.148889 0.630946 0.313897
0.310252 0.630946 0.313897
0.501250 0.630946 0.313897
0.692248 0.630946 0.313897
0.853611 0.630946 0.313897
0.955703 0.630946 0.313897
0.968887 0.630946 0.313897
0.037362 0.783816 0.313897
0.050547 0.783816 0.313897
0.152639 0.783816 0.313897
0.314002 0.783816 0.313897
0.505000 0.783816 0.313897
0.695998 0.783816 0.313897
0.857361 0.783816 0.313897
0.959453 0.783816 0.313897
0.972637 0.783816 0.313897
0.041113 0.880534 0.313897
0.054297 0.880534 0.313897
0.156389 0.880534 0.313897
0.317752 0.880534 0.313897
0.508750 0.880534 0.313897
0.699748 0.880534 0.313897
0.861111 0.880534 0.313897
0.963203 0.880534 0.313897
0.976387 0.880534 0.313897
0.044862 0.893025 0.313897
0.058047 0.893025 0.313897
0.160139 0.893025 0.313897
0.321502 0.893025 0.313897
0.512500 0.893025 0.313897
0.703498 0.893025 0.313897
0.864861 0.893025 0.313897
0.966953 0.893025 0.313897
0.980137 0.893025 0.313897
0.017363 0.006975 0.525000
0.030547 0.006975 0.525000
0.132639 0.006975 0.525000
0.294002 0.006975 0.525000
0.485000 0.006975 0.525000
0.675998 0.006975 0.525000
0.837361 0.006975 0.525000
0.939453 0.006975 0.525000
0.952637 0.006975 0.525000
0.021112 0.019466 0.525000
0.034297 0.019466 0.525000
0.136389 0.019466 0.525000
0.297752 0.019466 0.525000
0.488750 0.019466 0.525000
0.679748 0.019466 0.525000
0.841111 0.019466 0.525000
0.943203 0.019466 0.525000
0.956387 0.019466 0.525000
0.024863 0.116184 0.525000
0.038047 0.116184 0.525000
0.140139 0.116184 0.525000
0.301502 0.116184 0.525000
0.492500 0.116184 0.525000
0.683498 0.116184 0.525000
0.844861 0.116184 0.525000
0.946953 0.116184 0.525000
0.960137 0.116184 0.525000
0.028612 0.269054 0.525000
0.041797 0.269054 0.525000
0.143889 0.269054 0.525000
0.305252 0.269054 0.525000
0.496250 0.269054 0.525000
0.687248 0.269054 0.525000
0.848611 0.269054 0.525000
0.950703 0.269054 0.525000
0.963887 0.269054 0.525000
0.032363 0.450000 0.525000
0.045547 0.450000 0.525000
0.147639 0.450000 0.525000
0.309002 0.450000 0.525000
0.500000 0.450000 0.525000
0.690998 0.450000 0.525000
0.852361 0.450000 0.525000
0.954453 0.450000 0.525000
0.967637 0.450000 0.525000
0.036112 0.630946 0.525000
0.049297 0.630946 0.525000
0.151389 0.630946 0.525000
0.312752 0.630946 0.525000
0.503750 0.630946 0.525000
0.694748 0.630946 0.525000
0.856111 0.630946 0.525000
0.958203 0.630946 0.525000
0.971387 0.630946 0.525000
0.039863 0.783816 0.525000
0.053047 0.783816 0.525000
0.155139 0.783816 0.525000
0.316502 0.783816 0.525000
0.507500 0.783816 0.525000
0.698498 0.783816 0.525000
0.859861 0.783816 0.525000
0.961953 0.783816 0.525000
0.975137 0.783816 0.525000
0.043613 0.880534 0.525000
0.056797 0.880534 0.525000
0.158889 0.880534 0.525000
0.320252 0.880534 0.525000
0.511250 0.880534 0.525000
0.702248 0.880534 0.525000
0.863611 0.880534 0.525000
0.965703 0.880534 0.525000
0.978887 0.880534 0.525000
0.047363 0.893025 0.525000
0.060547 0.893025 0.525000
0.162639 0.893025 0.525000
0.324002 0.893025 0.525000
0.515000 0.893025 0.525000
0.705998 0.893025 0.525000
0.867361 0.893025 0.525000
0.969453 0.893025 0.525000
0.982637 0.893025 0.525000
0.019863 0.006975 0.736103
0.033047 0.006975 0.736103
0.135139 0.006975 0.736103
0.296502 0.006975 0.736103
0.487500 0.006975 0.736103
0.678498 0.006975 0.736103
0.839861 0.006975 0.736103
0.941953 0.006975 0.736103
0.955137 0.006975 0.736103
0.023613 0.019466 0.736103
0.036797 0.019466 0.736103
0.138889 0.019466 0.736103
0.300252 0.019466 0.736103
0.491250 0.019466 0.736103
0.682248 0.019466 0.736103
0.843611 0.019466 0.736103
0.945703 0.019466 0.736103
0.958887 0.019466 0.736103
0.027363 0.116184 0.736103
0.040547 0.116184 0.736103
0.142639 0.116184 0.736103
0.304002 0.116184 0.736103
0.495000 0.116184 0.736103
0.685998 0.116184 0.736103
0.847361 0.116184 0.736103
0.949453 0.116184 0.736103
0.962637 0.116184 0.736103
0.031113 0.269054 0.736103
0.044297 0.269054 0.736103
0.146389 0.269054 0.736103
0.307752 0.269054 0.736103
0.498750 0.269054 0.736103
0.689748 0.269054 0.736103
0.851111 0.269054 0.736103
0.953203 0.269054 0.736103
0.966387 0.269054 0.736103
0.034863 0.450000 0.736103
0.048047 0.450000 0.736103
0.150139 0.450000 0.736103
0.311502 0.450000 0.736103
0.502500 0.450000 0.736103
0.693498 0.450000 0.736103
0.854861 0.450000 0.736103
0.956953 0.450000 0.736103
0.970137 0.450000 0.736103
0.038613 0.630946 0.736103
0.051797 0.630946 0.736103
0.153889 0.630946 0.736103
0.315252 0.630946 0.736103
0.506250 0.630946 0.736103
0.697248 0.630946 0.736103
0.858611 0.630946 0.736103
0.960703 0.630946 0.736103
0.973887 0.630946 0.736103
0.042362 0.783816 0.736103
0.055547 0.783816 0.736103
0.157639 0.783816 0.736103
0.319002 0.783816 0.736103
0.510000 0.783816 0.736103
0.700998 0.783816 0.736103
0.862361 0.783816 0.736103
0.964453 0.783816 0.736103
0.977637 0.783816 0.736103
0.046113 0.880534 0.736103
0.059297 0.880534 0.736103
0.161389 0.880534 0.736103
0.322752 0.880534 0.736103
0.513750 0.880534 0.736103
0.704748 0.880534 0.736103
0.866111 0.880534 0.736103
0.968203 0.880534 0.736103
0.981387 0.880534 0.736103
0.049863 0.893025 0.736103
0.063047 0.893025 0.736103
0.165139 0.893025 0.736103
0.326502 0.893025 0.736103
0.517500 0.893025 0.736103
0.708498 0.893025 0.736103
0.869861 0.893025 0.736103
0.971953 0.893025 0.736103
0.985137 0.893025 0.736103
0.022363 0.006975 0.914452
0.035547 0.006975 0.914452
0.137639 0.006975 0.914452
0.299002 0.006975 0.914452
0.490000 0.006975 0.914452
0.680998 0.006975 0.914452
0.842361 0.006975 0.914452
0.944453 0.006975 0.914452
0.957637 0.006975 0.914452
0.026113 0.019466 0.914452
0.039297 0.019466 0.914452
0.141389 0.019466 0.914452
0.302752 0.019466 0.914452
0.493750 0.019466 0.914452
0.684748 0.019466 0.914452
0.846111 0.019466 0.914452
0.948203 0.019466 0.914452
0.961387 0.019466 0.914452
0.029863 0.116184 0.914452
0.043047 0.116184 0.914452
0.145139 0.116184 0.914452
0.306502 0.116184 0.914452
0.497500 0.116184 0.914452
0.688498 0.116184 0.914452
0.849861 0.116184 0.914452
0.951953 0.116184 0.914452
0.965137 0.116184 0.914452
0.033613 0.269054 0.914452
0.046797 0.269054 0.914452
0.148889 0.269054 0.914452
0.310252 0.269054 0.914452
0.501250 0.269054 0.914452
0.692248 0.269054 0.914452
0.853611 0.269054 0.914452
0.955703 0.269054 0.914452
0.968887 0.269054 0.914452
0.037362 0.450000 0.914452
0.050547 0.450000 0.914452
0.152639 0.450000 0.914452
0.314002 0.450000 0.914452
0.505000 0.450000 0.914452
0.695998 0.450000 0.914452
0.857361 0.450000 0.914452
0.959453 0.450000 0.914452
0.972637 0.450000 0.914452
0.041112 0.630946 0.914452
0.054297 0.630946 0.914452
0.156389 0.630946 0.914452
0.317752 0.630946 0.914452
0.508750 0.630946 0.914452
0.699748 0.630946 0.914452
0.861111 0.630946 0.914452
0.963203 0.630946 0.914452
0.976387 0.630946 0.914452
0.044862 0.783816 0.914452
0.058047 0.783816 0.914452
0.160139 0.783816 0.914452
0.321502 0.783816 0.914452
0.512500 0.783816 0.914452
0.703498 0.783816 0.914452
0.864861 0.783816 0.914452
0.966953 0.783816 0.914452
0.980137 0.783816 0.914452
0.048613 0.880534 0.914452
0.061797 0.880534 0.914452
0.163889 0.880534 0.914452
0.325252 0.880534 0.914452
0.516250 0.880534 0.914452
0.707248 0.880534 0.914452
0.868611 0.880534 0.914452
0.970703 0.880534 0.914452
0.983887 0.880534 0.914452
0.052362 0.893025 0.914452
0.065547 0.893025 0.914452
0.167639 0.893025 0.914452
0.329002 0.893025 0.914452
0.520000 0.893025 0.914452
0.710998 0.893025 0.914452
0.872361 0.893025 0.914452
0.974453 0.893025 0.914452
0.987637 0.893025 0.914452
0.024863 0.006975 1.000000
0.038047 0.006975 1.000000
0.140139 0.006975 1.000000
0.301502 0.006975 1.000000
0.492500 0.006975 1.000000
0.683498 0.006975 1.000000
0.844861 0.006975 1.000000
0.946953 0.006975 1.000000
0.960137 0.006975 1.000000
0.028613 0.019466 1.000000
0.041797 0.019466 1.000000
0.143889 0.019466 1.000000
0.305252 0.019466 1.000000
0.496250 0.019466 1.000000
0.687248 0.019466 1.000000
0.848611 0.019466 1.000000
0.950703 0.019466 1.000000
0.963887 0.019466 1.000000
0.032363 0.116184 1.000000
0.045547 0.116184 1.000000
0.147639 0.116184 1.000000
0.309002 0.116184 1.000000
0.500000 0.116184 1.000000
0.690998 0.116184 1.000000
0.852361 0.116184 1.000000
0.954453 0.116184 1.000000
0.967637 0.116184 1.000000
0.036113 0.269054 1.000000
0.049297 0.269054 1.000000
0.151389 0.269054 1.000000
0.312752 0.269054 1.000000
0.503750 0.269054 1.000000
0.694748 0.269054 1.000000
0.856111 0.269054 1.000000
0.958203 0.269054 1.000000
0.971387 0.269054 1.000000
0.039863 0.450000 1.000000
0.053047 0.450000 1.000000
0.155139 0.450000 1.000000
0.316502 0.450000 1.000000
0.507500 0.450000 1.000000
0.698498 0.450000 1.000000
0.859861 0.450000 1.000000
0.961953 0.450000 1.000000
0.975137 0.450000 1.000000
0.043612 0.630946 1.000000
0.056797 0.630946 1.000000
0.158889 0.630946 1.000000
0.320252 0.630946 1.000000
0.511250 0.630946 1.000000
0.702248 0.630946 1.000000
0.863611 0.630946 1.000000
0.965703 0.630946 1.000000
0.978887 0.630946 1.000000
0.047363 0.783816 1.000000
0.060547 0.783816 1.000000
0.162639 0.783816 1.000000
0.324002 0.783816 1.000000
0.515000 0.783816 1.000000
0.705998 0.783816 1.000000
0.867361 0.783816 1.000000
0.969453 0.783816 1.000000
0.982637 0.783816 1.000000
0.051113 0.880534 1.000000
0.064297 0.880534 1.000000
0.166389 0.880534 1.000000
0.327752 0.880534 1.000000
0.518750 0.880534 1.000000
0.709748 0.880534 1.000000
0.871111 0.880534 1.000000
0.973203 0.880534 1.000000
0.986387 0.880534 1.000000
0.054863 0.893025 1.000000
0.068047 0.893025 1.000000
0.170139 0.893025 1.000000
0.331502 0.893025 1.000000
0.522500 0.893025 1.000000
0.713498 0.893025 1.000000
0.874861 0.893025 1.000000
0.976953 0.893025 1.000000
0.990137 0.893025 1.000000
0.027363 0.006975 1.000000
0.040547 0.006975 1.000000
0.142639 0.006975 1.000000
0.304002 0.006975 1.000000
0.495000 0.006975 1.000000
0.685998 0.006975 1.000000
0.847361 0.006975 1.000000
0.949453 0.006975 1.000000
0.962637 0.006975 1.000000
0.031113 0.019466 1.000000
0.044297 0.019466 1.000000
0.146389 0.019466 1.000000
0.307752 0.019466 1.000000
0.498750 0.019466 1.000000
0.689748 0.019466 1.000000
0.851111 0.019466 1.000000
0.953203 0.019466 1.000000
0.966387 0.019466 1.000000
0.034863 0.116184 1.000000
0.048047 0.116184 1.000000
0.150139 0.116184 1.000000
0.311502 0.116184 1.000000
0.502500 0.116184 1.000000
0.693498 0.116184 1.000000
0.854861 0.116184 1.000000
0.956953 0.116184 1.000000
0.970137 0.116184 1.000000
0.038613 0.269054 1.000000
0.051797 0.269054 1.000000
0.153889 0.269054 1.000000
0.315252 0.269054 1.000000
0.506250 0.269054 1.000000
0.697248 0.269054 1.000000
0.858611 0.269054 1.000000
0.960703 0.269054 1.000000
0.973887 0.269054 1.000000
0.042362 0.450000 1.000000
0.055547 0.450000 1.000000
0.157639 0.450000 1.000000
0.319002 0.450000 1.000000
0.510000 0.450000 1.000000
0.700998 0.450000 1.000000
0.862361 0.450000 1.000000
0.964453 0.450000 1.000000
0.977637 0.450000 1.000000
0.046113 0.630946 1.000000
0.059297 0.630946 1.000000
0.161389 0.630946 1.000000
0.322752 0.630946 1.000000
0.513750 0.630946 1.000000
0.704748 0.630946 1.000000
0.866111 0.630946 1.000000
0.968203 0.630946 1.000000
0.981387 0.630946 1.000000
0.049863 0.783816 1.000000
0.063047 0.783816 1.000000
0.165139 0.783816 1.000000
0.326502 0.783816 1.000000
0.517500 0.783816 1.000000
0.708498 0.783816 1.000000
0.869861 0.783816 1.000000
0.971953 0.783816 1.000000
0.985137 0.783816 1.000000
0.053613 0.880534 1.000000
0.066797 0.880534 1.000000
0.168889 0.880534 1.000000
0.330252 0.880534 1.000000
0.521250 0.880534 1.000000
0.712248 0.880534 1.000000
0.873611 0.880534 1.000000
0.975703 0.880534 1.000000
0.988887 0.880534 1.000000
0.057362 0.893025 1.000000
0.070547 0.893025 1.000000
0.172639 0.893025 1.000000
0.334002 0.893025 1.000000
0.525000 0.893025 1.000000
0.715998 0.893025 1.000000
0.877361 0.893025 1.000000
0.979453 0.893025 1.000000
0.992637 0.893025 1.000000
