indra/newview/app_settings/luts/cinematic.cube
TITLE "Cinematic"
LUT_3D_SIZE 33
0.007363 0.006975 0.008138
0.000703 0.006975 0.008138
0.000989 0.006975 0.008138
0.007759 0.006975 0.008138
0.020547 0.006975 0.008138
0.038893 0.006975 0.008138
0.062332 0.006975 0.008138
0.090402 0.006975 0.008138
0.122639 0.006975 0.008138
0.158581 0.006975 0.008138
0.197764 0.006975 0.008138
0.239725 0.006975 0.008138
0.284002 0.006975 0.008138
0.330131 0.006975 0.008138
0.377649 0.006975 0.008138
0.426093 0.006975 0.008138
0.475000 0.006975 0.008138
0.523907 0.006975 0.008138
0.572351 0.006975 0.008138
0.619869 0.006975 0.008138
0.665998 0.006975 0.008138
0.710275 0.006975 0.008138
0.752236 0.006975 0.008138
0.791419 0.006975 0.008138
0.827361 0.006975 0.008138
0.859598 0.006975 0.008138
0.887668 0.006975 0.008138
0.911107 0.006975 0.008138
0.929453 0.006975 0.008138
0.942241 0.006975 0.008138
0.949011 0.006975 0.008138
0.949297 0.006975 0.008138
0.942637 0.006975 0.008138
0.008300 0.000666 0.008138
0.001641 0.000666 0.008138
0.001927 0.000666 0.008138
0.008696 0.000666 0.008138
0.021485 0.000666 0.008138
0.039831 0.000666 0.008138
0.063270 0.000666 0.008138
0.091339 0.000666 0.008138
0.123577 0.000666 0.008138
0.159518 0.000666 0.008138
0.198701 0.000666 0.008138
0.240663 0.000666 0.008138
0.284939 0.000666 0.008138
0.331068 0.000666 0.008138
0.378586 0.000666 0.008138
0.427030 0.000666 0.008138
0.475937 0.000666 0.008138
0.524845 0.000666 0.008138
0.573289 0.000666 0.008138
0.620807 0.000666 0.008138
0.666936 0.000666 0.008138
0.711212 0.000666 0.008138
0.753174 0.000666 0.008138
0.792357 0.000666 0.008138
0.828298 0.000666 0.008138
0.860536 0.000666 0.008138
0.888605 0.000666 0.008138
0.912044 0.000666 0.008138
0.930390 0.000666 0.008138
0.943179 0.000666 0.008138
0.949948 0.000666 0.008138
0.950234 0.000666 0.008138
0.943575 0.000666 0.008138
0.009238 0.000937 0.008138
0.002578 0.000937 0.008138
0.002864 0.000937 0.008138
0.009634 0.000937 0.008138
0.022422 0.000937 0.008138
0.040768 0.000937 0.008138
0.064207 0.000937 0.008138
0.092277 0.000937 0.008138
0.124514 0.000937 0.008138
0.160456 0.000937 0.008138
0.199639 0.000937 0.008138
0.241600 0.000937 0.008138
0.285877 0.000937 0.008138
0.332006 0.000937 0.008138
0.379524 0.000937 0.008138
0.427968 0.000937 0.008138
0.476875 0.000937 0.008138
0.525782 0.000937 0.008138
0.574226 0.000937 0.008138
0.621744 0.000937 0.008138
0.667873 0.000937 0.008138
0.712150 0.000937 0.008138
0.754111 0.000937 0.008138
0.793294 0.000937 0.008138
0.829236 0.000937 0.008138
0.861473 0.000937 0.008138
0.889543 0.000937 0.008138
0.912982 0.000937 0.008138
0.931328 0.000937 0.008138
0.944116 0.000937 0.008138
0.950886 0.000937 0.008138
0.951172 0.000937 0.008138
0.944512 0.000937 0.008138
0.010175 0.007350 0.008138
0.003516 0.007350 0.008138
0.003802 0.007350 0.008138
0.010571 0.007350 0.008138
0.023360 0.007350 0.008138
0.041706 0.007350 0.008138
0.065145 0.007350 0.008138
0.093214 0.007350 0.008138
0.125452 0.007350 0.008138
0.161393 0.007350 0.008138
0.200576 0.007350 0.008138
0.242538 0.007350 0.008138
0.286814 0.007350 0.008138
0.332943 0.007350 0.008138
0.380461 0.007350 0.008138
0.428905 0.007350 0.008138
0.477812 0.007350 0.008138
0.526720 0.007350 0.008138
0.575164 0.007350 0.008138
0.622682 0.007350 0.008138
0.668811 0.007350 0.008138
0.713087 0.007350 0.008138
0.755049 0.007350 0.008138
0.794232 0.007350 0.008138
0.830173 0.007350 0.008138
0.862411 0.007350 0.008138
0.890480 0.007350 0.008138
0.913919 0.007350 0.008138
0.932265 0.007350 0.008138
0.945054 0.007350 0.008138
0.951823 0.007350 0.008138
0.952109 0.007350 0.008138
0.945450 0.007350 0.008138
0.011113 0.019466 0.008138
0.004453 0.019466 0.008138
0.004739 0.019466 0.008138
0.011509 0.019466 0.008138
0.024297 0.019466 0.008138
0.042643 0.019466 0.008138
0.066082 0.019466 0.008138
0.094152 0.019466 0.008138
0.126389 0.019466 0.008138
0.162331 0.019466 0.008138
0.201514 0.019466 0.008138
0.243475 0.019466 0.008138
0.287752 0.019466 0.008138
0.333881 0.019466 0.008138
0.381399 0.019466 0.008138
0.429843 0.019466 0.008138
0.478750 0.019466 0.008138
0.527657 0.019466 0.008138
0.576101 0.019466 0.008138
0.623619 0.019466 0.008138
0.669748 0.019466 0.008138
0.714025 0.019466 0.008138
0.755986 0.019466 0.008138
0.795169 0.019466 0.008138
0.831111 0.019466 0.008138
0.863348 0.019466 0.008138
0.891418 0.019466 0.008138
0.914857 0.019466 0.008138
0.933203 0.019466 0.008138
0.945991 0.019466 0.008138
0.952761 0.019466 0.008138
0.953047 0.019466 0.008138
0.946387 0.019466 0.008138
0.012050 0.036846 0.008138
0.005391 0.036846 0.008138
0.005677 0.036846 0.008138
0.012446 0.036846 0.008138
0.025235 0.036846 0.008138
0.043581 0.036846 0.008138
0.067020 0.036846 0.008138
0.095089 0.036846 0.008138
0.127327 0.036846 0.008138
0.163268 0.036846 0.008138
0.202451 0.036846 0.008138
0.244413 0.036846 0.008138
0.288689 0.036846 0.008138
0.334818 0.036846 0.008138
0.382336 0.036846 0.008138
0.430780 0.036846 0.008138
0.479687 0.036846 0.008138
0.528595 0.036846 0.008138
0.577039 0.036846 0.008138
0.624557 0.036846 0.008138
0.670686 0.036846 0.008138
0.714962 0.036846 0.008138
0.756924 0.036846 0.008138
0.796107 0.036846 0.008138
0.832048 0.036846 0.008138
0.864286 0.036846 0.008138
0.892355 0.036846 0.008138
0.915794 0.036846 0.008138
0.934140 0.036846 0.008138
0.946929 0.036846 0.008138
0.953698 0.036846 0.008138
0.953984 0.036846 0.008138
0.947325 0.036846 0.008138
0.012988 0.059052 0.008138
0.006328 0.059052 0.008138
0.006614 0.059052 0.008138
0.013384 0.059052 0.008138
0.026172 0.059052 0.008138
0.044518 0.059052 0.008138
0.067957 0.059052 0.008138
0.096027 0.059052 0.008138
0.128264 0.059052 0.008138
0.164206 0.059052 0.008138
0.203389 0.059052 0.008138
0.245350 0.059052 0.008138
0.289627 0.059052 0.008138
0.335756 0.059052 0.008138
0.383274 0.059052 0.008138
0.431718 0.059052 0.008138
0.480625 0.059052 0.008138
0.529532 0.059052 0.008138
0.577976 0.059052 0.008138
0.625494 0.059052 0.008138
0.671623 0.059052 0.008138
0.715900 0.059052 0.008138
0.757861 0.059052 0.008138
0.797044 0.059052 0.008138
0.832986 0.059052 0.008138
0.865223 0.059052 0.008138
0.893293 0.059052 0.008138
0.916732 0.059052 0.008138
0.935078 0.059052 0.008138
0.947866 0.059052 0.008138
0.954636 0.059052 0.008138
0.954922 0.059052 0.008138
0.948262 0.059052 0.008138
0.013925 0.085644 0.008138
0.007266 0.085644 0.008138
0.007552 0.085644 0.008138
0.014321 0.085644 0.008138
0.027110 0.085644 0.008138
0.045456 0.085644 0.008138
0.068895 0.085644 0.008138
0.096964 0.085644 0.008138
0.129202 0.085644 0.008138
0.165143 0.085644 0.008138
0.204326 0.085644 0.008138
0.246288 0.085644 0.008138
0.290564 0.085644 0.008138
0.336693 0.085644 0.008138
0.384211 0.085644 0.008138
0.432655 0.085644 0.008138
0.481563 0.085644 0.008138
0.530470 0.085644 0.008138
0.578914 0.085644 0.008138
0.626432 0.085644 0.008138
0.672561 0.085644 0.008138
0.716837 0.085644 0.008138
0.758799 0.085644 0.008138
0.797982 0.085644 0.008138
0.833923 0.085644 0.008138
0.866161 0.085644 0.008138
0.894230 0.085644 0.008138
0.917669 0.085644 0.008138
0.936015 0.085644 0.008138
0.948804 0.085644 0.008138
0.955573 0.085644 0.008138
0.955859 0.085644 0.008138
0.949200 0.085644 0.008138
0.014863 0.116184 0.008138
0.008203 0.116184 0.008138
0.008489 0.116184 0.008138
0.015259 0.116184 0.008138
0.028047 0.116184 0.008138
0.046393 0.116184 0.008138
0.069832 0.116184 0.008138
0.097902 0.116184 0.008138
0.130139 0.116184 0.008138
0.166081 0.116184 0.008138
0.205264 0.116184 0.008138
0.247225 0.116184 0.008138
0.291502 0.116184 0.008138
0.337631 0.116184 0.008138
0.385149 0.116184 0.008138
0.433593 0.116184 0.008138
0.482500 0.116184 0.008138
0.531407 0.116184 0.008138
0.579851 0.116184 0.008138
0.627369 0.116184 0.008138
0.673498 0.116184 0.008138
0.717775 0.116184 0.008138
0.759736 0.116184 0.008138
0.798919 0.116184 0.008138
0.834861 0.116184 0.008138
0.867098 0.116184 0.008138
0.895168 0.116184 0.008138
0.918607 0.116184 0.008138
0.936953 0.116184 0.008138
0.949741 0.116184 0.008138
0.956511 0.116184 0.008138
0.956797 0.116184 0.008138
0.950137 0.116184 0.008138
0.015800 0.150234 0.008138
0.009141 0.150234 0.008138
0.009427 0.150234 0.008138
0.016196 0.150234 0.008138
0.028985 0.150234 0.008138
0.047331 0.150234 0.008138
0.070770 0.150234 0.008138
0.098839 0.150234 0.008138
0.131077 0.150234 0.008138
0.167018 0.150234 0.008138
0.206201 0.150234 0.008138
0.248163 0.150234 0.008138
0.292439 0.150234 0.008138
0.338568 0.150234 0.008138
0.386086 0.150234 0.008138
0.434530 0.150234 0.008138
0.483437 0.150234 0.008138
0.532345 0.150234 0.008138
0.580789 0.150234 0.008138
0.628307 0.150234 0.008138
0.674436 0.150234 0.008138
0.718712 0.150234 0.008138
0.760674 0.150234 0.008138
0.799857 0.150234 0.008138
0.835798 0.150234 0.008138
0.868036 0.150234 0.008138
0.896105 0.150234 0.008138
0.919544 0.150234 0.008138
0.937890 0.150234 0.008138
0.950679 0.150234 0.008138
0.957448 0.150234 0.008138
0.957734 0.150234 0.008138
0.951075 0.150234 0.008138
0.016738 0.187355 0.008138
0.010078 0.187355 0.008138
0.010364 0.187355 0.008138
0.017134 0.187355 0.008138
0.029922 0.187355 0.008138
0.048268 0.187355 0.008138
0.071707 0.187355 0.008138
0.099777 0.187355 0.008138
0.132014 0.187355 0.008138
0.167956 0.187355 0.008138
0.207139 0.187355 0.008138
0.249100 0.187355 0.008138
0.293377 0.187355 0.008138
0.339506 0.187355 0.008138
0.387024 0.187355 0.008138
0.435468 0.187355 0.008138
0.484375 0.187355 0.008138
0.533282 0.187355 0.008138
0.581726 0.187355 0.008138
0.629244 0.187355 0.008138
0.675373 0.187355 0.008138
0.719650 0.187355 0.008138
0.761611 0.187355 0.008138
0.800794 0.187355 0.008138
0.836736 0.187355 0.008138
0.868973 0.187355 0.008138
0.897043 0.187355 0.008138
0.920482 0.187355 0.008138
0.938828 0.187355 0.008138
0.951616 0.187355 0.008138
0.958386 0.187355 0.008138
0.958672 0.187355 0.008138
0.952012 0.187355 0.008138
0.017675 0.227108 0.008138
0.011016 0.227108 0.008138
0.011302 0.227108 0.008138
0.018071 0.227108 0.008138
0.030860 0.227108 0.008138
0.049206 0.227108 0.008138
0.072645 0.227108 0.008138
0.100714 0.227108 0.008138
0.132952 0.227108 0.008138
0.168893 0.227108 0.008138
0.208076 0.227108 0.008138
0.250038 0.227108 0.008138
0.294314 0.227108 0.008138
0.340443 0.227108 0.008138
0.387961 0.227108 0.008138
0.436405 0.227108 0.008138
0.485312 0.227108 0.008138
0.534220 0.227108 0.008138
0.582664 0.227108 0.008138
0.630182 0.227108 0.008138
0.676311 0.227108 0.008138
0.720587 0.227108 0.008138
0.762549 0.227108 0.008138
0.801732 0.227108 0.008138
0.837673 0.227108 0.008138
0.869911 0.227108 0.008138
0.897980 0.227108 0.008138
0.921419 0.227108 0.008138
0.939765 0.227108 0.008138
0.952554 0.227108 0.008138
0.959323 0.227108 0.008138
0.959609 0.227108 0.008138
0.952950 0.227108 0.008138
0.018613 0.269054 0.008138
0.011953 0.269054 0.008138
0.012239 0.269054 0.008138
0.019009 0.269054 0.008138
0.031797 0.269054 0.008138
0.050143 0.269054 0.008138
0.073582 0.269054 0.008138
0.101652 0.269054 0.008138
0.133889 0.269054 0.008138
0.169831 0.269054 0.008138
0.209014 0.269054 0.008138
0.250975 0.269054 0.008138
0.295252 0.269054 0.008138
0.341381 0.269054 0.008138
0.388899 0.269054 0.008138
0.437343 0.269054 0.008138
0.486250 0.269054 0.008138
0.535157 0.269054 0.008138
0.583601 0.269054 0.008138
0.631119 0.269054 0.008138
0.677248 0.269054 0.008138
0.721525 0.269054 0.008138
0.763486 0.269054 0.008138
0.802669 0.269054 0.008138
0.838611 0.269054 0.008138
0.870848 0.269054 0.008138
0.898918 0.269054 0.008138
0.922357 0.269054 0.008138
0.940703 0.269054 0.008138
0.953491 0.269054 0.008138
0.960261 0.269054 0.008138
0.960547 0.269054 0.008138
0.953887 0.269054 0.008138
0.019550 0.312755 0.008138
0.012891 0.312755 0.008138
0.013177 0.312755 0.008138
0.019946 0.312755 0.008138
0.032735 0.312755 0.008138
0.051081 0.312755 0.008138
0.074520 0.312755 0.008138
0.102589 0.312755 0.008138
0.134827 0.312755 0.008138
0.170768 0.312755 0.008138
0.209951 0.312755 0.008138
0.251913 0.312755 0.008138
0.296189 0.312755 0.008138
0.342318 0.312755 0.008138
0.389836 0.312755 0.008138
0.438280 0.312755 0.008138
0.487187 0.312755 0.008138
0.536095 0.312755 0.008138
0.584539 0.312755 0.008138
0.632057 0.312755 0.008138
0.678186 0.312755 0.008138
0.722462 0.312755 0.008138
0.764424 0.312755 0.008138
0.803607 0.312755 0.008138
0.839548 0.312755 0.008138
0.871786 0.312755 0.008138
0.899855 0.312755 0.008138
0.923294 0.312755 0.008138
0.941640 0.312755 0.008138
0.954429 0.312755 0.008138
0.961198 0.312755 0.008138
0.961484 0.312755 0.008138
0.954825 0.312755 0.008138
0.020487 0.357772 0.008138
0.013828 0.357772 0.008138
0.014114 0.357772 0.008138
0.020884 0.357772 0.008138
0.033672 0.357772 0.008138
0.052018 0.357772 0.008138
0.075457 0.357772 0.008138
0.103527 0.357772 0.008138
0.135764 0.357772 0.008138
0.171706 0.357772 0.008138
0.210889 0.357772 0.008138
0.252850 0.357772 0.008138
0.297127 0.357772 0.008138
0.343256 0.357772 0.008138
0.390774 0.357772 0.008138
0.439218 0.357772 0.008138
0.488125 0.357772 0.008138
0.537032 0.357772 0.008138
0.585476 0.357772 0.008138
0.632994 0.357772 0.008138
0.679123 0.357772 0.008138
0.723400 0.357772 0.008138
0.765361 0.357772 0.008138
0.804544 0.357772 0.008138
0.840486 0.357772 0.008138
0.872723 0.357772 0.008138
0.900793 0.357772 0.008138
0.924232 0.357772 0.008138
0.942578 0.357772 0.008138
0.955366 0.357772 0.008138
0.962136 0.357772 0.008138
0.962422 0.357772 0.008138
0.955762 0.357772 0.008138
0.021425 0.403667 0.008138
0.014766 0.403667 0.008138
0.015052 0.403667 0.008138
0.021821 0.403667 0.008138
0.034610 0.403667 0.008138
0.052956 0.403667 0.008138
0.076395 0.403667 0.008138
0.104464 0.403667 0.008138
0.136702 0.403667 0.008138
0.172643 0.403667 0.008138
0.211826 0.403667 0.008138
0.253788 0.403667 0.008138
0.298064 0.403667 0.008138
0.344193 0.403667 0.008138
0.391711 0.403667 0.008138
0.440155 0.403667 0.008138
0.489062 0.403667 0.008138
0.537970 0.403667 0.008138
0.586414 0.403667 0.008138
0.633932 0.403667 0.008138
0.680061 0.403667 0.008138
0.724337 0.403667 0.008138
0.766299 0.403667 0.008138
0.805482 0.403667 0.008138
0.841423 0.403667 0.008138
0.873661 0.403667 0.008138
0.901730 0.403667 0.008138
0.925169 0.403667 0.008138
0.943515 0.403667 0.008138
0.956304 0.403667 0.008138
0.963073 0.403667 0.008138
0.963359 0.403667 0.008138
0.956700 0.403667 0.008138
0.022363 0.450000 0.008138
0.015703 0.450000 0.008138
0.015989 0.450000 0.008138
0.022759 0.450000 0.008138
0.035547 0.450000 0.008138
0.053893 0.450000 0.008138
0.077332 0.450000 0.008138
0.105402 0.450000 0.008138
0.137639 0.450000 0.008138
0.173581 0.450000 0.008138
0.212764 0.450000 0.008138
0.254725 0.450000 0.008138
0.299002 0.450000 0.008138
0.345131 0.450000 0.008138
0.392649 0.450000 0.008138
0.441093 0.450000 0.008138
0.490000 0.450000 0.008138
0.538907 0.450000 0.008138
0.587351 0.450000 0.008138
0.634869 0.450000 0.008138
0.680998 0.450000 0.008138
0.725275 0.450000 0.008138
0.767236 0.450000 0.008138
0.806419 0.450000 0.008138
0.842361 0.450000 0.008138
0.874598 0.450000 0.008138
0.902668 0.450000 0.008138
0.926107 0.450000 0.008138
0.944453 0.450000 0.008138
0.957241 0.450000 0.008138
0.964011 0.450000 0.008138
0.964297 0.450000 0.008138
0.957637 0.450000 0.008138
0.023300 0.496333 0.008138
0.016641 0.496333 0.008138
0.016927 0.496333 0.008138
0.023696 0.496333 0.008138
0.036485 0.496333 0.008138
0.054831 0.496333 0.008138
0.078270 0.496333 0.008138
0.106339 0.496333 0.008138
0.138577 0.496333 0.008138
0.174518 0.496333 0.008138
0.213701 0.496333 0.008138
0.255663 0.496333 0.008138
0.299939 0.496333 0.008138
0.346068 0.496333 0.008138
0.393586 0.496333 0.008138
0.442030 0.496333 0.008138
0.490937 0.496333 0.008138
0.539845 0.496333 0.008138
0.588289 0.496333 0.008138
0.635807 0.496333 0.008138
0.681936 0.496333 0.008138
0.726212 0.496333 0.008138
0.768174 0.496333 0.008138
0.807357 0.496333 0.008138
0.843298 0.496333 0.008138
0.875536 0.496333 0.008138
0.903605 0.496333 0.008138
0.927044 0.496333 0.008138
0.945390 0.496333 0.008138
0.958179 0.496333 0.008138
0.964948 0.496333 0.008138
0.965234 0.496333 0.008138
0.958575 0.496333 0.008138
0.024238 0.542228 0.008138
0.017578 0.542228 0.008138
0.017864 0.542228 0.008138
0.024634 0.542228 0.008138
0.037422 0.542228 0.008138
0.055768 0.542228 0.008138
0.079207 0.542228 0.008138
0.107277 0.542228 0.008138
0.139514 0.542228 0.008138
0.175456 0.542228 0.008138
0.214639 0.542228 0.008138
0.256600 0.542228 0.008138
0.300877 0.542228 0.008138
0.347006 0.542228 0.008138
0.394524 0.542228 0.008138
0.442968 0.542228 0.008138
0.491875 0.542228 0.008138
0.540782 0.542228 0.008138
0.589226 0.542228 0.008138
0.636744 0.542228 0.008138
0.682873 0.542228 0.008138
0.727150 0.542228 0.008138
0.769111 0.542228 0.008138
0.808294 0.542228 0.008138
0.844236 0.542228 0.008138
0.876473 0.542228 0.008138
0.904543 0.542228 0.008138
0.927982 0.542228 0.008138
0.946328 0.542228 0.008138
0.959116 0.542228 0.008138
0.965886 0.542228 0.008138
0.966172 0.542228 0.008138
0.959512 0.542228 0.008138
0.025175 0.587245 0.008138
0.018516 0.587245 0.008138
0.018802 0.587245 0.008138
0.025571 0.587245 0.008138
0.038360 0.587245 0.008138
0.056706 0.587245 0.008138
0.080145 0.587245 0.008138
0.108214 0.587245 0.008138
0.140452 0.587245 0.008138
0.176393 0.587245 0.008138
0.215576 0.587245 0.008138
0.257538 0.587245 0.008138
0.301814 0.587245 0.008138
0.347943 0.587245 0.008138
0.395461 0.587245 0.008138
0.443905 0.587245 0.008138
0.492812 0.587245 0.008138
0.541720 0.587245 0.008138
0.590164 0.587245 0.008138
0.637682 0.587245 0.008138
0.683811 0.587245 0.008138
0.728087 0.587245 0.008138
0.770049 0.587245 0.008138
0.809232 0.587245 0.008138
0.845173 0.587245 0.008138
0.877411 0.587245 0.008138
0.905480 0.587245 0.008138
0.928919 0.587245 0.008138
0.947265 0.587245 0.008138
0.960054 0.587245 0.008138
0.966823 0.587245 0.008138
0.967109 0.587245 0.008138
0.960450 0.587245 0.008138
0.026113 0.630946 0.008138
0.019453 0.630946 0.008138
0.019739 0.630946 0.008138
0.026509 0.630946 0.008138
0.039297 0.630946 0.008138
0.057643 0.630946 0.008138
0.081082 0.630946 0.008138
0.109152 0.630946 0.008138
0.141389 0.630946 0.008138
0.177331 0.630946 0.008138
0.216514 0.630946 0.008138
0.258475 0.630946 0.008138
0.302752 0.630946 0.008138
0.348881 0.630946 0.008138
0.396399 0.630946 0.008138
0.444843 0.630946 0.008138
0.493750 0.630946 0.008138
0.542657 0.630946 0.008138
0.591101 0.630946 0.008138
0.638619 0.630946 0.008138
0.684748 0.630946 0.008138
0.729025 0.630946 0.008138
0.770986 0.630946 0.008138
0.810169 0.630946 0.008138
0.846111 0.630946 0.008138
0.878348 0.630946 0.008138
0.906418 0.630946 0.008138
0.929857 0.630946 0.008138
0.948203 0.630946 0.008138
0.960991 0.630946 0.008138
0.967761 0.630946 0.008138
0.968047 0.630946 0.008138
0.961387 0.630946 0.008138
0.027050 0.672892 0.008138
0.020391 0.672892 0.008138
0.020677 0.672892 0.008138
0.027446 0.672892 0.008138
0.040235 0.672892 0.008138
0.058581 0.672892 0.008138
0.082020 0.672892 0.008138
0.110089 0.672892 0.008138
0.142327 0.672892 0.008138
0.178268 0.672892 0.008138
0.217451 0.672892 0.008138
0.259413 0.672892 0.008138
0.303689 0.672892 0.008138
0.349818 0.672892 0.008138
0.397336 0.672892 0.008138
0.445780 0.672892 0.008138
0.494688 0.672892 0.008138
0.543595 0.672892 0.008138
0.592039 0.672892 0.008138
0.639557 0.672892 0.008138
0.685686 0.672892 0.008138
0.729962 0.672892 0.008138
0.771924 0.672892 0.008138
0.811107 0.672892 0.008138
0.847048 0.672892 0.008138
0.879286 0.672892 0.008138
0.907355 0.672892 0.008138
0.930794 0.672892 0.008138
0.949140 0.672892 0.008138
0.961929 0.672892 0.008138
0.968698 0.672892 0.008138
0.968984 0.672892 0.008138
0.962325 0.672892 0.008138
0.027987 0.712645 0.008138
0.021328 0.712645 0.008138
0.021614 0.712645 0.008138
0.028384 0.712645 0.008138
0.041172 0.712645 0.008138
0.059518 0.712645 0.008138
0.082957 0.712645 0.008138
0.111027 0.712645 0.008138
0.143264 0.712645 0.008138
0.179206 0.712645 0.008138
0.218389 0.712645 0.008138
0.260350 0.712645 0.008138
0.304627 0.712645 0.008138
0.350756 0.712645 0.008138
0.398274 0.712645 0.008138
0.446718 0.712645 0.008138
0.495625 0.712645 0.008138
0.544532 0.712645 0.008138
0.592976 0.712645 0.008138
0.640494 0.712645 0.008138
0.686623 0.712645 0.008138
0.730900 0.712645 0.008138
0.772861 0.712645 0.008138
0.812044 0.712645 0.008138
0.847986 0.712645 0.008138
0.880223 0.712645 0.008138
0.908293 0.712645 0.008138
0.931732 0.712645 0.008138
0.950078 0.712645 0.008138
0.962866 0.712645 0.008138
0.969636 0.712645 0.008138
0.969922 0.712645 0.008138
0.963262 0.712645 0.008138
0.028925 0.749766 0.008138
0.022266 0.749766 0.008138
0.022552 0.749766 0.008138
0.029321 0.749766 0.008138
0.042110 0.749766 0.008138
0.060456 0.749766 0.008138
0.083895 0.749766 0.008138
0.111964 0.749766 0.008138
0.144202 0.749766 0.008138
0.180143 0.749766 0.008138
0.219326 0.749766 0.008138
0.261288 0.749766 0.008138
0.305564 0.749766 0.008138
0.351693 0.749766 0.008138
0.399211 0.749766 0.008138
0.447655 0.749766 0.008138
0.496562 0.749766 0.008138
0.545470 0.749766 0.008138
0.593914 0.749766 0.008138
0.641432 0.749766 0.008138
0.687561 0.749766 0.008138
0.731837 0.749766 0.008138
0.773799 0.749766 0.008138
0.812982 0.749766 0.008138
0.848923 0.749766 0.008138
0.881161 0.749766 0.008138
0.909230 0.749766 0.008138
0.932669 0.749766 0.008138
0.951015 0.749766 0.008138
0.963804 0.749766 0.008138
0.970573 0.749766 0.008138
0.970859 0.749766 0.008138
0.964200 0.749766 0.008138
0.029863 0.783816 0.008138
0.023203 0.783816 0.008138
0.023489 0.783816 0.008138
0.030259 0.783816 0.008138
0.043047 0.783816 0.008138
0.061393 0.783816 0.008138
0.084832 0.783816 0.008138
0.112902 0.783816 0.008138
0.145139 0.783816 0.008138
0.181081 0.783816 0.008138
0.220264 0.783816 0.008138
0.262225 0.783816 0.008138
0.306502 0.783816 0.008138
0.352631 0.783816 0.008138
0.400149 0.783816 0.008138
0.448593 0.783816 0.008138
0.497500 0.783816 0.008138
0.546407 0.783816 0.008138
0.594851 0.783816 0.008138
0.642369 0.783816 0.008138
0.688498 0.783816 0.008138
0.732775 0.783816 0.008138
0.774736 0.783816 0.008138
0.813919 0.783816 0.008138
0.849861 0.783816 0.008138
0.882098 0.783816 0.008138
0.910168 0.783816 0.008138
0.933607 0.783816 0.008138
0.951953 0.783816 0.008138
0.964741 0.783816 0.008138
0.971511 0.783816 0.008138
0.971797 0.783816 0.008138
0.965137 0.783816 0.008138
0.030800 0.814356 0.008138
0.024141 0.814356 0.008138
0.024427 0.814356 0.008138
0.031196 0.814356 0.008138
0.043985 0.814356 0.008138
0.062331 0.814356 0.008138
0.085770 0.814356 0.008138
0.113839 0.814356 0.008138
0.146077 0.814356 0.008138
0.182018 0.814356 0.008138
0.221201 0.814356 0.008138
0.263163 0.814356 0.008138
0.307439 0.814356 0.008138
0.353568 0.814356 0.008138
0.401086 0.814356 0.008138
0.449530 0.814356 0.008138
0.498437 0.814356 0.008138
0.547345 0.814356 0.008138
0.595789 0.814356 0.008138
0.643307 0.814356 0.008138
0.689436 0.814356 0.008138
0.733712 0.814356 0.008138
0.775674 0.814356 0.008138
0.814857 0.814356 0.008138
0.850798 0.814356 0.008138
0.883036 0.814356 0.008138
0.911105 0.814356 0.008138
0.934544 0.814356 0.008138
0.952890 0.814356 0.008138
0.965679 0.814356 0.008138
0.972448 0.814356 0.008138
0.972734 0.814356 0.008138
0.966075 0.814356 0.008138
0.031738 0.840948 0.008138
0.025078 0.840948 0.008138
0.025364 0.840948 0.008138
0.032134 0.840948 0.008138
0.044922 0.840948 0.008138
0.063268 0.840948 0.008138
0.086707 0.840948 0.008138
0.114777 0.840948 0.008138
0.147014 0.840948 0.008138
0.182956 0.840948 0.008138
0.222139 0.840948 0.008138
0.264100 0.840948 0.008138
0.308377 0.840948 0.008138
0.354506 0.840948 0.008138
0.402024 0.840948 0.008138
0.450468 0.840948 0.008138
0.499375 0.840948 0.008138
0.548282 0.840948 0.008138
0.596726 0.840948 0.008138
0.644244 0.840948 0.008138
0.690373 0.840948 0.008138
0.734650 0.840948 0.008138
0.776611 0.840948 0.008138
0.815794 0.840948 0.008138
0.851736 0.840948 0.008138
0.883973 0.840948 0.008138
0.912043 0.840948 0.008138
0.935482 0.840948 0.008138
0.953828 0.840948 0.008138
