indra/newview/app_settings/luts/cold_war.cube
TITLE "Cold War"
LUT_3D_SIZE 5
0.011232 0.011232 0.011232
0.014010 0.002074 0.000968
0.103982 0.000184 0.001742
0.254789 0.005094 0.012655
0.440073 0.016334 0.032811
0.006084 0.069049 0.018971
0.081786 0.098753 0.042267
0.223242 0.132678 0.073580
0.404093 0.170356 0.112010
0.597980 0.211317 0.156660
0.061879 0.325000 0.127593
0.193066 0.373761 0.174284
0.368566 0.423697 0.225969
0.562022 0.474337 0.281750
0.747074 0.525214 0.340728
0.164433 0.650357 0.302899
0.333665 0.698370 0.362818
0.525770 0.744510 0.424709
0.714391 0.788308 0.487673
0.873167 0.829296 0.550812
0.299560 0.916389 0.510687
0.489398 0.943849 0.573667
0.680669 0.966389 0.635597
0.847014 0.983540 0.695578
0.962077 0.994834 0.752713
0.007539 0.007278 0.021139
0.018471 0.000641 0.045373
0.114431 0.001113 0.077522
0.269063 0.008225 0.116690
0.456006 0.021508 0.161976
0.009187 0.078634 0.132516
0.091282 0.109824 0.179807
0.236966 0.145076 0.231993
0.419881 0.183922 0.288174
0.613668 0.225891 0.347452
0.070347 0.341399 0.309444
0.206166 0.390612 0.369626
0.384133 0.440839 0.431681
0.577892 0.491612 0.494709
0.761083 0.542463 0.557813
0.176833 0.666843 0.517722
0.348936 0.714273 0.580629
0.541748 0.759670 0.642387
0.728911 0.802567 0.702096
0.884067 0.842493 0.758858
0.314460 0.926237 0.723149
0.505408 0.952079 0.778616
0.695626 0.972841 0.829909
0.858754 0.988056 0.876132
0.968434 0.997254 0.916387
0.004597 0.004198 0.137510
0.023504 0.000027 0.185391
0.125276 0.002807 0.238066
0.283554 0.012067 0.294636
0.471980 0.027339 0.354203
0.012897 0.088742 0.316023
0.101207 0.121364 0.376458
0.250941 0.157889 0.438666
0.435742 0.197848 0.501747
0.629250 0.240771 0.564803
0.079276 0.357969 0.524754
0.219549 0.407579 0.587578
0.399807 0.458044 0.649152
0.593691 0.508896 0.708577
0.774843 0.559666 0.764955
0.189549 0.683149 0.729502
0.364346 0.729941 0.784548
0.557688 0.774542 0.835322
0.743216 0.816483 0.880925
0.894572 0.855294 0.920459
0.329532 0.935553 0.896068
0.521414 0.959723 0.933169
0.710400 0.978654 0.962977
0.870132 0.991878 0.984591
0.974252 0.998926 0.997114
0.002392 0.001973 0.322635
0.029097 0.000216 0.383312
0.136502 0.005248 0.445661
0.298249 0.016603 0.508784
0.487979 0.033810 0.571782
0.017198 0.099354 0.531781
0.111545 0.133354 0.594510
0.265153 0.171098 0.655890
0.451662 0.212116 0.715020
0.644714 0.255940 0.771004
0.088652 0.374692 0.735813
0.233202 0.424644 0.790428
0.415572 0.475294 0.840671
0.609404 0.526170 0.885643
0.788340 0.576806 0.924446
0.202569 0.699257 0.900531
0.379882 0.745357 0.936865
0.573575 0.789107 0.965804
0.757291 0.830037 0.986451
0.904670 0.867680 0.997907
0.344762 0.944320 0.991733
0.537399 0.966763 0.999619
0.724977 0.983808 0.997089
0.881136 0.994987 0.983244
0.979519 0.999831 0.957185
0.000909 0.000586 0.538803
0.035233 0.001187 0.601426
0.148094 0.008419 0.662600
0.313132 0.021814 0.721424
0.503989 0.040902 0.777002
0.022077 0.110452 0.742081
0.122284 0.145776 0.796254
0.279586 0.184684 0.845954
0.467626 0.226708 0.890284
0.660045 0.271378 0.928345
0.098462 0.391549 0.904913
0.247110 0.441791 0.940469
0.431415 0.492570 0.968529
0.625017 0.543417 0.988197
0.801558 0.593864 0.998574
0.215876 0.715147 0.993098
0.395528 0.760502 0.999869
0.589395 0.803347 0.996124
0.771120 0.843213 0.980964
0.914344 0.879632 0.953490
0.360136 0.952518 0.972434
0.553351 0.973180 0.940255
0.739342 0.988286 0.894537
0.891750 0.997366 0.834382
0.984218 0.999952 0.758891
