indra/newview/app_settings/luts/cold_war.cube
TITLE "Cold War"
LUT_3D_SIZE 9
0.011232 0.011232 0.011232
0.000075 0.005715 0.004664
0.014010 0.002074 0.000968
0.049745 0.000250 0.000031
0.103982 0.000184 0.001742
0.173429 0.001819 0.005987
0.254789 0.005094 0.012655
0.344769 0.009952 0.021634
0.440073 0.016334 0.032811
0.000153 0.007328 0.000353
0.009657 0.012955 0.003000
0.041574 0.020077 0.008140
0.092609 0.028635 0.015663
0.159467 0.038570 0.025454
0.238855 0.049825 0.037403
0.327476 0.062339 0.051397
0.422037 0.076056 0.067324
0.519242 0.090915 0.085071
0.006084 0.069049 0.018971
0.034068 0.083344 0.029561
0.081786 0.098753 0.042267
0.145942 0.115217 0.056978
0.223242 0.132678 0.073580
0.310390 0.151077 0.091962
0.404093 0.170356 0.112010
0.501054 0.190455 0.133614
0.597980 0.211317 0.156660
0.027250 0.180303 0.062809
0.071536 0.200791 0.080072
0.132875 0.222012 0.099074
0.207972 0.243907 0.119701
0.293533 0.266418 0.141843
0.386262 0.289486 0.165387
0.482866 0.313052 0.190220
0.580048 0.337059 0.216230
0.674515 0.361447 0.243304
0.061879 0.325000 0.127593
0.120286 0.349205 0.150258
0.193066 0.373761 0.174284
0.276925 0.398612 0.199559
0.368566 0.423697 0.225969
0.464697 0.448958 0.253404
0.562022 0.474337 0.281750
0.657245 0.499775 0.310895
0.747074 0.525214 0.340728
0.108198 0.487048 0.209048
0.178546 0.512494 0.235845
0.260587 0.537911 0.263624
0.351027 0.563241 0.292274
0.446570 0.588425 0.321683
0.543922 0.613404 0.351737
0.639788 0.638120 0.382326
0.730873 0.662514 0.413336
0.813882 0.686528 0.444656
0.164433 0.650357 0.302899
0.244543 0.674568 0.332556
0.333665 0.698370 0.362818
0.428506 0.721703 0.393573
0.525770 0.744510 0.424709
0.622164 0.766731 0.456113
0.714391 0.788308 0.487673
0.799157 0.809183 0.519277
0.873167 0.829296 0.550812
0.228812 0.798834 0.404870
0.316503 0.819335 0.436117
0.410526 0.839046 0.467590
0.507589 0.857908 0.499180
0.604394 0.875862 0.530772
0.697649 0.892850 0.562254
0.784057 0.908812 0.593515
0.860325 0.923692 0.624442
0.923157 0.937429 0.654923
0.299560 0.916389 0.510687
0.392653 0.930704 0.542252
0.489398 0.943849 0.573667
0.586502 0.955763 0.604819
0.680669 0.966389 0.635597
0.768605 0.975667 0.665887
0.847014 0.983540 0.695578
0.912603 0.989948 0.724558
0.962077 0.994834 0.752713
0.009291 0.009145 0.000521
0.000318 0.004271 0.003451
0.016168 0.001254 0.008862
0.053546 0.000034 0.016642
0.109156 0.000552 0.026680
0.179705 0.002750 0.038862
0.261898 0.006569 0.053077
0.352439 0.011951 0.069211
0.448034 0.018838 0.087154
0.000010 0.009068 0.020041
0.011478 0.015209 0.030873
0.045089 0.022825 0.043808
0.097547 0.031857 0.058734
0.165559 0.042247 0.075540
0.245829 0.053936 0.094113
0.335062 0.066866 0.114341
0.429964 0.080977 0.136110
0.527240 0.096211 0.159310
0.007559 0.073775 0.064641
0.037288 0.088455 0.082103
0.086480 0.104229 0.101292
0.151839 0.121038 0.122093
0.230072 0.138824 0.144397
0.317882 0.157529 0.168090
0.411977 0.177092 0.193059
0.509059 0.197457 0.219193
0.605836 0.218564 0.246379
0.030165 0.187175 0.130045
0.075975 0.207918 0.152868
0.138568 0.229375 0.177038
0.214648 0.251485 0.202445
0.300922 0.274192 0.228975
0.394093 0.297436 0.256516
0.490869 0.321158 0.284957
0.587952 0.345301 0.314184
0.682050 0.369805 0.344086
0.066054 0.333177 0.211979
0.125766 0.357508 0.238890
0.199579 0.382171 0.266772
0.284201 0.407107 0.295512
0.376336 0.432259 0.324999
0.472689 0.457567 0.355118
0.569965 0.482972 0.385759
0.664870 0.508417 0.416809
0.754108 0.533843 0.448156
0.113455 0.495690 0.306167
0.184887 0.521132 0.335897
0.267742 0.546526 0.366219
0.358725 0.571813 0.397022
0.454541 0.596933 0.428193
0.551895 0.621830 0.459620
0.647492 0.646443 0.491191
0.738038 0.670715 0.522793
0.820238 0.694586 0.554314
0.170592 0.658621 0.408334
0.251566 0.682700 0.439611
0.341282 0.706349 0.471103
0.436446 0.729511 0.502698
0.533763 0.752125 0.534284
0.629938 0.774134 0.565747
0.721677 0.795479 0.596977
0.805684 0.816102 0.627860
0.878665 0.835943 0.658284
0.235694 0.805881 0.514205
0.324029 0.826121 0.545759
0.418427 0.845550 0.577150
0.515592 0.864110 0.608266
0.612230 0.881742 0.638995
0.705047 0.898388 0.669224
0.790747 0.913990 0.698842
0.866035 0.928488 0.727735
0.927618 0.941824 0.755791
0.306988 0.921378 0.619504
0.400504 0.935303 0.650064
0.497403 0.948036 0.680084
0.594389 0.959519 0.709450
0.688169 0.969694 0.738052
0.775447 0.978502 0.765776
0.852928 0.985884 0.792511
0.917318 0.991781 0.818143
0.965321 0.996136 0.842561
0.007539 0.007278 0.021139
0.000729 0.003041 0.032211
0.018471 0.000641 0.045373
0.057470 0.000018 0.060514
0.114431 0.001113 0.077522
0.186061 0.003868 0.096285
0.269063 0.008225 0.116690
0.360143 0.014124 0.138624
0.456006 0.021508 0.161976
0.000038 0.010984 0.066496
0.013448 0.017633 0.084156
0.048731 0.025737 0.103529
0.102591 0.035237 0.124504
0.171733 0.046074 0.146968
0.252863 0.058191 0.170808
0.342686 0.071528 0.195913
0.437907 0.086028 0.222169
0.535231 0.101630 0.249466
0.009187 0.078634 0.132516
0.040638 0.093692 0.155494
0.091282 0.109824 0.179807
0.157823 0.126972 0.205344
0.236966 0.145076 0.231993
0.325417 0.164079 0.259640
0.419881 0.183922 0.288174
0.517062 0.204545 0.317482
0.613668 0.225891 0.347452
0.033214 0.194136 0.214923
0.080527 0.215128 0.241948
0.144351 0.236813 0.269931
0.221393 0.259133 0.298760
0.308357 0.282028 0.328322
0.401949 0.305441 0.358505
0.498874 0.329313 0.389198
0.595836 0.353585 0.420286
0.689543 0.378199 0.451659
0.070347 0.341399 0.309444
0.131340 0.365849 0.339245
0.206166 0.390612 0.369626
0.291528 0.415628 0.400476
0.384133 0.440839 0.431681
0.480686 0.466186 0.463130
0.577892 0.491612 0.494709
0.672456 0.517057 0.526308
0.761083 0.542463 0.557813
0.118810 0.504332 0.411801
0.191305 0.529764 0.443108
0.274951 0.555128 0.474618
0.366455 0.580365 0.506217
0.462522 0.605416 0.537794
0.559855 0.630223 0.569238
0.655162 0.654727 0.600434
0.745147 0.678869 0.631271
0.826515 0.702591 0.661637
0.176833 0.666843 0.517722
0.258648 0.690783 0.549263
0.348936 0.714273 0.580629
0.444401 0.737255 0.611708
0.541748 0.759670 0.642387
0.637683 0.781460 0.672554
0.728911 0.802567 0.702096
0.812137 0.822931 0.730902
0.884067 0.842493 0.758858
0.242640 0.812842 0.622929
0.331597 0.832813 0.653435
0.426346 0.851953 0.683387
0.523592 0.870205 0.712674
0.620041 0.887509 0.741184
0.712397 0.903807 0.768803
0.797366 0.919040 0.795421
0.871653 0.933150 0.820923
0.931964 0.946078 0.845199
0.314460 0.926237 0.723149
0.408378 0.939763 0.751348
0.505408 0.952079 0.778616
0.602256 0.963124 0.804840
0.695626 0.972841 0.829909
0.782223 0.981171 0.853711
0.858754 0.988056 0.876132
0.921922 0.993436 0.897062
0.968434 0.997254 0.916387
0.005975 0.005630 0.068374
0.001305 0.002023 0.086230
0.020917 0.000233 0.105787
0.061515 0.000200 0.126933
0.119805 0.001865 0.149556
0.192492 0.005171 0.173542
0.276282 0.010058 0.198781
0.367879 0.016468 0.225159
0.463989 0.024343 0.252564
0.000235 0.013075 0.135004
0.015566 0.020225 0.158136
0.052498 0.028809 0.182592
0.107737 0.038770 0.208258
0.177988 0.050049 0.235023
0.259956 0.062586 0.262774
0.350346 0.076325 0.291400
0.445864 0.091206 0.320787
0.543215 0.107170 0.350824
0.010967 0.083624 0.217881
0.044119 0.099053 0.245018
0.096192 0.115537 0.273101
0.163891 0.133016 0.302017
0.243923 0.151432 0.331654
0.332992 0.170727 0.361899
0.427803 0.190841 0.392641
0.525062 0.211716 0.423767
0.621473 0.233294 0.455165
0.036398 0.201184 0.312729
0.085190 0.222418 0.342600
0.150224 0.244325 0.373039
0.228205 0.266847 0.403934
0.315837 0.289924 0.435172
0.409827 0.313500 0.466641
0.506879 0.337514 0.498228
0.603699 0.361909 0.529822
0.696991 0.386625 0.561309
0.074754 0.349664 0.415273
0.137008 0.374226 0.446608
0.212823 0.399082 0.478133
0.298904 0.424171 0.509735
0.391958 0.449435 0.541303
0.488688 0.474815 0.572725
0.585801 0.500254 0.603887
0.680002 0.525692 0.634677
0.767995 0.551071 0.664984
0.124264 0.512973 0.521238
0.197798 0.538389 0.552766
0.282214 0.563716 0.584105
0.374217 0.588897 0.615145
0.470511 0.613871 0.645773
0.567803 0.638582 0.675875
0.662797 0.662969 0.705341
0.752198 0.686975 0.734058
0.832712 0.710541 0.761913
0.183152 0.675020 0.626349
0.265788 0.698813 0.656799
0.356625 0.722138 0.686682
0.452368 0.744934 0.715888
0.549724 0.767143 0.744304
0.645397 0.788708 0.771818
0.736092 0.809569 0.798317
0.818514 0.829667 0.823689
0.889369 0.848944 0.847821
0.249647 0.819714 0.726331
0.339204 0.839409 0.754431
0.434282 0.858254 0.781589
0.531587 0.876191 0.807690
0.627824 0.893159 0.832624
0.719697 0.909102 0.856277
0.803914 0.923961 0.878538
0.877177 0.937676 0.899294
0.936193 0.950189 0.918434
0.321975 0.930963 0.816909
0.416273 0.944084 0.841389
0.513412 0.955975 0.864549
0.610098 0.966576 0.886275
0.703036 0.975829 0.906455
0.788932 0.983674 0.924978
0.864489 0.990055 0.941730
0.926414 0.994911 0.956600
0.971411 0.998184 0.969475
0.004597 0.004198 0.137510
0.002045 0.001215 0.160795
0.023504 0.000027 0.185391
0.065679 0.000578 0.211185
0.125276 0.002807 0.238066
0.198999 0.006656 0.265920
0.283554 0.012067 0.294636
0.375646 0.018981 0.324101
0.471980 0.027339 0.354203
0.000601 0.015339 0.220852
0.017829 0.022982 0.248099
0.056389 0.032040 0.276281
0.112985 0.042455 0.305282
0.184322 0.054168 0.334992
0.267106 0.067120 0.365299
0.358041 0.081253 0.396089
0.453834 0.096508 0.427251
0.551188 0.112827 0.458672
0.012897 0.088742 0.316023
0.047726 0.104536 0.345963
0.101207 0.121364 0.376458
0.170043 0.139168 0.407397
0.250941 0.157889 0.438666
0.340606 0.177468 0.470153
0.435742 0.197848 0.501747
0.533055 0.218968 0.533334
0.629250 0.240771 0.564803
0.039713 0.208316 0.418748
0.089963 0.229785 0.450110
0.156184 0.251907 0.481649
0.235082 0.274625 0.513253
0.323360 0.297878 0.544811
0.417726 0.321609 0.576208
0.514883 0.345759 0.607335
0.611537 0.370269 0.638077
0.704393 0.395082 0.668323
0.079276 0.357969 0.524754
0.142767 0.382638 0.556266
0.219549 0.407579 0.587578
0.306327 0.432734 0.618577
0.399807 0.458044 0.649152
0.496693 0.483451 0.679189
0.593691 0.508896 0.708577
0.687506 0.534321 0.737203
0.774843 0.559666 0.764955
0.129812 0.521611 0.629763
0.204364 0.547003 0.660155
0.289527 0.572287 0.689969
0.382007 0.597404 0.719093
0.478507 0.622296 0.747414
0.575734 0.646903 0.774820
0.670393 0.671168 0.801199
0.759189 0.695031 0.826438
0.838827 0.718434 0.850426
0.189549 0.683149 0.729502
0.272982 0.706790 0.757503
0.364346 0.729941 0.784548
0.460347 0.752545 0.810525
0.557688 0.774542 0.835322
0.653076 0.795874 0.858826
0.743216 0.816483 0.880925
0.824813 0.836309 0.901507
0.894572 0.855294 0.920459
0.256713 0.826494 0.819696
0.346848 0.845907 0.844035
0.442233 0.864450 0.867040
0.539574 0.882065 0.888600
0.635577 0.898692 0.908601
0.726946 0.914273 0.926933
0.810387 0.928750 0.943481
0.882605 0.942063 0.958134
0.940305 0.954155 0.970780
0.329532 0.935553 0.896068
0.424187 0.948264 0.915474
0.521414 0.959723 0.933169
0.617916 0.969872 0.949041
0.710400 0.978654 0.962977
0.795570 0.986008 0.974864
0.870132 0.991878 0.984591
0.930791 0.996203 0.992045
0.974252 0.998926 0.997114
0.003404 0.002980 0.223835
0.002947 0.000613 0.251193
0.026232 0.000022 0.279470
0.069961 0.001149 0.308557
0.130842 0.003935 0.338339
0.205579 0.008322 0.368704
0.290877 0.014250 0.399542
0.383441 0.021661 0.430738
0.479977 0.030496 0.462181
0.001132 0.017772 0.319325
0.020236 0.025903 0.349332
0.060401 0.035428 0.379882
0.118332 0.046291 0.410863
0.190733 0.058431 0.442162
0.274310 0.071791 0.473667
0.365769 0.086311 0.505266
0.461814 0.101934 0.536845
0.559150 0.118600 0.568294
0.014974 0.093986 0.422227
0.051460 0.110138 0.453614
0.106325 0.127304 0.485166
0.176276 0.145426 0.516771
0.258018 0.164445 0.548316
0.348256 0.184303 0.579689
0.443695 0.204940 0.610778
0.541041 0.226299 0.641470
0.636998 0.248321 0.671654
0.043158 0.215530 0.528268
0.094844 0.237227 0.559763
0.162230 0.259558 0.591046
0.242022 0.282464 0.622004
0.330925 0.305887 0.652524
0.425643 0.329766 0.682495
0.522883 0.354045 0.711803
0.619350 0.378665 0.740338
0.711748 0.403566 0.767986
0.083909 0.366312 0.633172
0.148616 0.391080 0.663505
0.226343 0.416100 0.693247
0.313796 0.441315 0.722287
0.407679 0.466664 0.750512
0.504699 0.492091 0.777809
0.601559 0.517536 0.804067
0.694966 0.542940 0.829173
0.781625 0.568245 0.853014
0.135455 0.530242 0.732663
0.211002 0.555605 0.760563
0.296890 0.580839 0.787495
0.389824 0.605886 0.813346
0.486508 0.630687 0.838005
0.583649 0.655185 0.861358
0.677950 0.679320 0.883294
0.766118 0.703033 0.903699
0.844858 0.726267 0.922463
0.196022 0.691229 0.822468
0.280231 0.714710 0.846664
0.372099 0.737682 0.869514
0.468334 0.760086 0.890906
0.565639 0.781864 0.910727
0.660721 0.802957 0.928865
0.750283 0.823306 0.945208
0.831032 0.842853 0.959643
0.899673 0.861540 0.972059
0.263837 0.833181 0.898309
0.354527 0.852305 0.917531
0.450197 0.870539 0.935029
0.547553 0.887825 0.950690
0.643299 0.904103 0.964403
0.734141 0.919316 0.976056
0.816785 0.933404 0.985535
0.887935 0.946310 0.992729
0.944296 0.957973 0.997526
0.337128 0.940006 0.955914
0.432119 0.952298 0.968890
0.529410 0.963319 0.979764
0.625706 0.973011 0.988425
0.717714 0.981314 0.994759
0.802137 0.988171 0.998655
0.875682 0.993523 1.000000
0.935053 0.997310 0.998682
0.976956 0.999475 0.994589
0.002392 0.001973 0.322635
0.004009 0.000216 0.352708
0.029097 0.000216 0.383312
0.074359 0.001912 0.414334
0.136502 0.005248 0.445661
0.212230 0.010165 0.477182
0.298249 0.016603 0.508784
0.391263 0.024504 0.540355
0.487979 0.033810 0.571782
0.001828 0.020373 0.425709
0.022786 0.028984 0.457120
0.064533 0.038970 0.488684
0.123776 0.050273 0.520287
0.197219 0.062834 0.551819
0.281568 0.076595 0.583166
0.373527 0.091496 0.614216
0.469803 0.107480 0.644858
0.567099 0.124487 0.674978
0.017198 0.099354 0.531781
0.055317 0.115857 0.563258
0.111545 0.133354 0.594510
0.182589 0.151787 0.625425
0.265153 0.171098 0.655890
0.355942 0.191227 0.685792
0.451662 0.212116 0.715020
0.549017 0.233706 0.743462
0.644714 0.255940 0.771004
0.046731 0.222824 0.636574
0.099830 0.244743 0.666847
0.168359 0.267276 0.696517
0.249023 0.290364 0.725472
0.338528 0.313948 0.753599
0.433578 0.337970 0.780786
0.530878 0.362371 0.806921
0.627135 0.387093 0.831891
0.719052 0.412077 0.855585
0.088652 0.374692 0.735813
0.154552 0.399552 0.763611
0.233202 0.424644 0.790428
0.321307 0.449911 0.816152
0.415572 0.475294 0.840671
0.512703 0.500733 0.863872
0.609404 0.526170 0.885643
0.702381 0.551548 0.905872
0.788340 0.576806 0.924446
0.141189 0.538866 0.825224
0.217710 0.564192 0.849276
0.304301 0.589369 0.871969
0.397667 0.614339 0.893192
0.494513 0.639044 0.912831
0.591544 0.663425 0.930775
0.685466 0.687423 0.946911
0.772984 0.710980 0.961127
0.850803 0.734038 0.973311
0.202569 0.699257 0.900531
0.287530 0.722571 0.919566
0.379882 0.745357 0.936865
0.476329 0.767555 0.952315
0.573575 0.789107 0.965804
0.668328 0.809954 0.977220
0.757291 0.830037 0.986451
0.837170 0.849299 0.993384
0.904670 0.867680 0.997907
0.271017 0.839772 0.957459
0.362240 0.858600 0.970206
0.458173 0.876519 0.980840
0.555520 0.893469 0.989247
0.650988 0.909392 0.995315
0.741281 0.924230 0.998933
0.823105 0.937923 0.999987
0.893165 0.950413 0.998365
0.948166 0.961641 0.993956
0.344762 0.944320 0.991733
0.440066 0.956187 0.996922
0.537399 0.966763 0.999619
0.633468 0.975989 0.999712
0.724977 0.983808 0.997089
0.808631 0.990160 0.991637
0.881136 0.994987 0.983244
0.939197 0.998230 0.971797
0.979519 0.999831 0.957185
0.001561 0.001176 0.429195
0.005230 0.000022 0.460629
0.032098 0.000604 0.492202
0.078870 0.002865 0.523803
0.142253 0.006744 0.555319
0.218950 0.012184 0.586639
0.305667 0.019125 0.617650
0.399110 0.027510 0.648238
0.495983 0.037280 0.678294
0.002686 0.023140 0.535293
0.025475 0.032224 0.566751
0.068784 0.042664 0.597971
0.129317 0.054401 0.628841
0.203779 0.067376 0.659248
0.288877 0.081530 0.689081
0.381315 0.096806 0.718227
0.477798 0.113144 0.746574
0.575032 0.130486 0.774009
0.019567 0.104843 0.639970
0.059296 0.121690 0.670182
0.116865 0.139512 0.699778
0.188979 0.158250 0.728646
0.272342 0.177845 0.756674
0.363661 0.198238 0.783749
0.459639 0.219372 0.809760
0.556983 0.241188 0.834594
0.652397 0.263626 0.858139
0.050430 0.230195 0.738953
0.104921 0.252329 0.766647
0.174570 0.275057 0.793348
0.256085 0.298320 0.818943
0.346169 0.322060 0.843321
0.441528 0.346217 0.866368
0.538867 0.370734 0.887973
0.634891 0.395551 0.908023
0.726306 0.420610 0.926406
0.093504 0.383104 0.827965
0.160575 0.408050 0.851871
0.240125 0.433209 0.874407
0.328860 0.458521 0.895458
0.423485 0.483929 0.914915
0.520704 0.509375 0.932663
0.617224 0.534798 0.948591
0.709749 0.560142 0.962586
0.794985 0.585347 0.974537
0.147014 0.547480 0.902732
0.224486 0.572761 0.921580
0.311757 0.597875 0.938678
0.405533 0.622761 0.953916
0.502518 0.647363 0.967180
0.599418 0.671620 0.978358
0.692939 0.695476 0.987338
0.779784 0.718870 0.994009
0.856661 0.741744 0.998256
0.209187 0.707230 0.958979
0.294880 0.730372 0.971497
0.387692 0.752965 0.981888
0.484329 0.774950 0.990040
0.581495 0.796269 0.995841
0.675896 0.816863 0.999179
0.764237 0.836674 0.999941
0.843224 0.855643 0.998015
0.909561 0.873711 0.993288
0.278251 0.846264 0.992430
0.369985 0.864790 0.997347
0.466158 0.882387 0.999760
0.563475 0.898995 0.999557
0.658642 0.914556 0.996624
0.748364 0.929011 0.990850
0.829346 0.942302 0.982123
0.898294 0.954370 0.970329
0.951911 0.965157 0.955358
0.352432 0.948491 0.998811
0.448026 0.959926 0.994857
0.545380 0.970050 0.988021
0.641199 0.978805 0.978190
0.732187 0.986133 0.965253
0.815050 0.991973 0.949096
0.886493 0.996269 0.929609
0.943221 0.998961 0.906678
0.981940 0.999991 0.880191
0.000909 0.000586 0.538803
0.006607 0.000028 0.570240
0.035233 0.001187 0.601426
0.083494 0.004003 0.632250
0.148094 0.008419 0.662600
0.225738 0.014375 0.692362
0.313132 0.021814 0.721424
0.406980 0.030676 0.749675
0.503989 0.040902 0.777002
0.003704 0.026069 0.643360
0.028303 0.035620 0.673509
0.073150 0.046507 0.703029
0.134951 0.058671 0.731809
0.210411 0.072053 0.759737
0.296236 0.086595 0.786700
0.389130 0.102238 0.812585
0.485799 0.118924 0.837281
0.582948 0.136593 0.860675
0.022077 0.110452 0.742081
0.063396 0.127636 0.769671
0.122284 0.145776 0.796254
0.195445 0.164811 0.821719
0.279586 0.184684 0.845954
0.371411 0.205336 0.868847
0.467626 0.226708 0.890284
0.564935 0.248741 0.910154
0.660045 0.271378 0.928345
0.054254 0.237642 0.830691
0.110113 0.259984 0.854450
0.180862 0.282900 0.876826
0.263204 0.306332 0.897705
0.353845 0.330220 0.916977
0.449491 0.354506 0.934528
0.546846 0.379131 0.950246
0.642616 0.404037 0.964020
0.733506 0.429165 0.975736
0.098462 0.391549 0.904913
0.166682 0.416573 0.923572
0.247110 0.441791 0.940469
0.336453 0.467142 0.955492
0.431415 0.492570 0.968529
0.528701 0.518014 0.979469
0.625017 0.543417 0.988197
0.717068 0.568720 0.994603
0.801558 0.593864 0.998574
0.152927 0.556081 0.960474
0.231327 0.581312 0.972761
0.319257 0.606355 0.982908
0.413420 0.631151 0.990804
0.510523 0.655642 0.996337
0.607270 0.679770 0.999393
0.700366 0.703475 0.999861
0.786518 0.726699 0.997629
0.862429 0.749384 0.992584
0.215876 0.715147 0.993098
0.302278 0.738109 0.997742
0.395528 0.760502 0.999869
0.492332 0.782267 0.999367
0.589395 0.803347 0.996124
0.683423 0.823682 0.990027
0.771120 0.843213 0.980964
0.849192 0.861883 0.968822
0.914344 0.879632 0.953490
0.285537 0.852656 0.998510
0.377759 0.870873 0.994240
0.474150 0.888141 0.987076
0.571415 0.904400 0.976906
0.666260 0.919592 0.963615
0.755388 0.933658 0.947094
0.835506 0.946541 0.927229
0.903319 0.958180 0.903907
0.955532 0.968519 0.877018
0.360136 0.952518 0.972434
0.455999 0.963514 0.957981
0.553351 0.973180 0.940255
0.648897 0.981457 0.919144
0.739342 0.988286 0.894537
0.821391 0.993608 0.866320
0.891750 0.997366 0.834382
0.947124 0.999500 0.798610
0.984218 0.999952 0.758891
