indra/newview/app_settings/luts/cold_war.cube
TITLE "Cold War"
LUT_3D_SIZE 33
0.011232 0.011232 0.011232
0.005910 0.009674 0.009315
0.002311 0.008236 0.007582
0.000383 0.006916 0.006032
0.000075 0.005715 0.004664
0.001335 0.004631 0.003475
0.004112 0.003664 0.002464
0.008354 0.002812 0.001629
0.014010 0.002074 0.000968
0.021029 0.001450 0.000479
0.029359 0.000939 0.000161
0.038948 0.000539 0.000013
0.049745 0.000250 0.000031
0.061698 0.000071 0.000215
0.074756 0.000001 0.000562
0.088868 0.000039 0.001072
0.103982 0.000184 0.001742
0.120047 0.000436 0.002570
0.137010 0.000793 0.003554
0.154822 0.001254 0.004694
0.173429 0.001819 0.005987
0.192781 0.002486 0.007431
0.212826 0.003255 0.009025
0.233512 0.004124 0.010767
0.254789 0.005094 0.012655
0.276605 0.006162 0.014688
0.298908 0.007329 0.016863
0.321646 0.008592 0.019179
0.344769 0.009952 0.021634
0.368225 0.011407 0.024226
0.391961 0.012956 0.026954
0.415928 0.014599 0.029816
0.440073 0.016334 0.032811
0.006771 0.003224 0.005513
0.002854 0.002429 0.004210
0.000618 0.001748 0.003086
0.000012 0.001180 0.002140
0.000983 0.000725 0.001368
0.003481 0.000381 0.000770
0.007454 0.000147 0.000344
0.012850 0.000023 0.000088
0.019618 0.000007 0.000000
0.027707 0.000098 0.000079
0.037065 0.000297 0.000323
0.047641 0.000601 0.000729
0.059382 0.001010 0.001297
0.072238 0.001523 0.002025
0.086158 0.002139 0.002910
0.101088 0.002858 0.003952
0.116979 0.003677 0.005147
0.133779 0.004597 0.006496
0.151436 0.005616 0.007995
0.169899 0.006733 0.009643
0.189116 0.007948 0.011438
0.209035 0.009260 0.013379
0.229606 0.010667 0.015463
0.250777 0.012169 0.017690
0.272496 0.013766 0.020057
0.294711 0.015455 0.022562
0.317373 0.017236 0.025204
0.340428 0.019108 0.027981
0.363825 0.021070 0.030891
0.387513 0.023122 0.033933
0.411441 0.025262 0.037105
0.435557 0.027490 0.040404
0.459809 0.029804 0.043830
0.003456 0.000071 0.001838
0.000910 0.000001 0.001130
0.000003 0.000039 0.000595
0.000684 0.000184 0.000231
0.002901 0.000436 0.000036
0.006603 0.000793 0.000010
0.011737 0.001254 0.000149
0.018254 0.001818 0.000452
0.026100 0.002486 0.000917
0.035225 0.003255 0.001544
0.045577 0.004124 0.002329
0.057105 0.005094 0.003271
0.069757 0.006162 0.004369
0.083482 0.007328 0.005621
0.098228 0.008592 0.007024
0.113944 0.009951 0.008577
0.130578 0.011406 0.010279
0.148079 0.012956 0.012128
0.166395 0.014598 0.014121
0.185475 0.016333 0.016257
0.205267 0.018160 0.018535
0.225721 0.020077 0.020953
0.246783 0.022085 0.023508
0.268404 0.024181 0.026199
0.290531 0.026365 0.029025
0.313113 0.028635 0.031984
0.336098 0.030993 0.035073
0.359436 0.033435 0.038291
0.383073 0.035961 0.041637
0.406960 0.038571 0.045108
0.431045 0.041263 0.048703
0.455275 0.044037 0.052420
0.479600 0.046891 0.056257
0.001259 0.001523 0.000141
0.000051 0.002139 0.000007
0.000439 0.002857 0.000041
0.002373 0.003677 0.000240
0.005802 0.004596 0.000603
0.010673 0.005615 0.001127
0.016935 0.006733 0.001811
0.024537 0.007948 0.002654
0.033428 0.009259 0.003653
0.043555 0.010667 0.004807
0.054867 0.012169 0.006114
0.067313 0.013765 0.007572
0.080842 0.015454 0.009180
0.095401 0.017235 0.010935
0.110940 0.019107 0.012837
0.127407 0.021070 0.014882
0.144750 0.023121 0.017070
0.162918 0.025261 0.019399
0.181859 0.027489 0.021867
0.201522 0.029803 0.024472
0.221856 0.032203 0.027213
0.242809 0.034687 0.030087
0.264330 0.037255 0.033093
0.286366 0.039906 0.036230
0.308867 0.042640 0.039494
0.331781 0.045454 0.042886
0.355057 0.048348 0.046402
0.378642 0.051322 0.050042
0.402487 0.054374 0.053803
0.426538 0.057503 0.057684
0.450745 0.060709 0.061682
0.475057 0.063990 0.065797
0.499421 0.067346 0.070026
0.000153 0.007328 0.000353
0.000248 0.008591 0.000775
0.001898 0.009951 0.001358
0.005051 0.011406 0.002100
0.009657 0.012955 0.003000
0.015664 0.014598 0.004055
0.023020 0.016333 0.005265
0.031673 0.018159 0.006627
0.041574 0.020077 0.008140
0.052669 0.022084 0.009802
0.064907 0.024180 0.011611
0.078238 0.026364 0.013565
0.092609 0.028635 0.015663
0.107969 0.030992 0.017902
0.124266 0.033434 0.020282
0.141449 0.035960 0.022800
0.159467 0.038570 0.025454
0.178268 0.041262 0.028244
0.197801 0.044036 0.031166
0.218014 0.046891 0.034220
0.238855 0.049825 0.037403
0.260273 0.052837 0.040715
0.282217 0.055928 0.044152
0.304635 0.059096 0.047713
0.327476 0.062339 0.051397
0.350688 0.065658 0.055202
0.374220 0.069051 0.059126
0.398020 0.072517 0.063167
0.422037 0.076056 0.067324
0.446219 0.079666 0.071594
0.470515 0.083346 0.075977
0.494873 0.087097 0.080469
0.519242 0.090915 0.085071
0.000111 0.017234 0.002409
0.001474 0.019107 0.003366
0.004351 0.021069 0.004478
0.008690 0.023121 0.005744
0.014439 0.025261 0.007161
0.021547 0.027488 0.008728
0.029963 0.029802 0.010443
0.039634 0.032202 0.012305
0.050510 0.034686 0.014312
0.062539 0.037255 0.016462
0.075670 0.039906 0.018752
0.089851 0.042639 0.021183
0.105030 0.045453 0.023750
0.121156 0.048347 0.026454
0.138178 0.051321 0.029292
0.156044 0.054373 0.032263
0.174703 0.057502 0.035364
0.194103 0.060708 0.038594
0.214193 0.063989 0.041951
0.234921 0.067345 0.045434
0.256235 0.070774 0.049040
0.278085 0.074277 0.052769
0.300419 0.077851 0.056617
0.323185 0.081497 0.060584
0.346331 0.085212 0.064667
0.369807 0.088997 0.068865
0.393561 0.092850 0.073177
0.417541 0.096770 0.077600
0.441696 0.100756 0.082132
0.465975 0.104809 0.086772
0.490325 0.108925 0.091519
0.514696 0.113106 0.096370
0.539036 0.117349 0.101323
0.001103 0.030991 0.006242
0.003702 0.033433 0.007714
0.007771 0.035960 0.009336
0.013261 0.038569 0.011104
0.020120 0.041262 0.013019
0.028295 0.044035 0.015078
0.037736 0.046890 0.017279
0.048392 0.049824 0.019621
0.060210 0.052836 0.022102
0.073139 0.055927 0.024719
0.087127 0.059095 0.027472
0.102124 0.062338 0.030359
0.118078 0.065657 0.033377
0.134936 0.069050 0.036525
0.152649 0.072516 0.039802
0.171164 0.076055 0.043205
0.190429 0.079665 0.046733
0.210394 0.083345 0.050384
0.231007 0.087095 0.054156
0.252216 0.090914 0.058048
0.273970 0.094801 0.062057
0.296217 0.098754 0.066182
0.318906 0.102774 0.070422
0.341986 0.106858 0.074774
0.365404 0.111007 0.079237
0.389110 0.115219 0.083809
0.413052 0.119493 0.088488
0.437178 0.123828 0.093273
0.461438 0.128224 0.098161
0.485779 0.132680 0.103151
0.510150 0.137194 0.108242
0.534499 0.141766 0.113431
0.558776 0.146394 0.118716
0.003104 0.048346 0.011785
0.006903 0.051320 0.013752
0.012132 0.054372 0.015863
0.018739 0.057501 0.018116
0.026672 0.060707 0.020508
0.035881 0.063988 0.023039
0.046314 0.067344 0.025706
0.057919 0.070773 0.028508
0.070644 0.074276 0.031442
0.084439 0.077850 0.034508
0.099252 0.081496 0.037703
0.115031 0.085211 0.041026
0.131724 0.088996 0.044475
0.149281 0.092848 0.048048
0.167650 0.096769 0.051743
0.186780 0.100755 0.055559
0.206618 0.104807 0.059494
0.227114 0.108924 0.063546
0.248216 0.113104 0.067713
0.269872 0.117347 0.071994
0.292031 0.121652 0.076386
0.314641 0.126018 0.080889
0.337652 0.130444 0.085500
0.361011 0.134929 0.090218
0.384667 0.139472 0.095041
0.408569 0.144072 0.099966
0.432665 0.148729 0.104993
0.456903 0.153441 0.110120
0.481233 0.158208 0.115344
0.505602 0.163028 0.120664
0.529960 0.167901 0.126079
0.554254 0.172825 0.131586
0.578433 0.177801 0.137185
0.006084 0.069049 0.018971
0.011050 0.072515 0.021414
0.017404 0.076054 0.023994
0.025094 0.079664 0.026710
0.034068 0.083344 0.029561
0.044277 0.087094 0.032543
0.055667 0.090913 0.035656
0.068187 0.094800 0.038898
0.081786 0.098753 0.042267
0.096413 0.102772 0.045761
0.112015 0.106857 0.049379
0.128542 0.111006 0.053118
0.145942 0.115217 0.056978
0.164164 0.119491 0.060955
0.183155 0.123827 0.065049
0.202865 0.128223 0.069258
0.223242 0.132678 0.073580
0.244234 0.137192 0.078013
0.265791 0.141764 0.082555
0.287860 0.146393 0.087206
0.310390 0.151077 0.091962
0.333330 0.155817 0.096822
0.356628 0.160610 0.101785
0.380233 0.165457 0.106848
0.404093 0.170356 0.112010
0.428156 0.175306 0.117270
0.452372 0.180306 0.122625
0.476689 0.185357 0.128074
0.501054 0.190455 0.133614
0.525418 0.195601 0.139245
0.549728 0.200794 0.144964
0.573932 0.206033 0.150770
0.597980 0.211317 0.156660
0.010016 0.092847 0.027733
0.016115 0.096767 0.030631
0.023560 0.100754 0.033662
0.032299 0.104806 0.036822
0.042281 0.108923 0.040110
0.053454 0.113103 0.043525
0.065767 0.117346 0.047064
0.079169 0.121651 0.050726
0.093608 0.126017 0.054510
0.109032 0.130442 0.058412
0.125391 0.134927 0.062432
0.142632 0.139470 0.066568
0.160704 0.144071 0.070819
0.179555 0.148727 0.075181
0.199135 0.153439 0.079654
0.219391 0.158206 0.084236
0.240273 0.163026 0.088925
0.261728 0.167899 0.093719
0.283706 0.172824 0.098617
0.306154 0.177799 0.103617
0.329021 0.182825 0.108716
0.352256 0.187899 0.113914
0.375808 0.193022 0.119209
0.399624 0.198191 0.124598
0.423653 0.203407 0.130080
0.447844 0.208668 0.135654
0.472146 0.213974 0.141317
0.496506 0.219324 0.147068
0.520874 0.224715 0.152904
0.545198 0.230149 0.158826
0.569426 0.235623 0.164829
0.593507 0.241138 0.170914
0.617390 0.246691 0.177077
0.014873 0.119490 0.038004
0.022071 0.123826 0.041339
0.030572 0.128221 0.044799
0.040326 0.132677 0.048383
0.051281 0.137191 0.052090
0.063385 0.141763 0.055917
0.076588 0.146391 0.059862
0.090837 0.151076 0.063925
0.106082 0.155815 0.068103
0.122270 0.160609 0.072394
0.139350 0.165455 0.076797
0.157271 0.170354 0.081310
0.175981 0.175304 0.085931
0.195429 0.180305 0.090658
0.215563 0.185355 0.095490
0.236332 0.190453 0.100425
0.257684 0.195600 0.105462
0.279567 0.200793 0.110597
0.301932 0.206031 0.115831
0.324725 0.211315 0.121160
0.347895 0.216643 0.126583
0.371391 0.222013 0.132099
0.395162 0.227426 0.137705
0.419156 0.232880 0.143400
0.443320 0.238375 0.149183
0.467605 0.243908 0.155051
0.491959 0.249481 0.161002
0.516329 0.255091 0.167035
0.540665 0.260737 0.173148
0.564915 0.266419 0.179340
0.589027 0.272136 0.185608
0.612951 0.277887 0.191952
0.636634 0.283671 0.198368
0.020627 0.148726 0.049719
0.028889 0.153438 0.053469
0.038413 0.158205 0.057340
0.049148 0.163025 0.061328
0.061042 0.167898 0.065433
0.074044 0.172822 0.069652
0.088101 0.177798 0.073984
0.103164 0.182823 0.078427
0.119180 0.187897 0.082980
0.136098 0.193020 0.087640
0.153865 0.198190 0.092405
0.172432 0.203406 0.097275
0.191746 0.208667 0.102247
0.211756 0.213973 0.107320
0.232410 0.219322 0.112491
0.253657 0.224714 0.117760
0.275446 0.230147 0.123123
0.297725 0.235622 0.128581
0.320441 0.241136 0.134129
0.343545 0.246689 0.139768
0.366985 0.252280 0.145496
0.390708 0.257908 0.151309
0.414664 0.263573 0.157208
0.438801 0.269273 0.163189
0.463067 0.275007 0.169252
0.487412 0.280774 0.175394
0.511783 0.286574 0.181613
0.536129 0.292406 0.187909
0.560399 0.298269 0.194279
0.584541 0.304161 0.200721
0.608504 0.310082 0.207235
0.632236 0.316031 0.213817
0.655685 0.322007 0.220466
0.027250 0.180303 0.062809
0.036543 0.185353 0.066956
0.047055 0.190452 0.071216
0.058737 0.195598 0.075589
0.071536 0.200791 0.080072
0.085401 0.206030 0.084664
0.100280 0.211313 0.089363
0.116121 0.216641 0.094166
0.132875 0.222012 0.099074
0.150488 0.227424 0.104083
0.168909 0.232879 0.109191
0.188088 0.238373 0.114398
0.207972 0.243907 0.119701
0.228510 0.249479 0.125099
0.249650 0.255089 0.130590
0.271342 0.260735 0.136172
0.293533 0.266418 0.141843
0.316172 0.272135 0.147602
0.339207 0.277886 0.153447
0.362588 0.283669 0.159376
0.386262 0.289486 0.165387
0.410179 0.295333 0.171479
0.434286 0.301210 0.177649
0.458532 0.307117 0.183897
0.482866 0.313052 0.190220
0.507236 0.319015 0.196616
0.531590 0.325004 0.203085
0.555879 0.331019 0.209623
0.580048 0.337059 0.216230
0.604048 0.343122 0.222903
0.627827 0.349209 0.229641
0.651333 0.355317 0.236442
0.674515 0.361447 0.243304
0.034715 0.213971 0.077208
0.045004 0.219320 0.081731
0.056471 0.224712 0.086362
0.069065 0.230146 0.091099
0.082735 0.235620 0.095941
0.097429 0.241134 0.100885
0.113095 0.246687 0.105931
0.129682 0.252278 0.111076
0.147138 0.257907 0.116318
0.165413 0.263571 0.121656
0.184454 0.269271 0.127088
0.204210 0.275005 0.132612
0.224630 0.280773 0.138227
0.245662 0.286573 0.143930
0.267255 0.292404 0.149720
0.289356 0.298267 0.155596
0.311916 0.304159 0.161555
0.334881 0.310080 0.167595
0.358201 0.316029 0.173716
0.381825 0.322005 0.179915
0.405700 0.328007 0.186190
0.429775 0.334035 0.192540
0.453999 0.340087 0.198963
0.478321 0.346162 0.205457
0.502688 0.352259 0.212020
0.527050 0.358378 0.218652
0.551354 0.364518 0.225349
0.575550 0.370678 0.232110
0.599585 0.376856 0.238933
0.623409 0.383052 0.245818
0.646970 0.389265 0.252761
0.670217 0.395494 0.259761
0.693097 0.401739 0.266817
0.042993 0.249477 0.092850
0.054244 0.255087 0.097729
0.066632 0.260733 0.102711
0.080105 0.266416 0.107793
0.094611 0.272133 0.112973
0.110100 0.277884 0.118250
0.126519 0.283668 0.123623
0.143817 0.289484 0.129088
0.161943 0.295331 0.134646
0.180845 0.301208 0.140293
0.200472 0.307115 0.146028
0.220772 0.313050 0.151849
0.241694 0.319013 0.157756
0.263185 0.325002 0.163745
0.285196 0.331017 0.169815
0.307674 0.337057 0.175964
0.330567 0.343120 0.182191
0.353825 0.349207 0.188493
0.377396 0.355315 0.194870
0.401228 0.361445 0.201319
0.425270 0.367594 0.207839
0.449470 0.373763 0.214427
0.473777 0.379951 0.221082
0.498140 0.386155 0.227803
0.522507 0.392377 0.234587
0.546826 0.398614 0.241433
0.571045 0.404865 0.248339
0.595115 0.411130 0.255303
0.618982 0.417409 0.262323
0.642596 0.423699 0.269399
0.665905 0.430000 0.276527
0.688858 0.436311 0.283707
0.711402 0.442631 0.290936
0.052057 0.286571 0.109667
0.064237 0.292403 0.114883
0.077511 0.298265 0.120195
0.091829 0.304157 0.125602
0.107138 0.310078 0.131101
0.123387 0.316027 0.136691
0.140525 0.322003 0.142371
0.158501 0.328006 0.148137
0.177262 0.334033 0.153990
0.196757 0.340085 0.159926
0.216935 0.346160 0.165945
0.237745 0.352257 0.172044
0.259134 0.358376 0.178222
0.281052 0.364516 0.184477
0.303447 0.370676 0.190806
0.326266 0.376854 0.197210
0.349460 0.383050 0.203684
0.372977 0.389263 0.210229
0.396764 0.395492 0.216842
0.420770 0.401737 0.223521
0.444945 0.407995 0.230265
0.469236 0.414267 0.237072
0.493592 0.420551 0.243940
0.517962 0.426847 0.250867
0.542294 0.433153 0.257852
0.566536 0.439469 0.264893
0.590637 0.445794 0.271988
0.614546 0.452126 0.279135
0.638212 0.458466 0.286333
0.661581 0.464811 0.293580
0.684604 0.471161 0.300874
0.707229 0.477516 0.308213
0.729404 0.483874 0.315595
0.061879 0.325000 0.127593
0.074953 0.331015 0.133126
0.089080 0.337055 0.138749
0.104208 0.343118 0.144460
0.120286 0.349205 0.150258
0.137262 0.355313 0.156142
0.155085 0.361443 0.162108
0.173704 0.367592 0.168156
0.193066 0.373761 0.174284
0.213121 0.379949 0.180490
0.233816 0.386154 0.186772
0.255102 0.392375 0.193129
0.276925 0.398612 0.199559
0.299234 0.404863 0.206059
0.321978 0.411128 0.212629
0.345106 0.417407 0.219266
0.368566 0.423697 0.225969
0.392307 0.429998 0.232736
0.416277 0.436309 0.239566
0.440424 0.442629 0.246455
0.464697 0.448958 0.253404
0.489045 0.455294 0.260409
0.513416 0.461637 0.267470
0.537759 0.467985 0.274584
0.562022 0.474337 0.281750
0.586153 0.480693 0.288966
0.610102 0.487052 0.296230
0.633817 0.493413 0.303540
0.657245 0.499775 0.310895
0.680337 0.506137 0.318294
0.703040 0.512498 0.325733
0.725303 0.518857 0.333212
0.747074 0.525214 0.340728
0.072432 0.364514 0.146561
0.086367 0.370674 0.152390
0.101312 0.376852 0.158304
0.117216 0.383048 0.164301
0.134029 0.389261 0.170378
0.151698 0.395490 0.176535
0.170172 0.401735 0.182769
0.189399 0.407993 0.189078
0.209329 0.414265 0.195462
0.229909 0.420549 0.201917
0.251087 0.426845 0.208443
0.272814 0.433151 0.215038
0.295037 0.439467 0.221699
0.317704 0.445792 0.228426
0.340764 0.452124 0.235215
0.364166 0.458464 0.242067
0.387858 0.464809 0.248978
0.411789 0.471159 0.255948
0.435907 0.477514 0.262974
0.460161 0.483872 0.270054
0.484498 0.490232 0.277187
0.508869 0.496593 0.284371
0.533221 0.502955 0.291605
0.557503 0.509317 0.298886
0.581663 0.515677 0.306213
0.605650 0.522035 0.313584
0.629412 0.528390 0.320997
0.652898 0.534741 0.328451
0.676056 0.541086 0.335944
0.698835 0.547426 0.343473
0.721184 0.553759 0.351038
0.743051 0.560084 0.358637
0.764384 0.566401 0.366267
0.083688 0.404861 0.166504
0.098449 0.411126 0.172610
0.114178 0.417405 0.178795
0.130825 0.423695 0.185057
0.148338 0.429996 0.191394
0.166666 0.436307 0.197804
0.185757 0.442627 0.204285
0.205559 0.448956 0.210836
0.226021 0.455292 0.217455
0.247092 0.461635 0.224141
0.268721 0.467983 0.230890
0.290855 0.474335 0.237703
0.313443 0.480691 0.244576
0.336434 0.487050 0.251509
0.359776 0.493411 0.258499
0.383418 0.499773 0.265545
0.407308 0.506135 0.272645
0.431395 0.512496 0.279797
0.455627 0.518855 0.286999
0.479953 0.525212 0.294250
0.504322 0.531565 0.301548
0.528681 0.537913 0.308891
0.552980 0.544256 0.316278
0.577166 0.550593 0.323706
0.601189 0.556922 0.331174
0.624997 0.563243 0.338681
0.648539 0.569555 0.346224
0.671762 0.575857 0.353801
0.694616 0.582148 0.361411
0.717049 0.588427 0.369053
0.739010 0.594693 0.376723
0.760446 0.600945 0.384422
0.781307 0.607183 0.392146
0.095619 0.445790 0.187355
0.111172 0.452122 0.193719
0.127652 0.458462 0.200155
0.145007 0.464807 0.206662
0.163187 0.471157 0.213238
0.182139 0.477512 0.219881
0.201812 0.483870 0.226590
0.222155 0.490230 0.233363
0.243117 0.496591 0.240198
0.264645 0.502953 0.247093
0.286689 0.509315 0.254047
0.309196 0.515675 0.261058
0.332116 0.522033 0.268124
0.355396 0.528388 0.275243
0.378986 0.534739 0.282413
0.402834 0.541084 0.289633
0.426888 0.547424 0.296902
0.451097 0.553757 0.304217
0.475409 0.560082 0.311576
0.499774 0.566399 0.318978
0.524139 0.572706 0.326421
0.548453 0.579003 0.333903
0.572664 0.585288 0.341423
0.596721 0.591560 0.348978
0.620574 0.597820 0.356568
0.644169 0.604065 0.364190
0.667455 0.610295 0.371842
0.690382 0.616510 0.379523
0.712898 0.622707 0.387231
0.734950 0.628887 0.394964
0.756488 0.635047 0.402721
0.777461 0.641189 0.410499
0.797816 0.647309 0.418298
0.108198 0.487048 0.209048
0.124509 0.493409 0.215649
0.141705 0.499771 0.222316
0.159734 0.506133 0.229049
0.178546 0.512494 0.235845
0.198089 0.518854 0.242702
0.218311 0.525210 0.249618
0.239161 0.531563 0.256593
0.260587 0.537911 0.263624
0.282539 0.544254 0.270709
0.304963 0.550591 0.277847
0.327810 0.556920 0.285036
0.351027 0.563241 0.292274
0.374563 0.569553 0.299560
0.398367 0.575855 0.306891
0.422386 0.582146 0.314266
0.446570 0.588425 0.321683
0.470867 0.594691 0.329140
0.495226 0.600943 0.336636
0.519595 0.607181 0.344169
0.543922 0.613404 0.351737
0.568156 0.619610 0.359339
0.592247 0.625798 0.366972
0.616141 0.631969 0.374635
0.639788 0.638120 0.382326
0.663136 0.644251 0.390043
0.686134 0.650361 0.397785
0.708730 0.656449 0.405550
0.730873 0.662514 0.413336
0.752511 0.668555 0.421141
0.773593 0.674572 0.428964
0.794067 0.680563 0.436803
0.813882 0.686528 0.444656
0.121397 0.528386 0.231516
0.138431 0.534737 0.238334
0.156309 0.541082 0.245213
0.174979 0.547422 0.252151
0.194389 0.553755 0.259146
0.214489 0.560080 0.266197
0.235225 0.566397 0.273302
0.256548 0.572704 0.280459
0.278405 0.579001 0.287666
0.300745 0.585286 0.294921
0.323517 0.591558 0.302223
0.346669 0.597818 0.309571
0.370149 0.604063 0.316961
0.393907 0.610293 0.324393
0.417890 0.616508 0.331865
0.442047 0.622705 0.339375
0.466327 0.628885 0.346921
0.490678 0.635046 0.354501
0.515049 0.641187 0.362114
0.539388 0.647307 0.369759
0.563644 0.653406 0.377432
0.587765 0.659483 0.385133
0.611699 0.665537 0.392859
0.635396 0.671566 0.400610
0.658804 0.677570 0.408383
0.681871 0.683548 0.416176
0.704546 0.689499 0.423988
0.726778 0.695422 0.431816
0.748514 0.701316 0.439660
0.769704 0.707181 0.447518
0.790295 0.713015 0.455387
0.810237 0.718817 0.463266
0.829478 0.724587 0.471153
0.135187 0.569551 0.254691
0.152911 0.575853 0.261707
0.171438 0.582144 0.268778
0.190714 0.588423 0.275902
0.210688 0.594689 0.283077
0.231310 0.600941 0.290302
0.252527 0.607179 0.297574
0.274289 0.613402 0.304893
0.296543 0.619608 0.312256
0.319238 0.625796 0.319662
0.342323 0.631967 0.327109
0.365746 0.638118 0.334595
0.389455 0.644249 0.342118
0.413400 0.650359 0.349677
0.437529 0.656447 0.357269
0.461790 0.662512 0.364894
0.486132 0.668553 0.372549
0.510503 0.674570 0.380232
0.534851 0.680561 0.387943
0.559126 0.686526 0.395678
0.583276 0.692463 0.403437
0.607250 0.698372 0.411217
0.630995 0.704251 0.419018
0.654461 0.710101 0.426836
0.677595 0.715919 0.434670
0.700347 0.721705 0.442519
0.722665 0.727459 0.450381
0.744498 0.733178 0.458254
0.765793 0.738863 0.466136
0.786501 0.744512 0.474026
0.806568 0.750124 0.481921
0.825943 0.755699 0.489821
0.844576 0.761236 0.497723
0.149542 0.610292 0.278508
0.167922 0.616506 0.285701
0.187062 0.622703 0.292944
0.206910 0.628883 0.300234
0.227415 0.635044 0.307569
0.248525 0.641185 0.314948
0.270189 0.647305 0.322369
0.292355 0.653405 0.329830
0.314972 0.659481 0.337329
0.337988 0.665535 0.344866
0.361352 0.671564 0.352437
0.385012 0.677568 0.360041
0.408917 0.683546 0.367677
0.433015 0.689497 0.375343
0.457255 0.695420 0.383036
0.481586 0.701314 0.390756
0.505955 0.707179 0.398500
0.530312 0.713013 0.406267
0.554605 0.718815 0.414055
0.578782 0.724585 0.421862
0.602792 0.730322 0.429686
0.626584 0.736024 0.437526
0.650106 0.741691 0.445380
0.673306 0.747322 0.453246
0.696133 0.752916 0.461123
0.718536 0.758471 0.469008
0.740463 0.763988 0.476900
0.761863 0.769466 0.484797
0.782684 0.774902 0.492697
0.802874 0.780297 0.500600
0.822383 0.785649 0.508502
0.841158 0.790958 0.516402
0.859148 0.796223 0.524298
0.164433 0.650357 0.302899
0.183436 0.656445 0.310250
0.203155 0.662510 0.317645
0.223542 0.668551 0.325080
0.244543 0.674568 0.332556
0.266107 0.680559 0.340069
0.288183 0.686524 0.347618
0.310720 0.692461 0.355202
0.333665 0.698370 0.362818
0.356968 0.704249 0.370465
0.380577 0.710099 0.378141
0.404440 0.715917 0.385844
0.428506 0.721703 0.393573
0.452724 0.727457 0.401325
0.477041 0.733176 0.409100
0.501407 0.738861 0.416895
0.525770 0.744510 0.424709
0.550079 0.750122 0.432539
0.574282 0.755697 0.440384
0.598327 0.761234 0.448243
0.622164 0.766731 0.456113
0.645740 0.772188 0.463993
0.669004 0.777604 0.471880
0.691905 0.782978 0.479774
0.714391 0.788308 0.487673
0.736410 0.793595 0.495574
0.757912 0.798837 0.503476
0.778845 0.804033 0.511378
0.799157 0.809183 0.519277
0.818797 0.814285 0.527172
0.837713 0.819338 0.535060
0.855853 0.824342 0.542941
0.873167 0.829296 0.550812
0.179834 0.689495 0.327797
0.199424 0.695418 0.335287
0.219690 0.701312 0.342813
0.240580 0.707177 0.350375
0.262043 0.713011 0.357971
0.284027 0.718813 0.365598
0.306482 0.724583 0.373256
0.329355 0.730320 0.380942
0.352595 0.736022 0.388655
0.376151 0.741689 0.396393
0.399970 0.747320 0.404154
0.424002 0.752914 0.411936
0.448196 0.758470 0.419738
0.472498 0.763987 0.427557
0.496859 0.769464 0.435393
0.521227 0.774900 0.443244
0.545550 0.780295 0.451107
0.569776 0.785648 0.458980
0.593855 0.790957 0.466863
0.617734 0.796221 0.474754
0.641363 0.801440 0.482650
0.664689 0.806613 0.490549
0.687661 0.811739 0.498451
0.710229 0.816817 0.506353
0.732339 0.821846 0.514254
0.753942 0.826825 0.522152
0.774985 0.831753 0.530044
0.795416 0.836630 0.537930
0.815185 0.841454 0.545808
0.834240 0.846224 0.553675
0.852530 0.850940 0.561531
0.870002 0.855601 0.569373
0.886606 0.860205 0.577199
0.195715 0.727455 0.353137
0.215859 0.733174 0.360744
0.236637 0.738859 0.368383
0.257997 0.744508 0.376051
0.279888 0.750121 0.383747
0.302259 0.755696 0.391469
0.325058 0.761232 0.399216
0.348233 0.766730 0.406984
0.371734 0.772186 0.414774
0.395508 0.777602 0.422583
0.419504 0.782976 0.430408
0.443671 0.788307 0.438250
0.467958 0.793594 0.446105
0.492312 0.798836 0.453972
0.516682 0.804032 0.461849
0.541017 0.809181 0.469735
0.565265 0.814283 0.477628
0.589375 0.819337 0.485525
0.613296 0.824341 0.493426
0.636975 0.829295 0.501328
0.660362 0.834197 0.509230
0.683404 0.839048 0.517130
0.706051 0.843845 0.525026
0.728251 0.848588 0.532916
0.749952 0.853277 0.540799
0.771103 0.857909 0.548674
0.791653 0.862485 0.556537
0.811549 0.867003 0.564387
0.830741 0.871463 0.572224
