indra/newview/app_settings/luts/cool.cube
TITLE "Cool"
LUT_3D_SIZE 33
0.000000 0.000000 0.000000
0.027500 0.000000 0.000000
0.055000 0.000000 0.000000
0.082500 0.000000 0.000000
0.110000 0.000000 0.000000
0.137500 0.000000 0.000000
0.165000 0.000000 0.000000
0.192500 0.000000 0.000000
0.220000 0.000000 0.000000
0.247500 0.000000 0.000000
0.275000 0.000000 0.000000
0.302500 0.000000 0.000000
0.330000 0.000000 0.000000
0.357500 0.000000 0.000000
0.385000 0.000000 0.000000
0.412500 0.000000 0.000000
0.440000 0.000000 0.000000
0.467500 0.000000 0.000000
0.495000 0.000000 0.000000
0.522500 0.000000 0.000000
0.550000 0.000000 0.000000
0.577500 0.000000 0.000000
0.605000 0.000000 0.000000
0.632500 0.000000 0.000000
0.660000 0.000000 0.000000
0.687500 0.000000 0.000000
0.715000 0.000000 0.000000
0.742500 0.000000 0.000000
0.770000 0.000000 0.000000
0.797500 0.000000 0.000000
0.825000 0.000000 0.000000
0.852500 0.000000 0.000000
0.880000 0.000000 0.000000
0.000000 0.031875 0.000000
0.027500 0.031875 0.000000
0.055000 0.031875 0.000000
0.082500 0.031875 0.000000
0.110000 0.031875 0.000000
0.137500 0.031875 0.000000
0.165000 0.031875 0.000000
0.192500 0.031875 0.000000
0.220000 0.031875 0.000000
0.247500 0.031875 0.000000
0.275000 0.031875 0.000000
0.302500 0.031875 0.000000
0.330000 0.031875 0.000000
0.357500 0.031875 0.000000
0.385000 0.031875 0.000000
0.412500 0.031875 0.000000
0.440000 0.031875 0.000000
0.467500 0.031875 0.000000
0.495000 0.031875 0.000000
0.522500 0.031875 0.000000
0.550000 0.031875 0.000000
0.577500 0.031875 0.000000
0.605000 0.031875 0.000000
0.632500 0.031875 0.000000
0.660000 0.031875 0.000000
0.687500 0.031875 0.000000
0.715000 0.031875 0.000000
0.742500 0.031875 0.000000
0.770000 0.031875 0.000000
0.797500 0.031875 0.000000
0.825000 0.031875 0.000000
0.852500 0.031875 0.000000
0.880000 0.031875 0.000000
0.000000 0.063750 0.000000
0.027500 0.063750 0.000000
0.055000 0.063750 0.000000
0.082500 0.063750 0.000000
0.110000 0.063750 0.000000
0.137500 0.063750 0.000000
0.165000 0.063750 0.000000
0.192500 0.063750 0.000000
0.220000 0.063750 0.000000
0.247500 0.063750 0.000000
0.275000 0.063750 0.000000
0.302500 0.063750 0.000000
0.330000 0.063750 0.000000
0.357500 0.063750 0.000000
0.385000 0.063750 0.000000
0.412500 0.063750 0.000000
0.440000 0.063750 0.000000
0.467500 0.063750 0.000000
0.495000 0.063750 0.000000
0.522500 0.063750 0.000000
0.550000 0.063750 0.000000
0.577500 0.063750 0.000000
0.605000 0.063750 0.000000
0.632500 0.063750 0.000000
0.660000 0.063750 0.000000
0.687500 0.063750 0.000000
0.715000 0.063750 0.000000
0.742500 0.063750 0.000000
0.770000 0.063750 0.000000
0.797500 0.063750 0.000000
0.825000 0.063750 0.000000
0.852500 0.063750 0.000000
0.880000 0.063750 0.000000
0.000000 0.095625 0.000000
0.027500 0.095625 0.000000
0.055000 0.095625 0.000000
0.082500 0.095625 0.000000
0.110000 0.095625 0.000000
0.137500 0.095625 0.000000
0.165000 0.095625 0.000000
0.192500 0.095625 0.000000
0.220000 0.095625 0.000000
0.247500 0.095625 0.000000
0.275000 0.095625 0.000000
0.302500 0.095625 0.000000
0.330000 0.095625 0.000000
0.357500 0.095625 0.000000
0.385000 0.095625 0.000000
0.412500 0.095625 0.000000
0.440000 0.095625 0.000000
0.467500 0.095625 0.000000
0.495000 0.095625 0.000000
0.522500 0.095625 0.000000
0.550000 0.095625 0.000000
0.577500 0.095625 0.000000
0.605000 0.095625 0.000000
0.632500 0.095625 0.000000
0.660000 0.095625 0.000000
0.687500 0.095625 0.000000
0.715000 0.095625 0.000000
0.742500 0.095625 0.000000
0.770000 0.095625 0.000000
0.797500 0.095625 0.000000
0.825000 0.095625 0.000000
0.852500 0.095625 0.000000
0.880000 0.095625 0.000000
0.000000 0.127500 0.000000
0.027500 0.127500 0.000000
0.055000 0.127500 0.000000
0.082500 0.127500 0.000000
0.110000 0.127500 0.000000
0.137500 0.127500 0.000000
0.165000 0.127500 0.000000
0.192500 0.127500 0.000000
0.220000 0.127500 0.000000
0.247500 0.127500 0.000000
0.275000 0.127500 0.000000
0.302500 0.127500 0.000000
0.330000 0.127500 0.000000
0.357500 0.127500 0.000000
0.385000 0.127500 0.000000
0.412500 0.127500 0.000000
0.440000 0.127500 0.000000
0.467500 0.127500 0.000000
0.495000 0.127500 0.000000
0.522500 0.127500 0.000000
0.550000 0.127500 0.000000
0.577500 0.127500 0.000000
0.605000 0.127500 0.000000
0.632500 0.127500 0.000000
0.660000 0.127500 0.000000
0.687500 0.127500 0.000000
0.715000 0.127500 0.000000
0.742500 0.127500 0.000000
0.770000 0.127500 0.000000
0.797500 0.127500 0.000000
0.825000 0.127500 0.000000
0.852500 0.127500 0.000000
0.880000 0.127500 0.000000
0.000000 0.159375 0.000000
0.027500 0.159375 0.000000
0.055000 0.159375 0.000000
0.082500 0.159375 0.000000
0.110000 0.159375 0.000000
0.137500 0.159375 0.000000
0.165000 0.159375 0.000000
0.192500 0.159375 0.000000
0.220000 0.159375 0.000000
0.247500 0.159375 0.000000
0.275000 0.159375 0.000000
0.302500 0.159375 0.000000
0.330000 0.159375 0.000000
0.357500 0.159375 0.000000
0.385000 0.159375 0.000000
0.412500 0.159375 0.000000
0.440000 0.159375 0.000000
0.467500 0.159375 0.000000
0.495000 0.159375 0.000000
0.522500 0.159375 0.000000
0.550000 0.159375 0.000000
0.577500 0.159375 0.000000
0.605000 0.159375 0.000000
0.632500 0.159375 0.000000
0.660000 0.159375 0.000000
0.687500 0.159375 0.000000
0.715000 0.159375 0.000000
0.742500 0.159375 0.000000
0.770000 0.159375 0.000000
0.797500 0.159375 0.000000
0.825000 0.159375 0.000000
0.852500 0.159375 0.000000
0.880000 0.159375 0.000000
0.000000 0.191250 0.000000
0.027500 0.191250 0.000000
0.055000 0.191250 0.000000
0.082500 0.191250 0.000000
0.110000 0.191250 0.000000
0.137500 0.191250 0.000000
0.165000 0.191250 0.000000
0.192500 0.191250 0.000000
0.220000 0.191250 0.000000
0.247500 0.191250 0.000000
0.275000 0.191250 0.000000
0.302500 0.191250 0.000000
0.330000 0.191250 0.000000
0.357500 0.191250 0.000000
0.385000 0.191250 0.000000
0.412500 0.191250 0.000000
0.440000 0.191250 0.000000
0.467500 0.191250 0.000000
0.495000 0.191250 0.000000
0.522500 0.191250 0.000000
0.550000 0.191250 0.000000
0.577500 0.191250 0.000000
0.605000 0.191250 0.000000
0.632500 0.191250 0.000000
0.660000 0.191250 0.000000
0.687500 0.191250 0.000000
0.715000 0.191250 0.000000
0.742500 0.191250 0.000000
0.770000 0.191250 0.000000
0.797500 0.191250 0.000000
0.825000 0.191250 0.000000
0.852500 0.191250 0.000000
0.880000 0.191250 0.000000
0.000000 0.223125 0.000000
0.027500 0.223125 0.000000
0.055000 0.223125 0.000000
0.082500 0.223125 0.000000
0.110000 0.223125 0.000000
0.137500 0.223125 0.000000
0.165000 0.223125 0.000000
0.192500 0.223125 0.000000
0.220000 0.223125 0.000000
0.247500 0.223125 0.000000
0.275000 0.223125 0.000000
0.302500 0.223125 0.000000
0.330000 0.223125 0.000000
0.357500 0.223125 0.000000
0.385000 0.223125 0.000000
0.412500 0.223125 0.000000
0.440000 0.223125 0.000000
0.467500 0.223125 0.000000
0.495000 0.223125 0.000000
0.522500 0.223125 0.000000
0.550000 0.223125 0.000000
0.577500 0.223125 0.000000
0.605000 0.223125 0.000000
0.632500 0.223125 0.000000
0.660000 0.223125 0.000000
0.687500 0.223125 0.000000
0.715000 0.223125 0.000000
0.742500 0.223125 0.000000
0.770000 0.223125 0.000000
0.797500 0.223125 0.000000
0.825000 0.223125 0.000000
0.852500 0.223125 0.000000
0.880000 0.223125 0.000000
0.000000 0.255000 0.000000
0.027500 0.255000 0.000000
0.055000 0.255000 0.000000
0.082500 0.255000 0.000000
0.110000 0.255000 0.000000
0.137500 0.255000 0.000000
0.165000 0.255000 0.000000
0.192500 0.255000 0.000000
0.220000 0.255000 0.000000
0.247500 0.255000 0.000000
0.275000 0.255000 0.000000
0.302500 0.255000 0.000000
0.330000 0.255000 0.000000
0.357500 0.255000 0.000000
0.385000 0.255000 0.000000
0.412500 0.255000 0.000000
0.440000 0.255000 0.000000
0.467500 0.255000 0.000000
0.495000 0.255000 0.000000
0.522500 0.255000 0.000000
0.550000 0.255000 0.000000
0.577500 0.255000 0.000000
0.605000 0.255000 0.000000
0.632500 0.255000 0.000000
0.660000 0.255000 0.000000
0.687500 0.255000 0.000000
0.715000 0.255000 0.000000
0.742500 0.255000 0.000000
0.770000 0.255000 0.000000
0.797500 0.255000 0.000000
0.825000 0.255000 0.000000
0.852500 0.255000 0.000000
0.880000 0.255000 0.000000
0.000000 0.286875 0.000000
0.027500 0.286875 0.000000
0.055000 0.286875 0.000000
0.082500 0.286875 0.000000
0.110000 0.286875 0.000000
0.137500 0.286875 0.000000
0.165000 0.286875 0.000000
0.192500 0.286875 0.000000
0.220000 0.286875 0.000000
0.247500 0.286875 0.000000
0.275000 0.286875 0.000000
0.302500 0.286875 0.000000
0.330000 0.286875 0.000000
0.357500 0.286875 0.000000
0.385000 0.286875 0.000000
0.412500 0.286875 0.000000
0.440000 0.286875 0.000000
0.467500 0.286875 0.000000
0.495000 0.286875 0.000000
0.522500 0.286875 0.000000
0.550000 0.286875 0.000000
0.577500 0.286875 0.000000
0.605000 0.286875 0.000000
0.632500 0.286875 0.000000
0.660000 0.286875 0.000000
0.687500 0.286875 0.000000
0.715000 0.286875 0.000000
0.742500 0.286875 0.000000
0.770000 0.286875 0.000000
0.797500 0.286875 0.000000
0.825000 0.286875 0.000000
0.852500 0.286875 0.000000
0.880000 0.286875 0.000000
0.000000 0.318750 0.000000
0.027500 0.318750 0.000000
0.055000 0.318750 0.000000
0.082500 0.318750 0.000000
0.110000 0.318750 0.000000
0.137500 0.318750 0.000000
0.165000 0.318750 0.000000
0.192500 0.318750 0.000000
0.220000 0.318750 0.000000
0.247500 0.318750 0.000000
0.275000 0.318750 0.000000
0.302500 0.318750 0.000000
0.330000 0.318750 0.000000
0.357500 0.318750 0.000000
0.385000 0.318750 0.000000
0.412500 0.318750 0.000000
0.440000 0.318750 0.000000
0.467500 0.318750 0.000000
0.495000 0.318750 0.000000
0.522500 0.318750 0.000000
0.550000 0.318750 0.000000
0.577500 0.318750 0.000000
0.605000 0.318750 0.000000
0.632500 0.318750 0.000000
0.660000 0.318750 0.000000
0.687500 0.318750 0.000000
0.715000 0.318750 0.000000
0.742500 0.318750 0.000000
0.770000 0.318750 0.000000
0.797500 0.318750 0.000000
0.825000 0.318750 0.000000
0.852500 0.318750 0.000000
0.880000 0.318750 0.000000
0.000000 0.350625 0.000000
0.027500 0.350625 0.000000
0.055000 0.350625 0.000000
0.082500 0.350625 0.000000
0.110000 0.350625 0.000000
0.137500 0.350625 0.000000
0.165000 0.350625 0.000000
0.192500 0.350625 0.000000
0.220000 0.350625 0.000000
0.247500 0.350625 0.000000
0.275000 0.350625 0.000000
0.302500 0.350625 0.000000
0.330000 0.350625 0.000000
0.357500 0.350625 0.000000
0.385000 0.350625 0.000000
0.412500 0.350625 0.000000
0.440000 0.350625 0.000000
0.467500 0.350625 0.000000
0.495000 0.350625 0.000000
0.522500 0.350625 0.000000
0.550000 0.350625 0.000000
0.577500 0.350625 0.000000
0.605000 0.350625 0.000000
0.632500 0.350625 0.000000
0.660000 0.350625 0.000000
0.687500 0.350625 0.000000
0.715000 0.350625 0.000000
0.742500 0.350625 0.000000
0.770000 0.350625 0.000000
0.797500 0.350625 0.000000
0.825000 0.350625 0.000000
0.852500 0.350625 0.000000
0.880000 0.350625 0.000000
0.000000 0.382500 0.000000
0.027500 0.382500 0.000000
0.055000 0.382500 0.000000
0.082500 0.382500 0.000000
0.110000 0.382500 0.000000
0.137500 0.382500 0.000000
0.165000 0.382500 0.000000
0.192500 0.382500 0.000000
0.220000 0.382500 0.000000
0.247500 0.382500 0.000000
0.275000 0.382500 0.000000
0.302500 0.382500 0.000000
0.330000 0.382500 0.000000
0.357500 0.382500 0.000000
0.385000 0.382500 0.000000
0.412500 0.382500 0.000000
0.440000 0.382500 0.000000
0.467500 0.382500 0.000000
0.495000 0.382500 0.000000
0.522500 0.382500 0.000000
0.550000 0.382500 0.000000
0.577500 0.382500 0.000000
0.605000 0.382500 0.000000
0.632500 0.382500 0.000000
0.660000 0.382500 0.000000
0.687500 0.382500 0.000000
0.715000 0.382500 0.000000
0.742500 0.382500 0.000000
0.770000 0.382500 0.000000
0.797500 0.382500 0.000000
0.825000 0.382500 0.000000
0.852500 0.382500 0.000000
0.880000 0.382500 0.000000
0.000000 0.414375 0.000000
0.027500 0.414375 0.000000
0.055000 0.414375 0.000000
0.082500 0.414375 0.000000
0.110000 0.414375 0.000000
0.137500 0.414375 0.000000
0.165000 0.414375 0.000000
0.192500 0.414375 0.000000
0.220000 0.414375 0.000000
0.247500 0.414375 0.000000
0.275000 0.414375 0.000000
0.302500 0.414375 0.000000
0.330000 0.414375 0.000000
0.357500 0.414375 0.000000
0.385000 0.414375 0.000000
0.412500 0.414375 0.000000
0.440000 0.414375 0.000000
0.467500 0.414375 0.000000
0.495000 0.414375 0.000000
0.522500 0.414375 0.000000
0.550000 0.414375 0.000000
0.577500 0.414375 0.000000
0.605000 0.414375 0.000000
0.632500 0.414375 0.000000
0.660000 0.414375 0.000000
0.687500 0.414375 0.000000
0.715000 0.414375 0.000000
0.742500 0.414375 0.000000
0.770000 0.414375 0.000000
0.797500 0.414375 0.000000
0.825000 0.414375 0.000000
0.852500 0.414375 0.000000
0.880000 0.414375 0.000000
0.000000 0.446250 0.000000
0.027500 0.446250 0.000000
0.055000 0.446250 0.000000
0.082500 0.446250 0.000000
0.110000 0.446250 0.000000
0.137500 0.446250 0.000000
0.165000 0.446250 0.000000
0.192500 0.446250 0.000000
0.220000 0.446250 0.000000
0.247500 0.446250 0.000000
0.275000 0.446250 0.000000
0.302500 0.446250 0.000000
0.330000 0.446250 0.000000
0.357500 0.446250 0.000000
0.385000 0.446250 0.000000
0.412500 0.446250 0.000000
0.440000 0.446250 0.000000
0.467500 0.446250 0.000000
0.495000 0.446250 0.000000
0.522500 0.446250 0.000000
0.550000 0.446250 0.000000
0.577500 0.446250 0.000000
0.605000 0.446250 0.000000
0.632500 0.446250 0.000000
0.660000 0.446250 0.000000
0.687500 0.446250 0.000000
0.715000 0.446250 0.000000
0.742500 0.446250 0.000000
0.770000 0.446250 0.000000
0.797500 0.446250 0.000000
0.825000 0.446250 0.000000
0.852500 0.446250 0.000000
0.880000 0.446250 0.000000
0.000000 0.478125 0.000000
0.027500 0.478125 0.000000
0.055000 0.478125 0.000000
0.082500 0.478125 0.000000
0.110000 0.478125 0.000000
0.137500 0.478125 0.000000
0.165000 0.478125 0.000000
0.192500 0.478125 0.000000
0.220000 0.478125 0.000000
0.247500 0.478125 0.000000
0.275000 0.478125 0.000000
0.302500 0.478125 0.000000
0.330000 0.478125 0.000000
0.357500 0.478125 0.000000
0.385000 0.478125 0.000000
0.412500 0.478125 0.000000
0.440000 0.478125 0.000000
0.467500 0.478125 0.000000
0.495000 0.478125 0.000000
0.522500 0.478125 0.000000
0.550000 0.478125 0.000000
0.577500 0.478125 0.000000
0.605000 0.478125 0.000000
0.632500 0.478125 0.000000
0.660000 0.478125 0.000000
0.687500 0.478125 0.000000
0.715000 0.478125 0.000000
0.742500 0.478125 0.000000
0.770000 0.478125 0.000000
0.797500 0.478125 0.000000
0.825000 0.478125 0.000000
0.852500 0.478125 0.000000
0.880000 0.478125 0.000000
0.000000 0.510000 0.000000
0.027500 0.510000 0.000000
0.055000 0.510000 0.000000
0.082500 0.510000 0.000000
0.110000 0.510000 0.000000
0.137500 0.510000 0.000000
0.165000 0.510000 0.000000
0.192500 0.510000 0.000000
0.220000 0.510000 0.000000
0.247500 0.510000 0.000000
0.275000 0.510000 0.000000
0.302500 0.510000 0.000000
0.330000 0.510000 0.000000
0.357500 0.510000 0.000000
0.385000 0.510000 0.000000
0.412500 0.510000 0.000000
0.440000 0.510000 0.000000
0.467500 0.510000 0.000000
0.495000 0.510000 0.000000
0.522500 0.510000 0.000000
0.550000 0.510000 0.000000
0.577500 0.510000 0.000000
0.605000 0.510000 0.000000
0.632500 0.510000 0.000000
0.660000 0.510000 0.000000
0.687500 0.510000 0.000000
0.715000 0.510000 0.000000
0.742500 0.510000 0.000000
0.770000 0.510000 0.000000
0.797500 0.510000 0.000000
0.825000 0.510000 0.000000
0.852500 0.510000 0.000000
0.880000 0.510000 0.000000
0.000000 0.541875 0.000000
0.027500 0.541875 0.000000
0.055000 0.541875 0.000000
0.082500 0.541875 0.000000
0.110000 0.541875 0.000000
0.137500 0.541875 0.000000
0.165000 0.541875 0.000000
0.192500 0.541875 0.000000
0.220000 0.541875 0.000000
0.247500 0.541875 0.000000
0.275000 0.541875 0.000000
0.302500 0.541875 0.000000
0.330000 0.541875 0.000000
0.357500 0.541875 0.000000
0.385000 0.541875 0.000000
0.412500 0.541875 0.000000
0.440000 0.541875 0.000000
0.467500 0.541875 0.000000
0.495000 0.541875 0.000000
0.522500 0.541875 0.000000
0.550000 0.541875 0.000000
0.577500 0.541875 0.000000
0.605000 0.541875 0.000000
0.632500 0.541875 0.000000
0.660000 0.541875 0.000000
0.687500 0.541875 0.000000
0.715000 0.541875 0.000000
0.742500 0.541875 0.000000
0.770000 0.541875 0.000000
0.797500 0.541875 0.000000
0.825000 0.541875 0.000000
0.852500 0.541875 0.000000
0.880000 0.541875 0.000000
0.000000 0.573750 0.000000
0.027500 0.573750 0.000000
0.055000 0.573750 0.000000
0.082500 0.573750 0.000000
0.110000 0.573750 0.000000
0.137500 0.573750 0.000000
0.165000 0.573750 0.000000
0.192500 0.573750 0.000000
0.220000 0.573750 0.000000
0.247500 0.573750 0.000000
0.275000 0.573750 0.000000
0.302500 0.573750 0.000000
0.330000 0.573750 0.000000
0.357500 0.573750 0.000000
0.385000 0.573750 0.000000
0.412500 0.573750 0.000000
0.440000 0.573750 0.000000
0.467500 0.573750 0.000000
0.495000 0.573750 0.000000
0.522500 0.573750 0.000000
0.550000 0.573750 0.000000
0.577500 0.573750 0.000000
0.605000 0.573750 0.000000
0.632500 0.573750 0.000000
0.660000 0.573750 0.000000
0.687500 0.573750 0.000000
0.715000 0.573750 0.000000
0.742500 0.573750 0.000000
0.770000 0.573750 0.000000
0.797500 0.573750 0.000000
0.825000 0.573750 0.000000
0.852500 0.573750 0.000000
0.880000 0.573750 0.000000
0.000000 0.605625 0.000000
0.027500 0.605625 0.000000
0.055000 0.605625 0.000000
0.082500 0.605625 0.000000
0.110000 0.605625 0.000000
0.137500 0.605625 0.000000
0.165000 0.605625 0.000000
0.192500 0.605625 0.000000
0.220000 0.605625 0.000000
0.247500 0.605625 0.000000
0.275000 0.605625 0.000000
0.302500 0.605625 0.000000
0.330000 0.605625 0.000000
0.357500 0.605625 0.000000
0.385000 0.605625 0.000000
0.412500 0.605625 0.000000
0.440000 0.605625 0.000000
0.467500 0.605625 0.000000
0.495000 0.605625 0.000000
0.522500 0.605625 0.000000
0.550000 0.605625 0.000000
0.577500 0.605625 0.000000
0.605000 0.605625 0.000000
0.632500 0.605625 0.000000
0.660000 0.605625 0.000000
0.687500 0.605625 0.000000
0.715000 0.605625 0.000000
0.742500 0.605625 0.000000
0.770000 0.605625 0.000000
0.797500 0.605625 0.000000
0.825000 0.605625 0.000000
0.852500 0.605625 0.000000
0.880000 0.605625 0.000000
0.000000 0.637500 0.000000
0.027500 0.637500 0.000000
0.055000 0.637500 0.000000
0.082500 0.637500 0.000000
0.110000 0.637500 0.000000
0.137500 0.637500 0.000000
0.165000 0.637500 0.000000
0.192500 0.637500 0.000000
0.220000 0.637500 0.000000
0.247500 0.637500 0.000000
0.275000 0.637500 0.000000
0.302500 0.637500 0.000000
0.330000 0.637500 0.000000
0.357500 0.637500 0.000000
0.385000 0.637500 0.000000
0.412500 0.637500 0.000000
0.440000 0.637500 0.000000
0.467500 0.637500 0.000000
0.495000 0.637500 0.000000
0.522500 0.637500 0.000000
0.550000 0.637500 0.000000
0.577500 0.637500 0.000000
0.605000 0.637500 0.000000
0.632500 0.637500 0.000000
0.660000 0.637500 0.000000
0.687500 0.637500 0.000000
0.715000 0.637500 0.000000
0.742500 0.637500 0.000000
0.770000 0.637500 0.000000
0.797500 0.637500 0.000000
0.825000 0.637500 0.000000
0.852500 0.637500 0.000000
0.880000 0.637500 0.000000
0.000000 0.669375 0.000000
0.027500 0.669375 0.000000
0.055000 0.669375 0.000000
0.082500 0.669375 0.000000
0.110000 0.669375 0.000000
0.137500 0.669375 0.000000
0.165000 0.669375 0.000000
0.192500 0.669375 0.000000
0.220000 0.669375 0.000000
0.247500 0.669375 0.000000
0.275000 0.669375 0.000000
0.302500 0.669375 0.000000
0.330000 0.669375 0.000000
0.357500 0.669375 0.000000
0.385000 0.669375 0.000000
0.412500 0.669375 0.000000
0.440000 0.669375 0.000000
0.467500 0.669375 0.000000
0.495000 0.669375 0.000000
0.522500 0.669375 0.000000
0.550000 0.669375 0.000000
0.577500 0.669375 0.000000
0.605000 0.669375 0.000000
0.632500 0.669375 0.000000
0.660000 0.669375 0.000000
0.687500 0.669375 0.000000
0.715000 0.669375 0.000000
0.742500 0.669375 0.000000
0.770000 0.669375 0.000000
0.797500 0.669375 0.000000
0.825000 0.669375 0.000000
0.852500 0.669375 0.000000
0.880000 0.669375 0.000000
0.000000 0.701250 0.000000
0.027500 0.701250 0.000000
0.055000 0.701250 0.000000
0.082500 0.701250 0.000000
0.110000 0.701250 0.000000
0.137500 0.701250 0.000000
0.165000 0.701250 0.000000
0.192500 0.701250 0.000000
0.220000 0.701250 0.000000
0.247500 0.701250 0.000000
0.275000 0.701250 0.000000
0.302500 0.701250 0.000000
0.330000 0.701250 0.000000
0.357500 0.701250 0.000000
0.385000 0.701250 0.000000
0.412500 0.701250 0.000000
0.440000 0.701250 0.000000
0.467500 0.701250 0.000000
0.495000 0.701250 0.000000
0.522500 0.701250 0.000000
0.550000 0.701250 0.000000
0.577500 0.701250 0.000000
0.605000 0.701250 0.000000
0.632500 0.701250 0.000000
0.660000 0.701250 0.000000
0.687500 0.701250 0.000000
0.715000 0.701250 0.000000
0.742500 0.701250 0.000000
0.770000 0.701250 0.000000
0.797500 0.701250 0.000000
0.825000 0.701250 0.000000
0.852500 0.701250 0.000000
0.880000 0.701250 0.000000
0.000000 0.733125 0.000000
0.027500 0.733125 0.000000
0.055000 0.733125 0.000000
0.082500 0.733125 0.000000
0.110000 0.733125 0.000000
0.137500 0.733125 0.000000
0.165000 0.733125 0.000000
0.192500 0.733125 0.000000
0.220000 0.733125 0.000000
0.247500 0.733125 0.000000
0.275000 0.733125 0.000000
0.302500 0.733125 0.000000
0.330000 0.733125 0.000000
0.357500 0.733125 0.000000
0.385000 0.733125 0.000000
0.412500 0.733125 0.000000
0.440000 0.733125 0.000000
0.467500 0.733125 0.000000
0.495000 0.733125 0.000000
0.522500 0.733125 0.000000
0.550000 0.733125 0.000000
0.577500 0.733125 0.000000
0.605000 0.733125 0.000000
0.632500 0.733125 0.000000
0.660000 0.733125 0.000000
0.687500 0.733125 0.000000
0.715000 0.733125 0.000000
0.742500 0.733125 0.000000
0.770000 0.733125 0.000000
0.797500 0.733125 0.000000
0.825000 0.733125 0.000000
0.852500 0.733125 0.000000
0.880000 0.733125 0.000000
0.000000 0.765000 0.000000
0.027500 0.765000 0.000000
0.055000 0.765000 0.000000
0.082500 0.765000 0.000000
0.110000 0.765000 0.000000
0.137500 0.765000 0.000000
0.165000 0.765000 0.000000
0.192500 0.765000 0.000000
0.220000 0.765000 0.000000
0.247500 0.765000 0.000000
0.275000 0.765000 0.000000
0.302500 0.765000 0.000000
0.330000 0.765000 0.000000
0.357500 0.765000 0.000000
0.385000 0.765000 0.000000
0.412500 0.765000 0.000000
0.440000 0.765000 0.000000
0.467500 0.765000 0.000000
0.495000 0.765000 0.000000
0.522500 0.765000 0.000000
0.550000 0.765000 0.000000
0.577500 0.765000 0.000000
0.605000 0.765000 0.000000
0.632500 0.765000 0.000000
0.660000 0.765000 0.000000
0.687500 0.765000 0.000000
0.715000 0.765000 0.000000
0.742500 0.765000 0.000000
0.770000 0.765000 0.000000
0.797500 0.765000 0.000000
0.825000 0.765000 0.000000
0.852500 0.765000 0.000000
0.880000 0.765000 0.000000
0.000000 0.796875 0.000000
0.027500 0.796875 0.000000
0.055000 0.796875 0.000000
0.082500 0.796875 0.000000
0.110000 0.796875 0.000000
0.137500 0.796875 0.000000
0.165000 0.796875 0.000000
0.192500 0.796875 0.000000
0.220000 0.796875 0.000000
0.247500 0.796875 0.000000
0.275000 0.796875 0.000000
0.302500 0.796875 0.000000
0.330000 0.796875 0.000000
0.357500 0.796875 0.000000
0.385000 0.796875 0.000000
0.412500 0.796875 0.000000
0.440000 0.796875 0.000000
0.467500 0.796875 0.000000
0.495000 0.796875 0.000000
0.522500 0.796875 0.000000
0.550000 0.796875 0.000000
0.577500 0.796875 0.000000
0.605000 0.796875 0.000000
0.632500 0.796875 0.000000
0.660000 0.796875 0.000000
0.687500 0.796875 0.000000
0.715000 0.796875 0.000000
0.742500 0.796875 0.000000
0.770000 0.796875 0.000000
0.797500 0.796875 0.000000
0.825000 0.796875 0.000000
0.852500 0.796875 0.000000
0.880000 0.796875 0.000000
0.000000 0.828750 0.000000
0.027500 0.828750 0.000000
0.055000 0.828750 0.000000
0.082500 0.828750 0.000000
0.110000 0.828750 0.000000
0.137500 0.828750 0.000000
0.165000 0.828750 0.000000
0.192500 0.828750 0.000000
0.220000 0.828750 0.000000
0.247500 0.828750 0.000000
0.275000 0.828750 0.000000
0.302500 0.828750 0.000000
0.330000 0.828750 0.000000
0.357500 0.828750 0.000000
0.385000 0.828750 0.000000
0.412500 0.828750 0.000000
0.440000 0.828750 0.000000
0.467500 0.828750 0.000000
0.495000 0.828750 0.000000
0.522500 0.828750 0.000000
0.550000 0.828750 0.000000
0.577500 0.828750 0.000000
0.605000 0.828750 0.000000
0.632500 0.828750 0.000000
0.660000 0.828750 0.000000
0.687500 0.828750 0.000000
0.715000 0.828750 0.000000
0.742500 0.828750 0.000000
0.770000 0.828750 0.000000
