indra/newview/app_settings/luts/cool.cube
TITLE "Cool"
LUT_3D_SIZE 9
0.000000 0.000000 0.000000
0.110000 0.000000 0.000000
0.220000 0.000000 0.000000
0.330000 0.000000 0.000000
0.440000 0.000000 0.000000
0.550000 0.000000 0.000000
0.660000 0.000000 0.000000
0.770000 0.000000 0.000000
0.880000 0.000000 0.000000
0.000000 0.127500 0.000000
0.110000 0.127500 0.000000
0.220000 0.127500 0.000000
0.330000 0.127500 0.000000
0.440000 0.127500 0.000000
0.550000 0.127500 0.000000
0.660000 0.127500 0.000000
0.770000 0.127500 0.000000
0.880000 0.127500 0.000000
0.000000 0.255000 0.000000
0.110000 0.255000 0.000000
0.220000 0.255000 0.000000
0.330000 0.255000 0.000000
0.440000 0.255000 0.000000
0.550000 0.255000 0.000000
0.660000 0.255000 0.000000
0.770000 0.255000 0.000000
0.880000 0.255000 0.000000
0.000000 0.382500 0.000000
0.110000 0.382500 0.000000
0.220000 0.382500 0.000000
0.330000 0.382500 0.000000
0.440000 0.382500 0.000000
0.550000 0.382500 0.000000
0.660000 0.382500 0.000000
0.770000 0.382500 0.000000
0.880000 0.382500 0.000000
0.000000 0.510000 0.000000
0.110000 0.510000 0.000000
0.220000 0.510000 0.000000
0.330000 0.510000 0.000000
0.440000 0.510000 0.000000
0.550000 0.510000 0.000000
0.660000 0.510000 0.000000
0.770000 0.510000 0.000000
0.880000 0.510000 0.000000
0.000000 0.637500 0.000000
0.110000 0.637500 0.000000
0.220000 0.637500 0.000000
0.330000 0.637500 0.000000
0.440000 0.637500 0.000000
0.550000 0.637500 0.000000
0.660000 0.637500 0.000000
0.770000 0.637500 0.000000
0.880000 0.637500 0.000000
0.000000 0.765000 0.000000
0.110000 0.765000 0.000000
0.220000 0.765000 0.000000
0.330000 0.765000 0.000000
0.440000 0.765000 0.000000
0.550000 0.765000 0.000000
0.660000 0.765000 0.000000
0.770000 0.765000 0.000000
0.880000 0.765000 0.000000
0.000000 0.892500 0.000000
0.110000 0.892500 0.000000
0.220000 0.892500 0.000000
0.330000 0.892500 0.000000
0.440000 0.892500 0.000000
0.550000 0.892500 0.000000
0.660000 0.892500 0.000000
0.770000 0.892500 0.000000
0.880000 0.892500 0.000000
0.000000 1.000000 0.000000
0.110000 1.000000 0.000000
0.220000 1.000000 0.000000
0.330000 1.000000 0.000000
0.440000 1.000000 0.000000
0.550000 1.000000 0.000000
0.660000 1.000000 0.000000
0.770000 1.000000 0.000000
0.880000 1.000000 0.000000
0.000000 0.000000 0.143750
0.110000 0.000000 0.143750
0.220000 0.000000 0.143750
0.330000 0.000000 0.143750
0.440000 0.000000 0.143750
0.550000 0.000000 0.143750
0.660000 0.000000 0.143750
0.770000 0.000000 0.143750
0.880000 0.000000 0.143750
0.000000 0.127500 0.143750
0.110000 0.127500 0.143750
0.220000 0.127500 0.143750
0.330000 0.127500 0.143750
0.440000 0.127500 0.143750
0.550000 0.127500 0.143750
0.660000 0.127500 0.143750
0.770000 0.127500 0.143750
0.880000 0.127500 0.143750
0.000000 0.255000 0.143750
0.110000 0.255000 0.143750
0.220000 0.255000 0.143750
0.330000 0.255000 0.143750
0.440000 0.255000 0.143750
0.550000 0.255000 0.143750
0.660000 0.255000 0.143750
0.770000 0.255000 0.143750
0.880000 0.255000 0.143750
0.000000 0.382500 0.143750
0.110000 0.382500 0.143750
0.220000 0.382500 0.143750
0.330000 0.382500 0.143750
0.440000 0.382500 0.143750
0.550000 0.382500 0.143750
0.660000 0.382500 0.143750
0.770000 0.382500 0.143750
0.880000 0.382500 0.143750
0.000000 0.510000 0.143750
0.110000 0.510000 0.143750
0.220000 0.510000 0.143750
0.330000 0.510000 0.143750
0.440000 0.510000 0.143750
0.550000 0.510000 0.143750
0.660000 0.510000 0.143750
0.770000 0.510000 0.143750
0.880000 0.510000 0.143750
0.000000 0.637500 0.143750
0.110000 0.637500 0.143750
0.220000 0.637500 0.143750
0.330000 0.637500 0.143750
0.440000 0.637500 0.143750
0.550000 0.637500 0.143750
0.660000 0.637500 0.143750
0.770000 0.637500 0.143750
0.880000 0.637500 0.143750
0.000000 0.765000 0.143750
0.110000 0.765000 0.143750
0.220000 0.765000 0.143750
0.330000 0.765000 0.143750
0.440000 0.765000 0.143750
0.550000 0.765000 0.143750
0.660000 0.765000 0.143750
0.770000 0.765000 0.143750
0.880000 0.765000 0.143750
0.000000 0.892500 0.143750
0.110000 0.892500 0.143750
0.220000 0.892500 0.143750
0.330000 0.892500 0.143750
0.440000 0.892500 0.143750
0.550000 0.892500 0.143750
0.660000 0.892500 0.143750
0.770000 0.892500 0.143750
0.880000 0.892500 0.143750
0.000000 1.000000 0.143750
0.110000 1.000000 0.143750
0.220000 1.000000 0.143750
0.330000 1.000000 0.143750
0.440000 1.000000 0.143750
0.550000 1.000000 0.143750
0.660000 1.000000 0.143750
0.770000 1.000000 0.143750
0.880000 1.000000 0.143750
0.000000 0.000000 0.287500
0.110000 0.000000 0.287500
0.220000 0.000000 0.287500
0.330000 0.000000 0.287500
0.440000 0.000000 0.287500
0.550000 0.000000 0.287500
0.660000 0.000000 0.287500
0.770000 0.000000 0.287500
0.880000 0.000000 0.287500
0.000000 0.127500 0.287500
0.110000 0.127500 0.287500
0.220000 0.127500 0.287500
0.330000 0.127500 0.287500
0.440000 0.127500 0.287500
0.550000 0.127500 0.287500
0.660000 0.127500 0.287500
0.770000 0.127500 0.287500
0.880000 0.127500 0.287500
0.000000 0.255000 0.287500
0.110000 0.255000 0.287500
0.220000 0.255000 0.287500
0.330000 0.255000 0.287500
0.440000 0.255000 0.287500
0.550000 0.255000 0.287500
0.660000 0.255000 0.287500
0.770000 0.255000 0.287500
0.880000 0.255000 0.287500
0.000000 0.382500 0.287500
0.110000 0.382500 0.287500
0.220000 0.382500 0.287500
0.330000 0.382500 0.287500
0.440000 0.382500 0.287500
0.550000 0.382500 0.287500
0.660000 0.382500 0.287500
0.770000 0.382500 0.287500
0.880000 0.382500 0.287500
0.000000 0.510000 0.287500
0.110000 0.510000 0.287500
0.220000 0.510000 0.287500
0.330000 0.510000 0.287500
0.440000 0.510000 0.287500
0.550000 0.510000 0.287500
0.660000 0.510000 0.287500
0.770000 0.510000 0.287500
0.880000 0.510000 0.287500
0.000000 0.637500 0.287500
0.110000 0.637500 0.287500
0.220000 0.637500 0.287500
0.330000 0.637500 0.287500
0.440000 0.637500 0.287500
0.550000 0.637500 0.287500
0.660000 0.637500 0.287500
0.770000 0.637500 0.287500
0.880000 0.637500 0.287500
0.000000 0.765000 0.287500
0.110000 0.765000 0.287500
0.220000 0.765000 0.287500
0.330000 0.765000 0.287500
0.440000 0.765000 0.287500
0.550000 0.765000 0.287500
0.660000 0.765000 0.287500
0.770000 0.765000 0.287500
0.880000 0.765000 0.287500
0.000000 0.892500 0.287500
0.110000 0.892500 0.287500
0.220000 0.892500 0.287500
0.330000 0.892500 0.287500
0.440000 0.892500 0.287500
0.550000 0.892500 0.287500
0.660000 0.892500 0.287500
0.770000 0.892500 0.287500
0.880000 0.892500 0.287500
0.000000 1.000000 0.287500
0.110000 1.000000 0.287500
0.220000 1.000000 0.287500
0.330000 1.000000 0.287500
0.440000 1.000000 0.287500
0.550000 1.000000 0.287500
0.660000 1.000000 0.287500
0.770000 1.000000 0.287500
0.880000 1.000000 0.287500
0.000000 0.000000 0.431250
0.110000 0.000000 0.431250
0.220000 0.000000 0.431250
0.330000 0.000000 0.431250
0.440000 0.000000 0.431250
0.550000 0.000000 0.431250
0.660000 0.000000 0.431250
0.770000 0.000000 0.431250
0.880000 0.000000 0.431250
0.000000 0.127500 0.431250
0.110000 0.127500 0.431250
0.220000 0.127500 0.431250
0.330000 0.127500 0.431250
0.440000 0.127500 0.431250
0.550000 0.127500 0.431250
0.660000 0.127500 0.431250
0.770000 0.127500 0.431250
0.880000 0.127500 0.431250
0.000000 0.255000 0.431250
0.110000 0.255000 0.431250
0.220000 0.255000 0.431250
0.330000 0.255000 0.431250
0.440000 0.255000 0.431250
0.550000 0.255000 0.431250
0.660000 0.255000 0.431250
0.770000 0.255000 0.431250
0.880000 0.255000 0.431250
0.000000 0.382500 0.431250
0.110000 0.382500 0.431250
0.220000 0.382500 0.431250
0.330000 0.382500 0.431250
0.440000 0.382500 0.431250
0.550000 0.382500 0.431250
0.660000 0.382500 0.431250
0.770000 0.382500 0.431250
0.880000 0.382500 0.431250
0.000000 0.510000 0.431250
0.110000 0.510000 0.431250
0.220000 0.510000 0.431250
0.330000 0.510000 0.431250
0.440000 0.510000 0.431250
0.550000 0.510000 0.431250
0.660000 0.510000 0.431250
0.770000 0.510000 0.431250
0.880000 0.510000 0.431250
0.000000 0.637500 0.431250
0.110000 0.637500 0.431250
0.220000 0.637500 0.431250
0.330000 0.637500 0.431250
0.440000 0.637500 0.431250
0.550000 0.637500 0.431250
0.660000 0.637500 0.431250
0.770000 0.637500 0.431250
0.880000 0.637500 0.431250
0.000000 0.765000 0.431250
0.110000 0.765000 0.431250
0.220000 0.765000 0.431250
0.330000 0.765000 0.431250
0.440000 0.765000 0.431250
0.550000 0.765000 0.431250
0.660000 0.765000 0.431250
0.770000 0.765000 0.431250
0.880000 0.765000 0.431250
0.000000 0.892500 0.431250
0.110000 0.892500 0.431250
0.220000 0.892500 0.431250
0.330000 0.892500 0.431250
0.440000 0.892500 0.431250
0.550000 0.892500 0.431250
0.660000 0.892500 0.431250
0.770000 0.892500 0.431250
0.880000 0.892500 0.431250
0.000000 1.000000 0.431250
0.110000 1.000000 0.431250
0.220000 1.000000 0.431250
0.330000 1.000000 0.431250
0.440000 1.000000 0.431250
0.550000 1.000000 0.431250
0.660000 1.000000 0.431250
0.770000 1.000000 0.431250
0.880000 1.000000 0.431250
0.000000 0.000000 0.575000
0.110000 0.000000 0.575000
0.220000 0.000000 0.575000
0.330000 0.000000 0.575000
0.440000 0.000000 0.575000
0.550000 0.000000 0.575000
0.660000 0.000000 0.575000
0.770000 0.000000 0.575000
0.880000 0.000000 0.575000
0.000000 0.127500 0.575000
0.110000 0.127500 0.575000
0.220000 0.127500 0.575000
0.330000 0.127500 0.575000
0.440000 0.127500 0.575000
0.550000 0.127500 0.575000
0.660000 0.127500 0.575000
0.770000 0.127500 0.575000
0.880000 0.127500 0.575000
0.000000 0.255000 0.575000
0.110000 0.255000 0.575000
0.220000 0.255000 0.575000
0.330000 0.255000 0.575000
0.440000 0.255000 0.575000
0.550000 0.255000 0.575000
0.660000 0.255000 0.575000
0.770000 0.255000 0.575000
0.880000 0.255000 0.575000
0.000000 0.382500 0.575000
0.110000 0.382500 0.575000
0.220000 0.382500 0.575000
0.330000 0.382500 0.575000
0.440000 0.382500 0.575000
0.550000 0.382500 0.575000
0.660000 0.382500 0.575000
0.770000 0.382500 0.575000
0.880000 0.382500 0.575000
0.000000 0.510000 0.575000
0.110000 0.510000 0.575000
0.220000 0.510000 0.575000
0.330000 0.510000 0.575000
0.440000 0.510000 0.575000
0.550000 0.510000 0.575000
0.660000 0.510000 0.575000
0.770000 0.510000 0.575000
0.880000 0.510000 0.575000
0.000000 0.637500 0.575000
0.110000 0.637500 0.575000
0.220000 0.637500 0.575000
0.330000 0.637500 0.575000
0.440000 0.637500 0.575000
0.550000 0.637500 0.575000
0.660000 0.637500 0.575000
0.770000 0.637500 0.575000
0.880000 0.637500 0.575000
0.000000 0.765000 0.575000
0.110000 0.765000 0.575000
0.220000 0.765000 0.575000
0.330000 0.765000 0.575000
0.440000 0.765000 0.575000
0.550000 0.765000 0.575000
0.660000 0.765000 0.575000
0.770000 0.765000 0.575000
0.880000 0.765000 0.575000
0.000000 0.892500 0.575000
0.110000 0.892500 0.575000
0.220000 0.892500 0.575000
0.330000 0.892500 0.575000
0.440000 0.892500 0.575000
0.550000 0.892500 0.575000
0.660000 0.892500 0.575000
0.770000 0.892500 0.575000
0.880000 0.892500 0.575000
0.000000 1.000000 0.575000
0.110000 1.000000 0.575000
0.220000 1.000000 0.575000
0.330000 1.000000 0.575000
0.440000 1.000000 0.575000
0.550000 1.000000 0.575000
0.660000 1.000000 0.575000
0.770000 1.000000 0.575000
0.880000 1.000000 0.575000
0.000000 0.000000 0.718750
0.110000 0.000000 0.718750
0.220000 0.000000 0.718750
0.330000 0.000000 0.718750
0.440000 0.000000 0.718750
0.550000 0.000000 0.718750
0.660000 0.000000 0.718750
0.770000 0.000000 0.718750
0.880000 0.000000 0.718750
0.000000 0.127500 0.718750
0.110000 0.127500 0.718750
0.220000 0.127500 0.718750
0.330000 0.127500 0.718750
0.440000 0.127500 0.718750
0.550000 0.127500 0.718750
0.660000 0.127500 0.718750
0.770000 0.127500 0.718750
0.880000 0.127500 0.718750
0.000000 0.255000 0.718750
0.110000 0.255000 0.718750
0.220000 0.255000 0.718750
0.330000 0.255000 0.718750
0.440000 0.255000 0.718750
0.550000 0.255000 0.718750
0.660000 0.255000 0.718750
0.770000 0.255000 0.718750
0.880000 0.255000 0.718750
0.000000 0.382500 0.718750
0.110000 0.382500 0.718750
0.220000 0.382500 0.718750
0.330000 0.382500 0.718750
0.440000 0.382500 0.718750
0.550000 0.382500 0.718750
0.660000 0.382500 0.718750
0.770000 0.382500 0.718750
0.880000 0.382500 0.718750
0.000000 0.510000 0.718750
0.110000 0.510000 0.718750
0.220000 0.510000 0.718750
0.330000 0.510000 0.718750
0.440000 0.510000 0.718750
0.550000 0.510000 0.718750
0.660000 0.510000 0.718750
0.770000 0.510000 0.718750
0.880000 0.510000 0.718750
0.000000 0.637500 0.718750
0.110000 0.637500 0.718750
0.220000 0.637500 0.718750
0.330000 0.637500 0.718750
0.440000 0.637500 0.718750
0.550000 0.637500 0.718750
0.660000 0.637500 0.718750
0.770000 0.637500 0.718750
0.880000 0.637500 0.718750
0.000000 0.765000 0.718750
0.110000 0.765000 0.718750
0.220000 0.765000 0.718750
0.330000 0.765000 0.718750
0.440000 0.765000 0.718750
0.550000 0.765000 0.718750
0.660000 0.765000 0.718750
0.770000 0.765000 0.718750
0.880000 0.765000 0.718750
0.000000 0.892500 0.718750
0.110000 0.892500 0.718750
0.220000 0.892500 0.718750
0.330000 0.892500 0.718750
0.440000 0.892500 0.718750
0.550000 0.892500 0.718750
0.660000 0.892500 0.718750
0.770000 0.892500 0.718750
0.880000 0.892500 0.718750
0.000000 1.000000 0.718750
0.110000 1.000000 0.718750
0.220000 1.000000 0.718750
0.330000 1.000000 0.718750
0.440000 1.000000 0.718750
0.550000 1.000000 0.718750
0.660000 1.000000 0.718750
0.770000 1.000000 0.718750
0.880000 1.000000 0.718750
0.000000 0.000000 0.862500
0.110000 0.000000 0.862500
0.220000 0.000000 0.862500
0.330000 0.000000 0.862500
0.440000 0.000000 0.862500
0.550000 0.000000 0.862500
0.660000 0.000000 0.862500
0.770000 0.000000 0.862500
0.880000 0.000000 0.862500
0.000000 0.127500 0.862500
0.110000 0.127500 0.862500
0.220000 0.127500 0.862500
0.330000 0.127500 0.862500
0.440000 0.127500 0.862500
0.550000 0.127500 0.862500
0.660000 0.127500 0.862500
0.770000 0.127500 0.862500
0.880000 0.127500 0.862500
0.000000 0.255000 0.862500
0.110000 0.255000 0.862500
0.220000 0.255000 0.862500
0.330000 0.255000 0.862500
0.440000 0.255000 0.862500
0.550000 0.255000 0.862500
0.660000 0.255000 0.862500
0.770000 0.255000 0.862500
0.880000 0.255000 0.862500
0.000000 0.382500 0.862500
0.110000 0.382500 0.862500
0.220000 0.382500 0.862500
0.330000 0.382500 0.862500
0.440000 0.382500 0.862500
0.550000 0.382500 0.862500
0.660000 0.382500 0.862500
0.770000 0.382500 0.862500
0.880000 0.382500 0.862500
0.000000 0.510000 0.862500
0.110000 0.510000 0.862500
0.220000 0.510000 0.862500
0.330000 0.510000 0.862500
0.440000 0.510000 0.862500
0.550000 0.510000 0.862500
0.660000 0.510000 0.862500
0.770000 0.510000 0.862500
0.880000 0.510000 0.862500
0.000000 0.637500 0.862500
0.110000 0.637500 0.862500
0.220000 0.637500 0.862500
0.330000 0.637500 0.862500
0.440000 0.637500 0.862500
0.550000 0.637500 0.862500
0.660000 0.637500 0.862500
0.770000 0.637500 0.862500
0.880000 0.637500 0.862500
0.000000 0.765000 0.862500
0.110000 0.765000 0.862500
0.220000 0.765000 0.862500
0.330000 0.765000 0.862500
0.440000 0.765000 0.862500
0.550000 0.765000 0.862500
0.660000 0.765000 0.862500
0.770000 0.765000 0.862500
0.880000 0.765000 0.862500
0.000000 0.892500 0.862500
0.110000 0.892500 0.862500
0.220000 0.892500 0.862500
0.330000 0.892500 0.862500
0.440000 0.892500 0.862500
0.550000 0.892500 0.862500
0.660000 0.892500 0.862500
0.770000 0.892500 0.862500
0.880000 0.892500 0.862500
0.000000 1.000000 0.862500
0.110000 1.000000 0.862500
0.220000 1.000000 0.862500
0.330000 1.000000 0.862500
0.440000 1.000000 0.862500
0.550000 1.000000 0.862500
0.660000 1.000000 0.862500
0.770000 1.000000 0.862500
0.880000 1.000000 0.862500
0.000000 0.000000 1.000000
0.110000 0.000000 1.000000
0.220000 0.000000 1.000000
0.330000 0.000000 1.000000
0.440000 0.000000 1.000000
0.550000 0.000000 1.000000
0.660000 0.000000 1.000000
0.770000 0.000000 1.000000
0.880000 0.000000 1.000000
0.000000 0.127500 1.000000
0.110000 0.127500 1.000000
0.220000 0.127500 1.000000
0.330000 0.127500 1.000000
0.440000 0.127500 1.000000
0.550000 0.127500 1.000000
0.660000 0.127500 1.000000
0.770000 0.127500 1.000000
0.880000 0.127500 1.000000
0.000000 0.255000 1.000000
0.110000 0.255000 1.000000
0.220000 0.255000 1.000000
0.330000 0.255000 1.000000
0.440000 0.255000 1.000000
0.550000 0.255000 1.000000
0.660000 0.255000 1.000000
0.770000 0.255000 1.000000
0.880000 0.255000 1.000000
0.000000 0.382500 1.000000
0.110000 0.382500 1.000000
0.220000 0.382500 1.000000
0.330000 0.382500 1.000000
0.440000 0.382500 1.000000
0.550000 0.382500 1.000000
0.660000 0.382500 1.000000
0.770000 0.382500 1.000000
0.880000 0.382500 1.000000
0.000000 0.510000 1.000000
0.110000 0.510000 1.000000
0.220000 0.510000 1.000000
0.330000 0.510000 1.000000
0.440000 0.510000 1.000000
0.550000 0.510000 1.000000
0.660000 0.510000 1.000000
0.770000 0.510000 1.000000
0.880000 0.510000 1.000000
0.000000 0.637500 1.000000
0.110000 0.637500 1.000000
0.220000 0.637500 1.000000
0.330000 0.637500 1.000000
0.440000 0.637500 1.000000
0.550000 0.637500 1.000000
0.660000 0.637500 1.000000
0.770000 0.637500 1.000000
0.880000 0.637500 1.000000
0.000000 0.765000 1.000000
0.110000 0.765000 1.000000
0.220000 0.765000 1.000000
0.330000 0.765000 1.000000
0.440000 0.765000 1.000000
0.550000 0.765000 1.000000
0.660000 0.765000 1.000000
0.770000 0.765000 1.000000
0.880000 0.765000 1.000000
0.000000 0.892500 1.000000
0.110000 0.892500 1.000000
0.220000 0.892500 1.000000
0.330000 0.892500 1.000000
0.440000 0.892500 1.000000
0.550000 0.892500 1.000000
0.660000 0.892500 1.000000
0.770000 0.892500 1.000000
0.880000 0.892500 1.000000
0.000000 1.000000 1.000000
0.110000 1.000000 1.000000
0.220000 1.000000 1.000000
0.330000 1.000000 1.000000
0.440000 1.000000 1.000000
0.550000 1.000000 1.000000
0.660000 1.000000 1.000000
0.770000 1.000000 1.000000
0.880000 1.000000 1.000000
0.000000 0.000000 1.000000
0.110000 0.000000 1.000000
0.220000 0.000000 1.000000
0.330000 0.000000 1.000000
0.440000 0.000000 1.000000
0.550000 0.000000 1.000000
0.660000 0.000000 1.000000
0.770000 0.000000 1.000000
0.880000 0.000000 1.000000
0.000000 0.127500 1.000000
0.110000 0.127500 1.000000
0.220000 0.127500 1.000000
0.330000 0.127500 1.000000
0.440000 0.127500 1.000000
0.550000 0.127500 1.000000
0.660000 0.127500 1.000000
0.770000 0.127500 1.000000
0.880000 0.127500 1.000000
0.000000 0.255000 1.000000
0.110000 0.255000 1.000000
0.220000 0.255000 1.000000
0.330000 0.255000 1.000000
0.440000 0.255000 1.000000
0.550000 0.255000 1.000000
0.660000 0.255000 1.000000
0.770000 0.255000 1.000000
0.880000 0.255000 1.000000
0.000000 0.382500 1.000000
0.110000 0.382500 1.000000
0.220000 0.382500 1.000000
0.330000 0.382500 1.000000
0.440000 0.382500 1.000000
0.550000 0.382500 1.000000
0.660000 0.382500 1.000000
0.770000 0.382500 1.000000
0.880000 0.382500 1.000000
0.000000 0.510000 1.000000
0.110000 0.510000 1.000000
0.220000 0.510000 1.000000
0.330000 0.510000 1.000000
0.440000 0.510000 1.000000
0.550000 0.510000 1.000000
0.660000 0.510000 1.000000
0.770000 0.510000 1.000000
0.880000 0.510000 1.000000
0.000000 0.637500 1.000000
0.110000 0.637500 1.000000
0.220000 0.637500 1.000000
0.330000 0.637500 1.000000
0.440000 0.637500 1.000000
0.550000 0.637500 1.000000
0.660000 0.637500 1.000000
0.770000 0.637500 1.000000
0.880000 0.637500 1.000000
0.000000 0.765000 1.000000
0.110000 0.765000 1.000000
0.220000 0.765000 1.000000
0.330000 0.765000 1.000000
0.440000 0.765000 1.000000
0.550000 0.765000 1.000000
0.660000 0.765000 1.000000
0.770000 0.765000 1.000000
0.880000 0.765000 1.000000
0.000000 0.892500 1.000000
0.110000 0.892500 1.000000
0.220000 0.892500 1.000000
0.330000 0.892500 1.000000
0.440000 0.892500 1.000000
0.550000 0.892500 1.000000
0.660000 0.892500 1.000000
0.770000 0.892500 1.000000
0.880000 0.892500 1.000000
0.000000 1.000000 1.000000
0.110000 1.000000 1.000000
0.220000 1.000000 1.000000
0.330000 1.000000 1.000000
0.440000 1.000000 1.000000
0.550000 1.000000 1.000000
0.660000 1.000000 1.000000
0.770000 1.000000 1.000000
0.880000 1.000000 1.000000
