indra/newview/app_settings/luts/cool.cube
TITLE "Cool"
LUT_3D_SIZE 5
0.000000 0.000000 0.000000
0.220000 0.000000 0.000000
0.440000 0.000000 0.000000
0.660000 0.000000 0.000000
0.880000 0.000000 0.000000
0.000000 0.255000 0.000000
0.220000 0.255000 0.000000
0.440000 0.255000 0.000000
0.660000 0.255000 0.000000
0.880000 0.255000 0.000000
0.000000 0.510000 0.000000
0.220000 0.510000 0.000000
0.440000 0.510000 0.000000
0.660000 0.510000 0.000000
0.880000 0.510000 0.000000
0.000000 0.765000 0.000000
0.220000 0.765000 0.000000
0.440000 0.765000 0.000000
0.660000 0.765000 0.000000
0.880000 0.765000 0.000000
0.000000 1.000000 0.000000
0.220000 1.000000 0.000000
0.440000 1.000000 0.000000
0.660000 1.000000 0.000000
0.880000 1.000000 0.000000
0.000000 0.000000 0.287500
0.220000 0.000000 0.287500
0.440000 0.000000 0.287500
0.660000 0.000000 0.287500
0.880000 0.000000 0.287500
0.000000 0.255000 0.287500
0.220000 0.255000 0.287500
0.440000 0.255000 0.287500
0.660000 0.255000 0.287500
0.880000 0.255000 0.287500
0.000000 0.510000 0.287500
0.220000 0.510000 0.287500
0.440000 0.510000 0.287500
0.660000 0.510000 0.287500
0.880000 0.510000 0.287500
0.000000 0.765000 0.287500
0.220000 0.765000 0.287500
0.440000 0.765000 0.287500
0.660000 0.765000 0.287500
0.880000 0.765000 0.287500
0.000000 1.000000 0.287500
0.220000 1.000000 0.287500
0.440000 1.000000 0.287500
0.660000 1.000000 0.287500
0.880000 1.000000 0.287500
0.000000 0.000000 0.575000
0.220000 0.000000 0.575000
0.440000 0.000000 0.575000
0.660000 0.000000 0.575000
0.880000 0.000000 0.575000
0.000000 0.255000 0.575000
0.220000 0.255000 0.575000
0.440000 0.255000 0.575000
0.660000 0.255000 0.575000
0.880000 0.255000 0.575000
0.000000 0.510000 0.575000
0.220000 0.510000 0.575000
0.440000 0.510000 0.575000
0.660000 0.510000 0.575000
0.880000 0.510000 0.575000
0.000000 0.765000 0.575000
0.220000 0.765000 0.575000
0.440000 0.765000 0.575000
0.660000 0.765000 0.575000
0.880000 0.765000 0.575000
0.000000 1.000000 0.575000
0.220000 1.000000 0.575000
0.440000 1.000000 0.575000
0.660000 1.000000 0.575000
0.880000 1.000000 0.575000
0.000000 0.000000 0.862500
0.220000 0.000000 0.862500
0.440000 0.000000 0.862500
0.660000 0.000000 0.862500
0.880000 0.000000 0.862500
0.000000 0.255000 0.862500
0.220000 0.255000 0.862500
0.440000 0.255000 0.862500
0.660000 0.255000 0.862500
0.880000 0.255000 0.862500
0.000000 0.510000 0.862500
0.220000 0.510000 0.862500
0.440000 0.510000 0.862500
0.660000 0.510000 0.862500
0.880000 0.510000 0.862500
0.000000 0.765000 0.862500
0.220000 0.765000 0.862500
0.440000 0.765000 0.862500
0.660000 0.765000 0.862500
0.880000 0.765000 0.862500
0.000000 1.000000 0.862500
0.220000 1.000000 0.862500
0.440000 1.000000 0.862500
0.660000 1.000000 0.862500
0.880000 1.000000 0.862500
0.000000 0.000000 1.000000
0.220000 0.000000 1.000000
0.440000 0.000000 1.000000
0.660000 0.000000 1.000000
0.880000 0.000000 1.000000
0.000000 0.255000 1.000000
0.220000 0.255000 1.000000
0.440000 0.255000 1.000000
0.660000 0.255000 1.000000
0.880000 0.255000 1.000000
0.000000 0.510000 1.000000
0.220000 0.510000 1.000000
0.440000 0.510000 1.000000
0.660000 0.510000 1.000000
0.880000 0.510000 1.000000
0.000000 0.765000 1.000000
0.220000 0.765000 1.000000
0.440000 0.765000 1.000000
0.660000 0.765000 1.000000
0.880000 0.765000 1.000000
0.000000 1.000000 1.000000
0.220000 1.000000 1.000000
0.440000 1.000000 1.000000
0.660000 1.000000 1.000000
0.880000 1.000000 1.000000
