indra/newview/app_settings/luts/film_noir.cube
TITLE "Film Noir"
LUT_3D_SIZE 9
0.000000 0.000000 0.000000
0.001686 0.001084 0.001138
0.006746 0.004334 0.004551
0.015178 0.009752 0.010239
0.026983 0.017337 0.018203
0.042161 0.027088 0.028443
0.060711 0.039007 0.040958
0.082635 0.053093 0.055748
0.107931 0.069346 0.072814
0.012262 0.014133 0.012875
0.023044 0.023044 0.021668
0.037198 0.034121 0.032736
0.054725 0.047365 0.046079
0.075625 0.062777 0.061697
0.099897 0.080355 0.079591
0.127543 0.100101 0.099761
0.158561 0.122013 0.122206
0.192953 0.146093 0.146926
0.049049 0.056534 0.051502
0.068925 0.073271 0.067949
0.092174 0.092174 0.086671
0.118796 0.113245 0.107669
0.148791 0.136483 0.130942
0.182159 0.161889 0.156491
0.218899 0.189461 0.184315
0.259013 0.219200 0.214415
0.302499 0.251106 0.246790
0.110361 0.127201 0.115879
0.139332 0.151764 0.139980
0.171676 0.178495 0.166357
0.207393 0.207393 0.195010
0.246482 0.238457 0.225938
0.288945 0.271689 0.259141
0.334780 0.307088 0.294620
0.383989 0.344654 0.332374
0.586414 0.384387 0.372404
0.196196 0.226135 0.206006
0.234263 0.258525 0.237763
0.275702 0.293082 0.271794
0.320513 0.329807 0.308102
0.368698 0.368698 0.346684
0.420255 0.409756 0.387542
0.622386 0.602090 0.430676
0.671170 0.642534 0.632619
0.716581 0.680812 0.675064
0.306557 0.353336 0.321885
0.353718 0.393553 0.361296
0.404252 0.585798 0.402982
0.606913 0.627084 0.604444
0.656721 0.666203 0.648335
0.703156 0.703156 0.689952
0.746218 0.737941 0.729293
0.785907 0.770559 0.766358
0.822223 0.801010 0.801148
0.591130 0.651268 0.620686
0.641961 0.689062 0.663750
0.689420 0.724689 0.704538
0.733505 0.758148 0.743050
0.774218 0.789441 0.779288
0.811558 0.818567 0.813249
0.845525 0.845525 0.844936
0.876119 0.870317 0.874346
0.903341 0.892941 0.901482
0.720482 0.777545 0.756506
0.762219 0.807512 0.791915
0.800582 0.835312 0.825049
0.835573 0.860946 0.855906
0.867191 0.884412 0.884489
0.895436 0.905711 0.910796
0.920308 0.924842 0.934828
0.941807 0.941807 0.956584
0.959934 0.956605 0.976065
0.825310 0.875555 0.866576
0.857952 0.897696 0.894330
0.887220 0.917670 0.919808
0.913116 0.935476 0.943012
0.935639 0.951115 0.963939
0.954789 0.964588 0.982592
0.970566 0.975893 0.998969
0.982971 0.985031 1.000000
0.992002 0.992002 1.000000
0.000125 0.000125 0.000392
0.002730 0.001944 0.002866
0.008707 0.005931 0.007615
0.018057 0.012085 0.014640
0.030780 0.020405 0.023940
0.046876 0.030893 0.035515
0.066345 0.043548 0.049366
0.089187 0.058370 0.065492
0.115401 0.075359 0.083894
0.014863 0.016916 0.017762
0.026562 0.026562 0.027891
0.041635 0.038376 0.040294
0.060080 0.052356 0.054974
0.081898 0.068503 0.071928
0.107089 0.086818 0.091159
0.135653 0.107299 0.112664
0.167589 0.129948 0.136445
0.202899 0.154763 0.162501
0.054126 0.061975 0.060883
0.074920 0.079447 0.078666
0.099087 0.099087 0.098725
0.126627 0.120894 0.121058
0.157540 0.144868 0.145668
0.191826 0.171009 0.172553
0.229485 0.199317 0.201713
0.270516 0.229792 0.233148
0.314921 0.262435 0.266860
0.117913 0.135300 0.129754
0.147802 0.160599 0.155192
0.181064 0.188066 0.182905
0.217699 0.217699 0.212894
0.257707 0.249500 0.245158
0.301088 0.283468 0.279697
0.347841 0.319602 0.316512
0.397968 0.357904 0.355603
0.600668 0.398373 0.396968
0.206225 0.236892 0.224377
0.245209 0.270018 0.257469
0.287566 0.305311 0.292837
0.333296 0.342771 0.330480
0.382399 0.382399 0.370399
0.584761 0.424193 0.412593
0.636000 0.616068 0.614433
0.683866 0.655777 0.657817
0.728359 0.693319 0.698926
0.319061 0.366751 0.344750
0.367140 0.407704 0.385497
0.418592 0.600062 0.428519
0.620806 0.640612 0.630491
0.669695 0.678996 0.673047
0.715212 0.715212 0.713327
0.757356 0.749261 0.751332
0.796127 0.781143 0.787062
0.831525 0.810858 0.820516
0.605301 0.664346 0.646248
0.655214 0.701404 0.687975
0.701755 0.736295 0.727427
0.744922 0.769018 0.764603
0.784717 0.799575 0.799505
0.821138 0.827965 0.832130
0.854187 0.854187 0.862480
0.883864 0.878243 0.890555
0.910167 0.900131 0.916355
0.732178 0.787965 0.777573
0.772996 0.817196 0.811646
0.810441 0.844261 0.843443
0.844514 0.869158 0.872965
0.875214 0.891888 0.900211
0.902540 0.912451 0.925182
0.926495 0.930847 0.947878
0.947076 0.947076 0.968298
0.964284 0.961137 0.986443
0.834530 0.883317 0.883148
0.866253 0.904722 0.909566
0.894604 0.923960 0.933708
0.919581 0.941030 0.955576
0.941186 0.955934 0.975167
0.959418 0.968670 0.992484
0.974277 0.979239 1.000000
0.985763 0.987642 1.000000
0.993877 0.993877 1.000000
0.000500 0.000500 0.001569
0.004023 0.003055 0.005379
0.010918 0.007778 0.011464
0.021187 0.014667 0.019825
0.034828 0.023724 0.030461
0.051842 0.034948 0.043372
0.072229 0.048338 0.058559
0.095989 0.063896 0.076022
0.123121 0.081621 0.095759
0.017714 0.019949 0.023433
0.030331 0.030331 0.034898
0.046322 0.042880 0.048638
0.065685 0.057597 0.064653
0.088421 0.074480 0.082944
0.114530 0.093530 0.103510
0.144012 0.114748 0.126352
0.176867 0.138132 0.151469
0.213094 0.163684 0.178861
0.059452 0.067666 0.071049
0.081165 0.085874 0.090168
0.106250 0.106250 0.111562
0.134708 0.128793 0.135232
0.166539 0.153503 0.161178
0.201743 0.180380 0.189399
0.240320 0.209424 0.219895
0.282270 0.240635 0.252667
0.327592 0.274013 0.287714
0.125715 0.143649 0.144415
0.156522 0.169684 0.171189
0.190703 0.197886 0.200238
0.228256 0.228256 0.231563
0.269182 0.260792 0.265163
0.313481 0.295496 0.301038
0.361152 0.332367 0.339189
0.412197 0.371405 0.379615
0.614671 0.412609 0.422317
0.216503 0.247899 0.243532
0.256405 0.281761 0.277960
0.299680 0.317790 0.314664
0.346328 0.355986 0.353643
0.396349 0.396349 0.394898
0.599043 0.588656 0.438428
0.649364 0.629796 0.640183
0.696311 0.668769 0.682231
0.739886 0.705575 0.722004
0.331815 0.380416 0.368399
0.380812 0.422104 0.410483
0.583104 0.614076 0.612259
0.634448 0.653890 0.655754
0.682420 0.691538 0.696974
0.727018 0.727018 0.735918
0.768244 0.760331 0.772587
0.806097 0.791478 0.806981
0.840577 0.820457 0.839099
0.619222 0.677174 0.671024
0.668217 0.713496 0.711416
0.713840 0.747651 0.749532
0.756089 0.779639 0.785372
0.794965 0.809459 0.818937
0.830469 0.837113 0.850227
0.862600 0.862600 0.879241
0.891358 0.885919 0.905980
0.916743 0.907072 0.930443
0.743623 0.798135 0.797855
0.783523 0.826631 0.830592
0.820051 0.852959 0.861053
0.853205 0.877120 0.889239
0.882987 0.899114 0.915149
0.909395 0.918941 0.938784
0.932431 0.936601 0.960144
0.952094 0.952094 0.979228
0.968384 0.965420 0.996037
0.843499 0.890830 0.898935
0.874305 0.911498 0.924017
0.901737 0.930000 0.946824
0.925796 0.946334 0.967355
0.946483 0.960502 0.985611
0.963797 0.972502 1.000000
0.977738 0.982336 1.000000
0.988306 0.990002 1.000000
0.995501 0.995501 1.000000
0.001125 0.001125 0.003530
0.005566 0.004416 0.008676
0.013379 0.009875 0.016097
0.024566 0.017500 0.025794
0.039125 0.027293 0.037766
0.057057 0.039252 0.052014
0.078362 0.053379 0.068537
0.103040 0.069673 0.087335
0.131091 0.088134 0.108409
0.020814 0.023232 0.029889
0.034350 0.034350 0.042690
0.051259 0.047635 0.057766
0.071540 0.063087 0.075117
0.095194 0.080707 0.094744
0.122222 0.100493 0.116646
0.152622 0.122446 0.140824
0.186394 0.146567 0.167277
0.223540 0.172854 0.196005
0.065028 0.073606 0.081999
0.087659 0.092551 0.102454
0.113663 0.113663 0.125185
0.143039 0.136941 0.150191
0.175788 0.162387 0.177472
0.211910 0.190000 0.207029
0.251405 0.219780 0.238862
0.294273 0.251727 0.272969
0.340514 0.285841 0.309353
0.133767 0.152247 0.159860
0.165493 0.179019 0.187970
0.200591 0.207957 0.218355
0.239062 0.239062 0.251016
0.280907 0.272335 0.285952
0.326124 0.307775 0.323163
0.374713 0.345381 0.362650
0.576673 0.385155 0.404413
0.628425 0.577091 0.605945
0.227030 0.259155 0.263471
0.267851 0.293753 0.299236
0.312044 0.330518 0.337276
0.359611 0.369450 0.377591
0.410550 0.410550 0.420182
0.613075 0.602871 0.622160
0.662477 0.643275 0.665148
0.708507 0.681512 0.705860
0.751164 0.717581 0.744296
0.344818 0.394330 0.392833
0.394734 0.586595 0.436253
0.597415 0.627840 0.638074
0.647841 0.666919 0.680233
0.694894 0.703830 0.720117
0.738575 0.738575 0.757725
0.778882 0.771152 0.793058
0.815817 0.801562 0.826115
0.849379 0.829805 0.856897
0.632894 0.689752 0.695017
0.680971 0.725338 0.734072
0.725675 0.758757 0.770852
0.767006 0.790009 0.805356
0.804964 0.819094 0.837585
0.839550 0.846012 0.867539
0.870762 0.870762 0.895217
0.898602 0.893346 0.920619
0.923069 0.913762 0.943747
0.754819 0.808055 0.817353
0.793801 0.835815 0.848753
0.829410 0.861407 0.877879
0.861646 0.884832 0.904728
0.890509 0.906091 0.929303
0.916000 0.925182 0.951602
0.938118 0.942106 0.971625
0.956863 0.956863 0.989373
0.972235 0.969453 1.000000
0.852219 0.898092 0.913938
0.882106 0.918025 0.937684
0.908620 0.935790 0.959155
0.931762 0.951389 0.978350
0.951530 0.964820 0.995270
0.967926 0.976085 1.000000
0.980949 0.985182 1.000000
0.990599 0.992113 1.000000
0.996876 0.996876 1.000000
0.001999 0.001999 0.006276
0.007358 0.006027 0.012758
0.016090 0.012221 0.021515
0.028195 0.020583 0.032548
0.043672 0.031111 0.045856
0.062523 0.043807 0.061440
0.084746 0.058669 0.079299
0.110342 0.075699 0.099433
0.139311 0.094896 0.121843
0.024165 0.026765 0.037130
0.038619 0.038619 0.051266
0.056445 0.052640 0.067678
0.077645 0.068828 0.086366
0.102218 0.087183 0.107328
0.130163 0.107705 0.130567
0.161481 0.130395 0.156080
0.196172 0.155251 0.183869
0.234236 0.182274 0.213934
0.070855 0.079797 0.093734
0.094404 0.099478 0.115525
0.121325 0.121325 0.139592
0.151620 0.145340 0.165934
0.185287 0.171522 0.194551
0.222327 0.199871 0.225444
0.262740 0.230387 0.258613
0.306526 0.263070 0.294057
0.353685 0.297920 0.331776
0.142069 0.161096 0.176089
0.174713 0.188603 0.205535
0.210730 0.218278 0.237256
0.250119 0.250119 0.271253
0.292881 0.284127 0.307525
0.339016 0.320303 0.346073
0.388524 0.358646 0.386896
0.591095 0.399155 0.429994
0.641928 0.591505 0.631948
0.237808 0.270662 0.284195
0.279547 0.305996 0.321296
0.324658 0.343497 0.360672
0.373143 0.383165 0.402323
0.575000 0.575000 0.603750
0.626857 0.616835 0.647677
0.675342 0.656503 0.689328
0.720453 0.694004 0.728704
0.762192 0.729338 0.765805
0.358072 0.408495 0.418052
0.408905 0.600845 0.620006
0.611476 0.641354 0.663104
0.660984 0.679697 0.703927
0.707119 0.715873 0.742475
0.749881 0.749881 0.778747
0.789270 0.781722 0.812744
0.825287 0.811397 0.844465
0.857931 0.838904 0.873911
0.646315 0.702080 0.718224
0.693474 0.736930 0.755943
0.737260 0.769613 0.791387
0.777673 0.800129 0.824556
0.814713 0.828478 0.855449
0.848380 0.854660 0.884066
0.878675 0.878675 0.910408
0.905596 0.900522 0.934475
0.929145 0.920203 0.956266
0.765764 0.817726 0.836066
0.803828 0.844749 0.866131
0.838519 0.869605 0.893920
0.869837 0.892295 0.919433
0.897782 0.912817 0.942672
0.922355 0.931172 0.963634
0.943555 0.947360 0.982322
0.961381 0.961381 0.998734
0.975835 0.973235 1.000000
0.860689 0.905104 0.928157
0.889658 0.924301 0.950567
0.915254 0.941331 0.970701
0.937477 0.956193 0.988560
0.956328 0.968889 1.000000
0.971805 0.979417 1.000000
0.983910 0.987779 1.000000
0.992642 0.993973 1.000000
0.998001 0.998001 1.000000
0.003124 0.003124 0.009806
0.009401 0.007887 0.017624
0.019051 0.014818 0.027717
0.032074 0.023915 0.040086
0.048470 0.035180 0.054730
0.068238 0.048611 0.071650
0.091380 0.064210 0.090845
0.117894 0.081975 0.112316
0.147781 0.101908 0.136062
0.027765 0.030547 0.045154
0.043137 0.043137 0.060627
0.061882 0.057894 0.078375
0.084000 0.074818 0.098398
0.109491 0.093909 0.120697
0.138354 0.115168 0.145272
0.170590 0.138593 0.172121
0.206199 0.164185 0.201247
0.245181 0.191945 0.232647
0.076931 0.086238 0.106253
0.101398 0.106654 0.129381
0.129238 0.129238 0.154783
0.160450 0.153988 0.182461
0.195036 0.180906 0.212415
0.232994 0.209991 0.244644
0.274325 0.241243 0.279148
0.319029 0.274662 0.315928
0.367106 0.310248 0.354983
0.150621 0.170195 0.193103
0.184183 0.198438 0.223885
0.221118 0.228848 0.256942
0.261425 0.261425 0.292275
0.305106 0.296170 0.329883
0.352159 0.333081 0.369767
0.402585 0.372160 0.411926
0.605266 0.413405 0.613747
0.655182 0.605670 0.657167
0.248836 0.282419 0.305704
0.291493 0.318488 0.344140
0.337523 0.356725 0.384852
0.386925 0.397129 0.427840
0.589450 0.589450 0.629818
0.640389 0.630550 0.672409
0.687956 0.669482 0.712724
0.732149 0.706247 0.750764
0.772970 0.740845 0.786529
0.371575 0.422909 0.444055
0.423327 0.614845 0.645587
0.625287 0.654619 0.687350
0.673876 0.692225 0.726837
0.719093 0.727665 0.764048
0.760937 0.760937 0.798984
0.799409 0.792043 0.831645
0.834507 0.820981 0.862030
0.866233 0.847753 0.890140
0.659486 0.714159 0.740647
0.705727 0.748273 0.777031
0.748595 0.780220 0.811138
0.788090 0.810000 0.842971
0.824212 0.837613 0.872528
0.856961 0.863059 0.899809
0.886337 0.886337 0.924815
0.912341 0.907449 0.947546
0.934972 0.926394 0.968001
0.776460 0.827146 0.853995
0.813606 0.853433 0.882723
0.847378 0.877554 0.909176
0.877778 0.899507 0.933354
0.904806 0.919293 0.955256
0.928460 0.936913 0.974883
0.948741 0.952365 0.992234
0.965650 0.965650 1.000000
0.979186 0.976768 1.000000
0.868909 0.911866 0.941591
0.896960 0.930327 0.962665
0.921638 0.946621 0.981463
0.942943 0.960748 0.997986
0.960875 0.972707 1.000000
0.975434 0.982500 1.000000
0.986621 0.990125 1.000000
0.994434 0.995584 1.000000
0.998875 0.998875 1.000000
0.004499 0.004499 0.014121
0.011694 0.009998 0.023275
0.022262 0.017664 0.034704
0.036203 0.027498 0.048409
0.053517 0.039498 0.064389
0.074204 0.053666 0.082645
0.098263 0.070000 0.103176
0.125695 0.088502 0.125983
0.156501 0.109170 0.151065
0.031616 0.034580 0.053963
0.047906 0.047906 0.070772
0.067569 0.063399 0.089856
0.090605 0.081059 0.111216
0.117013 0.100886 0.134851
0.146795 0.122880 0.160761
0.179949 0.147041 0.188947
0.216477 0.173369 0.219408
0.256377 0.201865 0.252145
0.083257 0.092928 0.119557
0.108642 0.114081 0.144020
0.137400 0.137400 0.170759
0.169531 0.162887 0.199773
0.205035 0.190541 0.231063
0.243911 0.220361 0.264628
0.286160 0.252349 0.300468
0.331783 0.286504 0.338584
0.380778 0.322826 0.378976
0.159423 0.179543 0.210901
0.193903 0.208522 0.243019
0.231756 0.239669 0.277413
0.272982 0.272982 0.314082
0.317580 0.308462 0.353026
0.365552 0.346110 0.394246
0.416896 0.385924 0.437741
0.619188 0.577896 0.639517
0.668185 0.619584 0.681601
0.260114 0.294425 0.327996
0.303689 0.331231 0.367769
0.350636 0.370204 0.409817
0.400957 0.411344 0.611572
0.603651 0.603651 0.655102
0.653672 0.644014 0.696357
0.700320 0.682210 0.735336
0.743595 0.718239 0.772040
0.783497 0.752101 0.806468
0.385329 0.587391 0.627683
0.587803 0.628595 0.670385
0.638848 0.667633 0.710811
0.686519 0.704504 0.748962
0.730818 0.739208 0.784837
0.771744 0.771744 0.818437
0.809297 0.802114 0.849762
0.843478 0.830316 0.878811
0.874285 0.856351 0.905585
0.672408 0.725987 0.762286
0.717730 0.759365 0.797333
0.759680 0.790576 0.830105
0.798257 0.819620 0.860601
0.833461 0.846497 0.888822
0.865292 0.871207 0.914768
0.893750 0.893750 0.938437
0.918835 0.914126 0.959832
0.940548 0.932334 0.978951
0.786906 0.836316 0.871139
0.823133 0.861868 0.898531
0.855988 0.885252 0.923648
0.885470 0.906470 0.946490
0.911579 0.925520 0.967056
0.934315 0.942403 0.985347
0.953678 0.957120 1.000000
0.969669 0.969669 1.000000
0.982286 0.980051 1.000000
0.876879 0.918379 0.954241
0.904011 0.936104 0.973978
0.927771 0.951662 0.991441
0.948158 0.965052 1.000000
0.965172 0.976276 1.000000
0.978813 0.985333 1.000000
0.989082 0.992222 1.000000
0.995977 0.996945 1.000000
0.999500 0.999500 1.000000
0.006123 0.006123 0.019220
0.014237 0.012358 0.029710
0.025723 0.020761 0.042475
0.040582 0.031330 0.057516
0.058814 0.044066 0.074833
0.080419 0.058970 0.094424
0.105396 0.076040 0.116292
0.133747 0.095278 0.140434
0.165470 0.116683 0.166852
0.035716 0.038863 0.063557
0.052924 0.052924 0.081702
0.073505 0.069153 0.102122
0.097460 0.087549 0.124818
0.124786 0.108112 0.149789
0.155486 0.130842 0.177035
0.189559 0.155739 0.206557
0.227004 0.182804 0.238354
0.267822 0.212035 0.272427
0.089833 0.099869 0.133645
0.116136 0.121757 0.159445
0.145813 0.145813 0.187520
0.178862 0.172035 0.217870
0.215283 0.200425 0.250495
0.255078 0.230982 0.285397
0.298245 0.263705 0.322573
0.344786 0.298596 0.362025
0.394699 0.335654 0.403752
0.168475 0.189142 0.229484
0.203873 0.218857 0.262938
0.242644 0.250739 0.298668
0.284788 0.284788 0.336673
0.330305 0.321004 0.376953
0.379194 0.359388 0.419509
0.581408 0.399938 0.621481
0.632860 0.592296 0.664503
0.680939 0.633249 0.705250
0.271641 0.306681 0.351074
0.316134 0.344223 0.392183
0.364000 0.383932 0.435567
0.415239 0.575807 0.637407
0.617601 0.617601 0.679601
0.666704 0.657229 0.719520
0.712434 0.694689 0.757163
0.754791 0.729982 0.792531
0.793775 0.763108 0.825623
0.399332 0.601627 0.653032
0.602032 0.642096 0.694397
0.652159 0.680398 0.733488
0.698912 0.716532 0.770303
0.742293 0.750500 0.804842
0.782301 0.782301 0.837106
0.818936 0.811934 0.867095
0.852198 0.839401 0.894808
0.882087 0.864700 0.920246
0.685079 0.737565 0.783140
0.729484 0.770208 0.816852
0.770515 0.800683 0.848287
0.808174 0.828991 0.877447
0.842460 0.855132 0.904332
0.873373 0.879106 0.928942
0.900913 0.900913 0.951275
0.925080 0.920553 0.971334
0.945874 0.938025 0.989117
0.797101 0.845237 0.887499
0.832411 0.870052 0.913555
0.864347 0.892701 0.937336
0.892911 0.913182 0.958841
0.918102 0.931497 0.978072
0.939920 0.947644 0.995026
0.958365 0.961624 1.000000
0.973437 0.973437 1.000000
0.985137 0.983084 1.000000
0.884599 0.924641 0.966106
0.910813 0.941630 0.984508
0.933655 0.956452 1.000000
0.953124 0.969107 1.000000
0.969220 0.979595 1.000000
0.981943 0.987915 1.000000
0.991293 0.994069 1.000000
0.997270 0.998056 1.000000
0.999875 0.999875 1.000000
0.007998 0.007998 0.025104
0.017029 0.014969 0.036930
0.029434 0.024107 0.051031
0.045211 0.035412 0.067408
0.064361 0.048885 0.086061
0.086884 0.064524 0.106988
0.112780 0.082330 0.130192
0.142048 0.102304 0.155670
0.174690 0.124445 0.183424
0.040066 0.043395 0.073935
0.058193 0.058193 0.093416
0.079692 0.075158 0.115172
0.104564 0.094289 0.139204
0.132809 0.115588 0.165511
0.164427 0.139054 0.194094
0.199418 0.164688 0.224951
0.237781 0.192488 0.258085
0.279518 0.222455 0.293494
0.096659 0.107059 0.148518
0.123881 0.129683 0.175654
0.154475 0.154475 0.205064
0.188442 0.181433 0.236751
0.225782 0.210559 0.270712
0.266495 0.241852 0.306950
0.310580 0.275311 0.345462
0.358039 0.310938 0.386250
0.408870 0.348732 0.429314
0.177777 0.198990 0.248852
0.214093 0.229441 0.283642
0.253782 0.262059 0.320707
0.296844 0.296844 0.360048
0.343279 0.333797 0.401665
0.393087 0.372916 0.445556
0.595748 0.414202 0.647018
0.646282 0.606447 0.688704
0.693443 0.646664 0.728115
0.283419 0.319188 0.374936
0.328830 0.357466 0.417381
0.377614 0.397910 0.619324
0.579745 0.590244 0.662458
0.631302 0.631302 0.703316
0.679487 0.670193 0.741898
0.724298 0.706918 0.778206
0.765737 0.741475 0.812237
0.803804 0.773865 0.843994
0.413586 0.615613 0.677596
0.616011 0.655346 0.717626
0.665220 0.692912 0.755380
0.711055 0.728311 0.790859
0.753518 0.761543 0.824062
0.792607 0.792607 0.854990
0.828324 0.821505 0.883643
0.860668 0.848236 0.910020
0.889639 0.872799 0.934121
0.697501 0.748894 0.803210
0.740987 0.780800 0.835585
0.781101 0.810539 0.865685
0.817841 0.838111 0.893509
0.851209 0.863517 0.919058
0.881204 0.886755 0.942331
0.907826 0.907826 0.963329
0.931075 0.926729 0.982051
0.950951 0.943466 0.998498
0.807047 0.853907 0.903074
0.841439 0.877987 0.927794
0.872457 0.899899 0.950239
0.900103 0.919645 0.970409
0.924375 0.937223 0.988303
0.945275 0.952635 1.000000
0.962802 0.965879 1.000000
0.976956 0.976956 1.000000
0.987738 0.985867 1.000000
0.892069 0.930654 0.977186
0.917365 0.946907 0.994252
0.939289 0.960993 1.000000
0.957839 0.972912 1.000000
0.973017 0.982663 1.000000
0.984822 0.990248 1.000000
0.993254 0.995666 1.000000
0.998314 0.998916 1.000000
1.000000 1.000000 1.000000
