indra/newview/app_settings/luts/film_noir.cube
TITLE "Film Noir"
LUT_3D_SIZE 33
0.000000 0.000000 0.000000
0.000105 0.000068 0.000071
0.000422 0.000271 0.000284
0.000949 0.000609 0.000640
0.001686 0.001084 0.001138
0.002635 0.001693 0.001778
0.003794 0.002438 0.002560
0.005165 0.003318 0.003484
0.006746 0.004334 0.004551
0.008538 0.005485 0.005760
0.010540 0.006772 0.007111
0.012754 0.008194 0.008604
0.015178 0.009752 0.010239
0.017813 0.011445 0.012017
0.020659 0.013273 0.013937
0.023715 0.015237 0.015999
0.026983 0.017337 0.018203
0.030461 0.019571 0.020550
0.034150 0.021942 0.023039
0.038050 0.024447 0.025670
0.042161 0.027088 0.028443
0.046482 0.029865 0.031358
0.051014 0.032777 0.034416
0.055757 0.035824 0.037616
0.060711 0.039007 0.040958
0.065876 0.042326 0.044442
0.071251 0.045779 0.048068
0.076838 0.049369 0.051837
0.082635 0.053093 0.055748
0.088643 0.056953 0.059801
0.094861 0.060949 0.063996
0.101291 0.065080 0.068334
0.107931 0.069346 0.072814
0.000766 0.000883 0.000805
0.001440 0.001440 0.001354
0.002325 0.002133 0.002046
0.003420 0.002960 0.002880
0.004727 0.003924 0.003856
0.006244 0.005022 0.004974
0.007971 0.006256 0.006235
0.009910 0.007626 0.007638
0.012060 0.009131 0.009183
0.014420 0.010771 0.010870
0.016991 0.012547 0.012700
0.019773 0.014458 0.014671
0.022765 0.016505 0.016785
0.025969 0.018687 0.019041
0.029383 0.021005 0.021440
0.033008 0.023458 0.023980
0.036844 0.026047 0.026663
0.040891 0.028770 0.029488
0.045148 0.031630 0.032455
0.049617 0.034625 0.035564
0.054296 0.037755 0.038816
0.059186 0.041021 0.042210
0.064286 0.044422 0.045746
0.069598 0.047958 0.049424
0.075120 0.051631 0.053244
0.080853 0.055438 0.057207
0.086797 0.059381 0.061312
0.092952 0.063459 0.065559
0.099317 0.067673 0.069948
0.105894 0.072022 0.074480
0.112681 0.076507 0.079153
0.119679 0.081127 0.083969
0.126887 0.085883 0.088928
0.003066 0.003533 0.003219
0.004308 0.004579 0.004247
0.005761 0.005761 0.005417
0.007425 0.007078 0.006729
0.009299 0.008530 0.008184
0.011385 0.010118 0.009781
0.013681 0.011841 0.011520
0.016188 0.013700 0.013401
0.018906 0.015694 0.015424
0.021835 0.017824 0.017590
0.024974 0.020089 0.019898
0.028325 0.022489 0.022348
0.031886 0.025025 0.024940
0.035658 0.027696 0.027675
0.039640 0.030503 0.030551
0.043834 0.033446 0.033570
0.048238 0.036523 0.036732
0.052853 0.039736 0.040035
0.057679 0.043085 0.043480
0.062716 0.046569 0.047068
0.067963 0.050188 0.050798
0.073422 0.053943 0.054671
0.079091 0.057834 0.058685
0.084971 0.061859 0.062842
0.091062 0.066021 0.067140
0.097363 0.070317 0.071582
0.103875 0.074749 0.076165
0.110599 0.079317 0.080890
0.117533 0.084020 0.085758
0.124677 0.088858 0.090768
0.132033 0.093832 0.095920
0.139599 0.098941 0.101214
0.147376 0.104186 0.106651
0.006898 0.007950 0.007242
0.008708 0.009485 0.008749
0.010730 0.011156 0.010397
0.012962 0.012962 0.012188
0.015405 0.014904 0.014121
0.018059 0.016981 0.016196
0.020924 0.019193 0.018414
0.023999 0.021541 0.020773
0.027286 0.024024 0.023275
0.030783 0.026643 0.025919
0.034491 0.029397 0.028706
0.038409 0.032287 0.031634
0.042539 0.035312 0.034705
0.046879 0.038472 0.037918
0.051430 0.041768 0.041273
0.056192 0.045200 0.044770
0.061165 0.048767 0.048410
0.066349 0.052469 0.052192
0.071743 0.056307 0.056116
0.077348 0.060280 0.060182
0.083164 0.064388 0.064390
0.089191 0.068632 0.068741
0.095428 0.073012 0.073234
0.101877 0.077527 0.077869
0.108536 0.082177 0.082646
0.115406 0.086963 0.087565
0.122487 0.091884 0.092627
0.129778 0.096941 0.097831
0.137281 0.102133 0.103177
0.144994 0.107461 0.108666
0.152918 0.112924 0.114296
0.161053 0.118522 0.120069
0.169398 0.124256 0.125984
0.012262 0.014133 0.012875
0.014641 0.016158 0.014860
0.017231 0.018318 0.016987
0.020032 0.020613 0.019256
0.023044 0.023044 0.021668
0.026266 0.025610 0.024221
0.029699 0.028311 0.026917
0.033343 0.031148 0.029755
0.037198 0.034121 0.032736
0.041263 0.037229 0.035858
0.045540 0.040472 0.039123
0.050027 0.043851 0.042530
0.054725 0.047365 0.046079
0.059634 0.051015 0.049770
0.064753 0.054800 0.053604
0.070084 0.058721 0.057579
0.075625 0.062777 0.061697
0.081377 0.066968 0.065958
0.087339 0.071295 0.070360
0.093513 0.075757 0.074905
0.099897 0.080355 0.079591
0.106493 0.085088 0.084421
0.113299 0.089957 0.089392
0.120315 0.094961 0.094505
0.127543 0.100101 0.099761
0.134981 0.105376 0.105159
0.142631 0.110786 0.110699
0.150491 0.116332 0.116381
0.158561 0.122013 0.122206
0.166843 0.127830 0.128173
0.175335 0.133782 0.134282
0.184039 0.139870 0.140533
0.192953 0.146093 0.146926
0.019160 0.022084 0.020118
0.022107 0.024597 0.022581
0.025266 0.027246 0.025186
0.028635 0.030030 0.027934
0.032215 0.032950 0.030824
0.036006 0.036006 0.033856
0.040007 0.039196 0.037030
0.044220 0.042523 0.040347
0.048643 0.045984 0.043805
0.053277 0.049581 0.047406
0.058122 0.053314 0.051149
0.063177 0.057182 0.055035
0.068444 0.061185 0.059062
0.073921 0.065324 0.063232
0.079609 0.069598 0.067544
0.085508 0.074008 0.071998
0.091617 0.078553 0.076595
0.097938 0.083234 0.081333
0.104469 0.088050 0.086214
0.111211 0.093001 0.091237
0.118164 0.098088 0.096402
0.125327 0.103311 0.101710
0.132702 0.108669 0.107159
0.140287 0.114162 0.112751
0.148083 0.119791 0.118485
0.156090 0.125555 0.124362
0.164307 0.131454 0.130380
0.172736 0.137489 0.136541
0.181375 0.143660 0.142844
0.190225 0.149966 0.149289
0.199286 0.156407 0.155877
0.208558 0.162984 0.162606
0.218040 0.169696 0.169478
0.027590 0.031800 0.028970
0.031106 0.034803 0.031911
0.034833 0.037941 0.034995
0.038771 0.041215 0.038221
0.042919 0.044624 0.041589
0.047278 0.048168 0.045100
0.051848 0.051848 0.048752
0.056629 0.055664 0.052547
0.061621 0.059614 0.056484
0.066823 0.063701 0.060564
0.072236 0.067922 0.064785
0.077860 0.072279 0.069149
0.083695 0.076772 0.073655
0.089741 0.081400 0.078303
0.095997 0.086163 0.083094
0.102464 0.091062 0.088026
0.109142 0.096097 0.093101
0.116031 0.101266 0.098318
0.123131 0.106572 0.103677
0.130441 0.112012 0.109179
0.137963 0.117588 0.114822
0.145695 0.123300 0.120608
0.153638 0.129147 0.126536
0.161791 0.135129 0.132607
0.170156 0.141247 0.138819
0.178731 0.147501 0.145174
0.187517 0.153889 0.151671
0.196514 0.160414 0.158310
0.205722 0.167073 0.165091
0.215140 0.173868 0.172015
0.224769 0.180799 0.179081
0.234609 0.187865 0.186289
0.244660 0.195066 0.193639
0.037553 0.043284 0.039431
0.041638 0.046776 0.042851
0.045933 0.050403 0.046413
0.050439 0.054166 0.050118
0.055156 0.058064 0.053964
0.060083 0.062097 0.057953
0.065222 0.066267 0.062084
0.070571 0.070571 0.066358
0.076131 0.075011 0.070773
0.081902 0.079586 0.075331
0.087884 0.084297 0.080031
0.094076 0.089144 0.084873
0.100479 0.094125 0.089857
0.107093 0.099243 0.094984
0.113918 0.104495 0.100253
0.120954 0.109883 0.105664
0.128200 0.115407 0.111217
0.135658 0.121066 0.116912
0.143326 0.126860 0.122750
0.151205 0.132790 0.128730
0.159294 0.138855 0.134852
0.167595 0.145056 0.141116
0.176106 0.151392 0.147523
0.184828 0.157864 0.154072
0.193761 0.164471 0.160762
0.202905 0.171213 0.167596
0.212259 0.178091 0.174571
0.221825 0.185104 0.181689
0.231601 0.192253 0.188948
0.241588 0.199537 0.196350
0.251785 0.206957 0.203895
0.262194 0.214512 0.211581
0.272813 0.222203 0.219410
0.049049 0.056534 0.051502
0.053702 0.060515 0.055400
0.058566 0.064631 0.059441
0.063640 0.068883 0.063624
0.068925 0.073271 0.067949
0.074421 0.077793 0.072416
0.080128 0.082452 0.077025
0.086046 0.087245 0.081777
0.092174 0.092174 0.086671
0.098514 0.097239 0.091707
0.105064 0.102439 0.096886
0.111825 0.107775 0.102206
0.118796 0.113245 0.107669
0.125979 0.118852 0.113274
0.133372 0.124594 0.119021
0.140976 0.130471 0.124911
0.148791 0.136483 0.130942
0.156817 0.142632 0.137116
0.165053 0.148915 0.143432
0.173501 0.155334 0.149890
0.182159 0.161889 0.156491
0.191028 0.168578 0.163234
0.200108 0.175404 0.170119
0.209398 0.182365 0.177146
0.218899 0.189461 0.184315
0.228612 0.196692 0.191627
0.238534 0.204059 0.199081
0.248668 0.211562 0.206677
0.259013 0.219200 0.214415
0.269568 0.226973 0.222295
0.280334 0.234882 0.230318
0.291311 0.242926 0.238483
0.302499 0.251106 0.246790
0.062078 0.071551 0.065182
0.067299 0.076021 0.069559
0.072731 0.080626 0.074078
0.078374 0.085368 0.078739
0.084228 0.090244 0.083542
0.090292 0.095256 0.088488
0.096568 0.100403 0.093576
0.103054 0.105686 0.098806
0.109751 0.111105 0.104179
0.116658 0.116658 0.109693
0.123777 0.122348 0.115350
0.131106 0.128172 0.121149
0.138646 0.134132 0.127090
0.146397 0.140228 0.133173
0.154359 0.146459 0.139399
0.162532 0.152825 0.145767
0.170915 0.159327 0.152277
0.179509 0.165964 0.158929
0.188314 0.172737 0.165724
0.197330 0.179645 0.172661
0.206556 0.186689 0.179739
0.215994 0.193868 0.186961
0.225642 0.201182 0.194324
0.235501 0.208632 0.201829
0.245570 0.216217 0.209477
0.255851 0.223938 0.217267
0.266342 0.231795 0.225199
0.277045 0.239786 0.233274
0.287958 0.247913 0.241490
0.299081 0.256176 0.249849
0.310416 0.264574 0.258350
0.321961 0.273107 0.266994
0.333717 0.281776 0.275779
0.076639 0.088334 0.080471
0.082429 0.093293 0.085326
0.088429 0.098388 0.090324
0.094641 0.103618 0.095464
0.101063 0.108984 0.100746
0.107696 0.114485 0.106170
0.114540 0.120122 0.111736
0.121594 0.125894 0.117445
0.128860 0.131801 0.123295
0.136336 0.137844 0.129288
0.144023 0.144023 0.135424
0.151920 0.150336 0.141701
0.160029 0.156786 0.148121
0.168348 0.163370 0.154682
0.176878 0.170090 0.161386
0.185619 0.176946 0.168233
0.194571 0.183937 0.175221
0.203734 0.191063 0.182352
0.213107 0.198325 0.189625
0.222691 0.205723 0.197040
0.232486 0.213255 0.204597
0.242492 0.220924 0.212297
0.252709 0.228727 0.220139
0.263136 0.236666 0.228123
0.273774 0.244741 0.236249
0.284623 0.252951 0.244517
0.295683 0.261296 0.252928
0.306954 0.269777 0.261481
0.318435 0.278393 0.270176
0.330127 0.287145 0.279013
0.342030 0.296032 0.287992
0.354144 0.305055 0.297114
0.366469 0.314213 0.306378
0.092733 0.106884 0.097370
0.099092 0.112333 0.102704
0.105661 0.117917 0.108180
0.112440 0.123636 0.113798
0.119431 0.129491 0.119558
0.126632 0.135481 0.125461
0.134044 0.141607 0.131505
0.141667 0.147868 0.137692
0.149501 0.154265 0.144022
0.157546 0.160797 0.150493
0.165801 0.167464 0.157107
0.174267 0.174267 0.163863
0.182944 0.181206 0.170761
0.191832 0.188280 0.177801
0.200931 0.195489 0.184983
0.210240 0.202834 0.192308
0.219760 0.210314 0.199775
0.229491 0.217929 0.207384
0.239433 0.225680 0.215135
0.249586 0.233567 0.223029
0.259949 0.241589 0.231065
0.270523 0.249746 0.239243
0.281308 0.258039 0.247563
0.292304 0.266467 0.256025
0.303511 0.275031 0.264630
0.314928 0.283730 0.273377
0.326557 0.292565 0.282266
0.338396 0.301535 0.291297
0.350445 0.310640 0.300470
0.362706 0.319881 0.309786
0.375178 0.329257 0.319244
0.387860 0.338769 0.328844
0.400753 0.348416 0.338586
0.110361 0.127201 0.115879
0.117287 0.133139 0.121691
0.124424 0.139212 0.127645
0.131773 0.145420 0.133741
0.139332 0.151764 0.139980
0.147101 0.158244 0.146361
0.155082 0.164859 0.152884
0.163274 0.171609 0.159550
0.171676 0.178495 0.166357
0.180289 0.185516 0.173307
0.189113 0.192673 0.180399
0.198147 0.199965 0.187633
0.207393 0.207393 0.195010
0.216849 0.214956 0.202529
0.226516 0.222654 0.210189
0.236394 0.230488 0.217993
0.246482 0.238457 0.225938
0.256782 0.246562 0.234025
0.267292 0.254802 0.242255
0.278013 0.263178 0.250627
0.288945 0.271689 0.259141
0.300088 0.280336 0.267798
0.311441 0.289118 0.276596
0.323005 0.298035 0.285537
0.334780 0.307088 0.294620
0.346766 0.316276 0.303845
0.358963 0.325600 0.313213
0.371370 0.335059 0.322722
0.383989 0.344654 0.332374
0.396818 0.354384 0.342168
0.409858 0.364249 0.352105
0.423108 0.374250 0.362183
0.586414 0.384387 0.372404
0.129520 0.149285 0.135996
0.137015 0.155711 0.142287
0.144721 0.162274 0.148720
0.152638 0.168971 0.155295
0.160765 0.175805 0.162012
0.169103 0.182773 0.168871
0.177653 0.189877 0.175873
0.186412 0.197117 0.183016
0.195383 0.204492 0.190303
0.204564 0.212002 0.197731
0.213957 0.219648 0.205301
0.223560 0.227429 0.213014
0.233374 0.235346 0.220869
0.243398 0.243398 0.228866
0.253634 0.251586 0.237005
0.264080 0.259909 0.245287
0.274737 0.268367 0.253710
0.285605 0.276961 0.262276
0.296684 0.285691 0.270984
0.307973 0.294556 0.279835
0.319473 0.303556 0.288827
0.331184 0.312692 0.297962
0.343106 0.321963 0.307239
0.355239 0.331369 0.316658
0.367582 0.340911 0.326220
0.380137 0.350589 0.335924
0.392902 0.360402 0.345769
0.405878 0.370350 0.355758
0.419064 0.380434 0.365888
0.582397 0.390653 0.376160
0.595561 0.401008 0.386575
0.608513 0.411498 0.397132
0.621255 0.422123 0.407831
0.150213 0.173135 0.157724
0.158276 0.180051 0.164492
0.166551 0.187102 0.171404
0.175036 0.194289 0.178457
0.183732 0.201612 0.185653
0.192638 0.209069 0.192990
0.201756 0.216663 0.200470
0.211084 0.224391 0.208093
0.220623 0.232255 0.215857
0.230373 0.240255 0.223764
0.240334 0.248390 0.231813
0.250505 0.256660 0.240004
0.260887 0.265066 0.248337
0.271480 0.273608 0.256812
0.282284 0.282284 0.265430
0.293299 0.291097 0.274190
0.304525 0.300044 0.283092
0.315961 0.309127 0.292137
0.327608 0.318346 0.301323
0.339466 0.327700 0.310652
0.351535 0.337189 0.320123
0.363814 0.346814 0.329736
0.376304 0.356574 0.339492
0.389006 0.366470 0.349389
0.401917 0.376501 0.359429
0.415040 0.386668 0.369611
0.578360 0.396970 0.379935
0.591588 0.407408 0.390402
0.604605 0.417981 0.401011
0.617410 0.578673 0.411762
0.630005 0.589289 0.422655
0.642390 0.599769 0.433690
0.654563 0.610113 0.444868
0.172438 0.198752 0.181060
0.181070 0.206157 0.188308
0.189913 0.213697 0.195697
0.198966 0.221374 0.203229
0.208231 0.229185 0.210903
0.217706 0.237132 0.218719
0.227392 0.245214 0.226678
0.237288 0.253432 0.234778
0.247396 0.261786 0.243021
0.257714 0.270274 0.251406
0.268243 0.278898 0.259933
0.278983 0.287658 0.268603
0.289934 0.296553 0.277415
0.301095 0.305584 0.286369
0.312468 0.314750 0.295465
0.324051 0.324051 0.304703
0.335845 0.333488 0.314084
0.347850 0.343060 0.323606
0.360065 0.352768 0.333271
0.372491 0.362611 0.343079
0.385129 0.372589 0.353028
0.397977 0.382703 0.363120
0.411035 0.392953 0.373353
0.424305 0.403338 0.383730
0.587596 0.413858 0.394248
0.600676 0.424514 0.404908
0.613546 0.585182 0.415711
0.626205 0.595714 0.426656
0.638654 0.606112 0.437743
0.650891 0.616373 0.606464
0.662918 0.626500 0.617625
0.674733 0.636491 0.628643
0.686339 0.646346 0.639520
0.196196 0.226135 0.206006
0.205397 0.234030 0.213732
0.214808 0.242059 0.221600
0.224430 0.250225 0.229610
0.234263 0.258525 0.237763
0.244306 0.266961 0.246057
0.254560 0.275533 0.254494
0.265026 0.284240 0.263073
0.275702 0.293082 0.271794
0.286588 0.302060 0.280658
0.297686 0.311174 0.289664
0.308994 0.320422 0.298812
0.320513 0.329807 0.308102
0.332243 0.339326 0.317534
0.344184 0.348981 0.327109
0.356336 0.358772 0.336825
0.368698 0.368698 0.346684
0.381271 0.378759 0.356685
0.394055 0.388956 0.366829
0.407050 0.399289 0.377115
0.420255 0.409756 0.387542
0.583584 0.420360 0.398112
0.596729 0.581055 0.408825
0.609663 0.591640 0.419679
0.622386 0.602090 0.430676
0.634898 0.612404 0.441815
0.647199 0.622583 0.610544
0.659290 0.632626 0.621653
0.671170 0.642534 0.632619
0.682839 0.652307 0.643444
0.694297 0.661944 0.654126
0.705544 0.671446 0.664666
0.716581 0.680812 0.675064
0.221487 0.255285 0.232562
0.231256 0.263669 0.240766
0.241236 0.272188 0.249112
0.251426 0.280842 0.257601
0.261827 0.289632 0.266232
0.272439 0.298557 0.275005
0.283262 0.307618 0.283920
0.294296 0.316814 0.292978
0.305540 0.326146 0.302177
0.316995 0.335613 0.311519
0.328661 0.345216 0.321003
0.340538 0.354953 0.330630
0.352625 0.364827 0.340398
0.364924 0.374836 0.350309
0.377433 0.384980 0.360362
0.390153 0.395260 0.370557
0.403084 0.405675 0.380894
0.416225 0.416225 0.391374
0.579553 0.576907 0.401996
0.592762 0.587545 0.412760
0.605760 0.598047 0.423666
0.618547 0.608414 0.434715
0.631123 0.618646 0.445905
0.643488 0.628742 0.614605
0.655643 0.638703 0.625662
0.667587 0.648528 0.636577
0.679320 0.658217 0.647349
0.690842 0.667772 0.657980
0.702153 0.677191 0.668468
0.713254 0.686474 0.678814
0.724144 0.695622 0.689018
0.734823 0.704635 0.699080
0.745291 0.713512 0.708999
0.248311 0.286202 0.260727
0.258648 0.295075 0.269409
0.269196 0.304083 0.278234
0.279955 0.313227 0.287201
0.290925 0.322506 0.296310
0.302105 0.331920 0.305562
0.313496 0.341470 0.314956
0.325098 0.351155 0.324491
0.336911 0.360976 0.334170
0.348935 0.370932 0.343990
0.361169 0.381024 0.353952
0.373614 0.391251 0.364057
0.386270 0.401614 0.374304
0.399137 0.412112 0.384693
0.412215 0.422745 0.395225
0.575503 0.583430 0.405898
0.588776 0.593985 0.416714
0.601837 0.604404 0.427672
0.614688 0.614688 0.438772
0.627328 0.624837 0.607499
0.639758 0.634850 0.618647
0.651976 0.644728 0.629652
0.663984 0.654470 0.640515
0.675781 0.664077 0.651236
0.687367 0.673549 0.661815
0.698743 0.682885 0.672251
0.709907 0.692085 0.682546
0.720861 0.701150 0.692698
0.731604 0.710080 0.702708
0.742136 0.718874 0.712575
0.752457 0.727533 0.722301
0.762568 0.736057 0.731884
0.772468 0.744444 0.741325
0.276668 0.318886 0.290501
0.287573 0.328248 0.299662
0.298690 0.337745 0.308965
0.310017 0.347378 0.318411
0.321555 0.357146 0.327998
0.333304 0.367050 0.337728
0.345263 0.377089 0.347600
0.357434 0.387263 0.357615
0.369815 0.397573 0.367771
0.382407 0.408019 0.378070
0.395210 0.418599 0.388511
0.408224 0.579294 0.399094
0.421448 0.589901 0.409819
0.584770 0.600374 0.420687
0.597895 0.610710 0.431697
0.610810 0.620912 0.442849
0.623515 0.630977 0.611574
0.636008 0.640908 0.622670
0.648290 0.650703 0.633623
0.660362 0.660362 0.644435
0.672223 0.669886 0.655104
0.683873 0.679275 0.665631
0.695313 0.688528 0.676016
0.706541 0.697646 0.686258
0.717559 0.706628 0.696359
0.728366 0.715475 0.706317
0.738962 0.724186 0.716133
0.749347 0.732762 0.725806
0.759522 0.741203 0.735338
0.769485 0.749508 0.744727
0.779238 0.757678 0.753974
0.788780 0.765712 0.763079
0.798112 0.773611 0.772042
0.306557 0.353336 0.321885
0.318031 0.363187 0.331524
0.329716 0.373174 0.341306
0.341612 0.383296 0.351230
0.353718 0.393553 0.361296
0.366035 0.403946 0.371504
0.378563 0.414474 0.381855
0.391302 0.575138 0.392347
0.404252 0.585798 0.402982
0.417412 0.596323 0.413759
0.580745 0.606712 0.424679
0.593934 0.616966 0.435740
0.606913 0.627084 0.604444
0.619681 0.637067 0.615630
0.632239 0.646915 0.626674
0.644585 0.656627 0.637576
0.656721 0.666203 0.648335
0.668646 0.675645 0.658953
0.680360 0.684950 0.669428
0.691863 0.694121 0.679761
0.703156 0.703156 0.689952
0.714237 0.712055 0.700000
0.725108 0.720819 0.709907
0.735768 0.729448 0.719671
0.746218 0.737941 0.729293
0.756456 0.746299 0.738773
0.766484 0.754521 0.748110
0.776301 0.762608 0.757305
0.785907 0.770559 0.766358
0.795302 0.778375 0.775269
0.804487 0.786055 0.784038
0.813460 0.793600 0.792664
0.822223 0.801010 0.801148
0.337979 0.389553 0.354878
0.350022 0.399893 0.364996
0.362275 0.410369 0.375256
0.374739 0.420980 0.385658
0.387414 0.581674 0.396203
0.400299 0.592251 0.406889
0.413396 0.602693 0.417718
0.576700 0.612999 0.428689
0.589954 0.623171 0.439803
0.602997 0.633206 0.608533
0.615829 0.643106 0.619667
0.628450 0.652871 0.630659
0.640860 0.662500 0.641509
0.653060 0.671994 0.652217
0.665049 0.681352 0.662783
0.676827 0.690575 0.673206
0.688394 0.699663 0.683488
0.699751 0.708615 0.693627
0.710897 0.717432 0.703623
0.721831 0.726113 0.713478
0.732555 0.734658 0.723190
0.743069 0.743069 0.732760
0.753371 0.751344 0.742188
0.763463 0.759483 0.751474
0.773344 0.767487 0.760618
0.783014 0.775355 0.769619
0.792473 0.783089 0.778478
0.801721 0.790686 0.787195
0.810759 0.798148 0.795770
0.819586 0.805475 0.804202
0.828202 0.812666 0.812492
0.836607 0.819722 0.820640
0.844802 0.826643 0.828646
0.370934 0.577529 0.389481
0.383545 0.588159 0.400077
0.396367 0.598654 0.410815
0.409399 0.609013 0.421696
0.422642 0.619236 0.432719
0.585954 0.629325 0.443884
0.599060 0.639277 0.612603
0.611956 0.649095 0.623685
0.624642 0.658777 0.634626
0.637116 0.668323 0.645424
0.649380 0.677734 0.656080
0.661433 0.687009 0.666594
0.673275 0.696150 0.676966
0.684906 0.705154 0.687195
0.696327 0.714023 0.697283
0.707536 0.722757 0.707228
0.718535 0.731356 0.717030
0.729323 0.739818 0.726691
0.739900 0.748146 0.736209
0.750267 0.756338 0.745585
0.760422 0.764395 0.754819
0.770367 0.772316 0.763911
0.780101 0.780101 0.772861
0.789625 0.787752 0.781668
0.798937 0.795266 0.790333
0.808039 0.802646 0.798856
0.816929 0.809890 0.807237
0.825609 0.816998 0.815475
0.834079 0.823971 0.823571
0.842337 0.830809 0.831525
0.850385 0.837511 0.839337
0.858221 0.844078 0.847007
0.865847 0.850509 0.854534
0.405422 0.615282 0.425693
0.418601 0.625423 0.436767
0.581934 0.635428 0.605481
0.595105 0.645298 0.616654
0.608065 0.655032 0.627685
0.620814 0.664631 0.638574
0.633353 0.674095 0.649320
0.645680 0.683423 0.659925
0.657797 0.692616 0.670387
0.669703 0.701673 0.680707
0.681398 0.710595 0.690884
0.692883 0.719381 0.700920
0.704156 0.728032 0.710813
0.715219 0.736548 0.720564
0.726071 0.744928 0.730173
0.736713 0.753172 0.739639
0.747143 0.761282 0.748964
0.757363 0.769255 0.758146
0.767371 0.777094 0.767186
0.777169 0.784796 0.776084
0.786757 0.792364 0.784839
0.796133 0.799796 0.793452
0.805299 0.807092 0.801923
0.814253 0.814253 0.810252
0.822997 0.821279 0.818439
0.831531 0.828169 0.826483
0.839853 0.834924 0.834386
0.847965 0.841543 0.842146
0.855865 0.848027 0.849764
0.863555 0.854376 0.857239
0.871035 0.860589 0.864573
0.878303 0.866666 0.871764
0.885360 0.872608 0.878813
0.591130 0.651268 0.620686
0.604154 0.660920 0.631666
0.616967 0.670436 0.642503
0.629570 0.679816 0.653197
0.641961 0.689062 0.663750
0.654142 0.698172 0.674160
0.666112 0.707146 0.684428
0.677871 0.715985 0.694554
0.689420 0.724689 0.704538
0.700757 0.733257 0.714379
0.711884 0.741689 0.724079
0.722800 0.749987 0.733636
0.733505 0.758148 0.743050
0.744000 0.766175 0.752323
0.754283 0.774066 0.761453
0.764356 0.781821 0.770442
0.774218 0.789441 0.779288
0.783869 0.796926 0.787991
0.793310 0.804275 0.796553
0.802539 0.811488 0.804972
0.811558 0.818567 0.813249
0.820366 0.825509 0.821384
0.828963 0.832317 0.829377
0.837350 0.838989 0.837227
0.845525 0.845525 0.844936
0.853490 0.851926 0.852502
0.861244 0.858192 0.859925
0.868787 0.864322 0.867207
0.876119 0.870317 0.874346
0.883241 0.876176 0.881344
0.890152 0.881900 0.888199
0.896852 0.887488 0.894911
0.903341 0.892941 0.901482
0.625767 0.685487 0.657056
0.638223 0.694650 0.667556
0.650468 0.703677 0.677915
0.662502 0.712568 0.688131
0.674325 0.721324 0.698205
0.685937 0.729945 0.708137
0.697339 0.738430 0.717927
0.708530 0.746780 0.727574
0.719510 0.754995 0.737080
0.730279 0.763074 0.746443
0.740837 0.771017 0.755664
0.751185 0.778825 0.764742
0.761321 0.786498 0.773679
0.771247 0.794035 0.782473
0.780963 0.801437 0.791125
0.790467 0.808703 0.799635
0.799760 0.815834 0.808002
0.808843 0.822829 0.816227
0.817715 0.829689 0.824311
0.826376 0.836414 0.832251
0.834827 0.843003 0.840050
0.843066 0.849456 0.847707
0.851095 0.855774 0.855221
0.858913 0.861957 0.862593
0.866520 0.868004 0.869823
0.873916 0.873916 0.876910
0.881102 0.879693 0.883856
0.888077 0.885334 0.890659
0.894840 0.890839 0.897320
0.901394 0.896209 0.903839
0.907736 0.901444 0.910215
0.913867 0.906543 0.916450
0.919788 0.911507 0.922542
0.658872 0.717940 0.691815
0.670759 0.726613 0.701838
0.682435 0.735151 0.711718
0.693901 0.743553 0.721456
0.705156 0.751820 0.731051
0.716200 0.759952 0.740505
0.727033 0.767948 0.749816
0.737655 0.775809 0.758985
0.748067 0.783534 0.768012
0.758267 0.791124 0.776897
0.768257 0.798578 0.785639
0.778036 0.805897 0.794239
0.787605 0.813080 0.802697
0.796962 0.820128 0.811013
0.806109 0.827041 0.819187
0.815045 0.833818 0.827218
0.823770 0.840460 0.835107
0.832284 0.846966 0.842854
0.840588 0.853337 0.850459
0.848681 0.859572 0.857921
0.856563 0.865672 0.865241
0.864234 0.871636 0.872420
0.871694 0.877465 0.879455
0.878943 0.883159 0.886349
0.885982 0.888717 0.893100
0.892810 0.894140 0.899710
0.899427 0.899427 0.906177
0.905833 0.904579 0.912501
0.912029 0.909595 0.918684
