indra/newview/app_settings/luts/film_noir.cube
TITLE "Film Noir"
LUT_3D_SIZE 5
0.000000 0.000000 0.000000
0.006746 0.004334 0.004551
0.026983 0.017337 0.018203
0.060711 0.039007 0.040958
0.107931 0.069346 0.072814
0.049049 0.056534 0.051502
0.092174 0.092174 0.086671
0.148791 0.136483 0.130942
0.218899 0.189461 0.184315
0.302499 0.251106 0.246790
0.196196 0.226135 0.206006
0.275702 0.293082 0.271794
0.368698 0.368698 0.346684
0.622386 0.602090 0.430676
0.716581 0.680812 0.675064
0.591130 0.651268 0.620686
0.689420 0.724689 0.704538
0.774218 0.789441 0.779288
0.845525 0.845525 0.844936
0.903341 0.892941 0.901482
0.825310 0.875555 0.866576
0.887220 0.917670 0.919808
0.935639 0.951115 0.963939
0.970566 0.975893 0.998969
0.992002 0.992002 1.000000
0.000500 0.000500 0.001569
0.010918 0.007778 0.011464
0.034828 0.023724 0.030461
0.072229 0.048338 0.058559
0.123121 0.081621 0.095759
0.059452 0.067666 0.071049
0.106250 0.106250 0.111562
0.166539 0.153503 0.161178
0.240320 0.209424 0.219895
0.327592 0.274013 0.287714
0.216503 0.247899 0.243532
0.299680 0.317790 0.314664
0.396349 0.396349 0.394898
0.649364 0.629796 0.640183
0.739886 0.705575 0.722004
0.619222 0.677174 0.671024
0.713840 0.747651 0.749532
0.794965 0.809459 0.818937
0.862600 0.862600 0.879241
0.916743 0.907072 0.930443
0.843499 0.890830 0.898935
0.901737 0.930000 0.946824
0.946483 0.960502 0.985611
0.977738 0.982336 1.000000
0.995501 0.995501 1.000000
0.001999 0.001999 0.006276
0.016090 0.012221 0.021515
0.043672 0.031111 0.045856
0.084746 0.058669 0.079299
0.139311 0.094896 0.121843
0.070855 0.079797 0.093734
0.121325 0.121325 0.139592
0.185287 0.171522 0.194551
0.262740 0.230387 0.258613
0.353685 0.297920 0.331776
0.237808 0.270662 0.284195
0.324658 0.343497 0.360672
0.575000 0.575000 0.603750
0.675342 0.656503 0.689328
0.762192 0.729338 0.765805
0.646315 0.702080 0.718224
0.737260 0.769613 0.791387
0.814713 0.828478 0.855449
0.878675 0.878675 0.910408
0.929145 0.920203 0.956266
0.860689 0.905104 0.928157
0.915254 0.941331 0.970701
0.956328 0.968889 1.000000
0.983910 0.987779 1.000000
0.998001 0.998001 1.000000
0.004499 0.004499 0.014121
0.022262 0.017664 0.034704
0.053517 0.039498 0.064389
0.098263 0.070000 0.103176
0.156501 0.109170 0.151065
0.083257 0.092928 0.119557
0.137400 0.137400 0.170759
0.205035 0.190541 0.231063
0.286160 0.252349 0.300468
0.380778 0.322826 0.378976
0.260114 0.294425 0.327996
0.350636 0.370204 0.409817
0.603651 0.603651 0.655102
0.700320 0.682210 0.735336
0.783497 0.752101 0.806468
0.672408 0.725987 0.762286
0.759680 0.790576 0.830105
0.833461 0.846497 0.888822
0.893750 0.893750 0.938437
0.940548 0.932334 0.978951
0.876879 0.918379 0.954241
0.927771 0.951662 0.991441
0.965172 0.976276 1.000000
0.989082 0.992222 1.000000
0.999500 0.999500 1.000000
0.007998 0.007998 0.025104
0.029434 0.024107 0.051031
0.064361 0.048885 0.086061
0.112780 0.082330 0.130192
0.174690 0.124445 0.183424
0.096659 0.107059 0.148518
0.154475 0.154475 0.205064
0.225782 0.210559 0.270712
0.310580 0.275311 0.345462
0.408870 0.348732 0.429314
0.283419 0.319188 0.374936
0.377614 0.397910 0.619324
0.631302 0.631302 0.703316
0.724298 0.706918 0.778206
0.803804 0.773865 0.843994
0.697501 0.748894 0.803210
0.781101 0.810539 0.865685
0.851209 0.863517 0.919058
0.907826 0.907826 0.963329
0.950951 0.943466 0.998498
0.892069 0.930654 0.977186
0.939289 0.960993 1.000000
0.973017 0.982663 1.000000
0.993254 0.995666 1.000000
1.000000 1.000000 1.000000
