indra/newview/app_settings/luts/sepia.cube
TITLE "Sepia"
LUT_3D_SIZE 9
0.000000 0.000000 0.000000
0.000000 0.000000 0.000000
0.013142 0.000280 0.000000
0.044713 0.025420 0.008757
0.076284 0.050560 0.028343
0.107855 0.075700 0.047929
0.139427 0.100840 0.067515
0.170998 0.125980 0.087100
0.202569 0.151120 0.106686
0.056207 0.034572 0.015888
0.087778 0.059712 0.035474
0.119349 0.084852 0.055059
0.150920 0.109992 0.074645
0.182492 0.135132 0.094231
0.214063 0.160272 0.113817
0.245634 0.185412 0.133402
0.277205 0.210552 0.152988
0.308776 0.235692 0.172574
0.162414 0.119145 0.081776
0.193985 0.144285 0.101361
0.225557 0.169425 0.120947
0.257128 0.194565 0.140533
0.288699 0.219705 0.160119
0.320270 0.244845 0.179704
0.351841 0.269984 0.199290
0.383412 0.295124 0.218876
0.414983 0.320264 0.238462
0.268622 0.203717 0.147663
0.300193 0.228857 0.167249
0.331764 0.253997 0.186835
0.363335 0.279137 0.206421
0.394906 0.304277 0.226006
0.426477 0.329417 0.245592
0.458048 0.354557 0.265178
0.489619 0.379697 0.284764
0.521190 0.404837 0.304350
0.374829 0.288290 0.213551
0.406400 0.313430 0.233137
0.437971 0.338569 0.252723
0.469542 0.363709 0.272309
0.501113 0.388849 0.291894
0.532684 0.413989 0.311480
0.564255 0.439129 0.331066
0.595827 0.464269 0.350652
0.627398 0.489409 0.370237
0.481036 0.372862 0.279439
0.512607 0.398002 0.299025
0.544178 0.423142 0.318611
0.575749 0.448282 0.338196
0.607320 0.473422 0.357782
0.638891 0.498562 0.377368
0.670463 0.523702 0.396954
0.702034 0.548842 0.416539
0.733605 0.573982 0.436125
0.587243 0.457434 0.345327
0.618814 0.482574 0.364913
0.650385 0.507714 0.384498
0.681957 0.532854 0.404084
0.713528 0.557994 0.423670
0.745099 0.583134 0.443256
0.776670 0.608274 0.462841
0.808241 0.633414 0.482427
0.839812 0.658554 0.502013
0.693450 0.542007 0.411215
0.725021 0.567147 0.430800
0.756593 0.592287 0.450386
0.788164 0.617427 0.469972
0.819735 0.642567 0.489558
0.851306 0.667707 0.509143
0.882877 0.692846 0.528729
0.914448 0.717986 0.548315
0.946019 0.743126 0.567901
0.799658 0.626579 0.477102
0.831229 0.651719 0.496688
0.862800 0.676859 0.516274
0.894371 0.701999 0.535860
0.925942 0.727139 0.555445
0.957513 0.752279 0.575031
0.989084 0.777419 0.594617
1.000000 0.802559 0.614203
1.000000 0.827699 0.633789
0.000000 0.000000 0.000000
0.000000 0.000000 0.000000
0.023864 0.008818 0.000000
0.055435 0.033957 0.015409
0.087006 0.059097 0.034995
0.118577 0.084237 0.054580
0.150148 0.109377 0.074166
0.181719 0.134517 0.093752
0.213290 0.159657 0.113338
0.066929 0.043110 0.022539
0.098500 0.068250 0.042125
0.130071 0.093390 0.061711
0.161642 0.118530 0.081297
0.193213 0.143670 0.100882
0.224784 0.168810 0.120468
0.256356 0.193950 0.140054
0.287927 0.219090 0.159640
0.319498 0.244230 0.179225
0.173136 0.127682 0.088427
0.204707 0.152822 0.108013
0.236278 0.177962 0.127599
0.267849 0.203102 0.147184
0.299420 0.228242 0.166770
0.330992 0.253382 0.186356
0.362563 0.278522 0.205942
0.394134 0.303662 0.225527
0.425705 0.328802 0.245113
0.279343 0.212255 0.154315
0.310914 0.237395 0.173901
0.342485 0.262535 0.193486
0.374057 0.287675 0.213072
0.405628 0.312815 0.232658
0.437199 0.337955 0.252244
0.468770 0.363095 0.271829
0.500341 0.388234 0.291415
0.531912 0.413374 0.311001
0.385551 0.296827 0.220203
0.417122 0.321967 0.239788
0.448693 0.347107 0.259374
0.480264 0.372247 0.278960
0.511835 0.397387 0.298546
0.543406 0.422527 0.318132
0.574977 0.447667 0.337717
0.606548 0.472807 0.357303
0.638119 0.497947 0.376889
0.491758 0.381400 0.286090
0.523329 0.406540 0.305676
0.554900 0.431680 0.325262
0.586471 0.456819 0.344848
0.618042 0.481959 0.364434
0.649613 0.507099 0.384019
0.681184 0.532239 0.403605
0.712755 0.557379 0.423191
0.744327 0.582519 0.442777
0.597965 0.465972 0.351978
0.629536 0.491112 0.371564
0.661107 0.516252 0.391150
0.692678 0.541392 0.410736
0.724249 0.566532 0.430321
0.755820 0.591672 0.449907
0.787392 0.616812 0.469493
0.818963 0.641952 0.489079
0.850534 0.667092 0.508664
0.704172 0.550544 0.417866
0.735743 0.575684 0.437452
0.767314 0.600824 0.457038
0.798885 0.625964 0.476623
0.830456 0.651104 0.496209
0.862028 0.676244 0.515795
0.893599 0.701384 0.535381
0.925170 0.726524 0.554966
0.956741 0.751664 0.574552
0.810379 0.635117 0.483754
0.841950 0.660257 0.503340
0.873522 0.685397 0.522925
0.905093 0.710537 0.542511
0.936664 0.735677 0.562097
0.968235 0.760817 0.581683
0.999806 0.785957 0.601268
1.000000 0.811096 0.620854
1.000000 0.836236 0.640440
0.000000 0.000000 0.000000
0.003014 0.000000 0.000000
0.034586 0.017355 0.002474
0.066157 0.042495 0.022060
0.097728 0.067635 0.041646
0.129299 0.092775 0.061232
0.160870 0.117915 0.080817
0.192441 0.143055 0.100403
0.224012 0.168195 0.119989
0.077651 0.051648 0.029191
0.109222 0.076788 0.048776
0.140793 0.101928 0.068362
0.172364 0.127068 0.087948
0.203935 0.152207 0.107534
0.235506 0.177347 0.127120
0.267077 0.202487 0.146705
0.298648 0.227627 0.166291
0.330219 0.252767 0.185877
0.183858 0.136220 0.095078
0.215429 0.161360 0.114664
0.247000 0.186500 0.134250
0.278571 0.211640 0.153836
0.310142 0.236780 0.173422
0.341713 0.261920 0.193007
0.373284 0.287060 0.212593
0.404856 0.312200 0.232179
0.436427 0.337340 0.251765
0.290065 0.220793 0.160966
0.321636 0.245932 0.180552
0.353207 0.271072 0.200138
0.384778 0.296212 0.219724
0.416349 0.321352 0.239309
0.447921 0.346492 0.258895
0.479492 0.371632 0.278481
0.511063 0.396772 0.298067
0.542634 0.421912 0.317652
0.396272 0.305365 0.226854
0.427843 0.330505 0.246440
0.459414 0.355645 0.266026
0.490985 0.380785 0.285611
0.522557 0.405925 0.305197
0.554128 0.431065 0.324783
0.585699 0.456205 0.344369
0.617270 0.481345 0.363954
0.648841 0.506485 0.383540
0.502479 0.389937 0.292742
0.534051 0.415077 0.312328
0.565622 0.440217 0.331913
0.597193 0.465357 0.351499
0.628764 0.490497 0.371085
0.660335 0.515637 0.390671
0.691906 0.540777 0.410256
0.723477 0.565917 0.429842
0.755048 0.591057 0.449428
0.608687 0.474510 0.358630
0.640258 0.499650 0.378215
0.671829 0.524790 0.397801
0.703400 0.549930 0.417387
0.734971 0.575070 0.436973
0.766542 0.600209 0.456559
0.798113 0.625349 0.476144
0.829684 0.650489 0.495730
0.861255 0.675629 0.515316
0.714894 0.559082 0.424517
0.746465 0.584222 0.444103
0.778036 0.609362 0.463689
0.809607 0.634502 0.483275
0.841178 0.659642 0.502861
0.872749 0.684782 0.522446
0.904320 0.709922 0.542032
0.935891 0.735062 0.561618
0.967463 0.760202 0.581204
0.821101 0.643654 0.490405
0.852672 0.668794 0.509991
0.884243 0.693934 0.529577
0.915814 0.719074 0.549163
0.947385 0.744214 0.568748
0.978957 0.769354 0.588334
1.000000 0.794494 0.607920
1.000000 0.819634 0.627506
1.000000 0.844774 0.647091
0.000000 0.000000 0.000000
0.013736 0.000753 0.000000
0.045307 0.025893 0.009126
0.076878 0.051033 0.028712
0.108450 0.076173 0.048297
0.140021 0.101313 0.067883
0.171592 0.126453 0.087469
0.203163 0.151593 0.107055
0.234734 0.176733 0.126640
0.088372 0.060185 0.035842
0.119943 0.085325 0.055428
0.151515 0.110465 0.075014
0.183086 0.135605 0.094599
0.214657 0.160745 0.114185
0.246228 0.185885 0.133771
0.277799 0.211025 0.153357
0.309370 0.236165 0.172942
0.340941 0.261305 0.192528
0.194580 0.144758 0.101730
0.226151 0.169898 0.121316
0.257722 0.195038 0.140901
0.289293 0.220178 0.160487
0.320864 0.245318 0.180073
0.352435 0.270458 0.199659
0.384006 0.295597 0.219245
0.415577 0.320737 0.238830
0.447148 0.345877 0.258416
0.300787 0.229330 0.167618
0.332358 0.254470 0.187203
0.363929 0.279610 0.206789
0.395500 0.304750 0.226375
0.427071 0.329890 0.245961
0.458642 0.355030 0.265547
0.490213 0.380170 0.285132
0.521784 0.405310 0.304718
0.553356 0.430450 0.324304
0.406994 0.313903 0.233505
0.438565 0.339043 0.253091
0.470136 0.364182 0.272677
0.501707 0.389322 0.292263
0.533278 0.414462 0.311849
0.564849 0.439602 0.331434
0.596421 0.464742 0.351020
0.627992 0.489882 0.370606
0.659563 0.515022 0.390192
0.513201 0.398475 0.299393
0.544772 0.423615 0.318979
0.576343 0.448755 0.338565
0.607914 0.473895 0.358151
0.639485 0.499035 0.377736
0.671057 0.524175 0.397322
0.702628 0.549315 0.416908
0.734199 0.574455 0.436494
0.765770 0.599595 0.456079
0.619408 0.483047 0.365281
0.650979 0.508187 0.384867
0.682551 0.533327 0.404453
0.714122 0.558467 0.424038
0.745693 0.583607 0.443624
0.777264 0.608747 0.463210
0.808835 0.633887 0.482796
0.840406 0.659027 0.502381
0.871977 0.684167 0.521967
0.725615 0.567620 0.431169
0.757187 0.592760 0.450755
0.788758 0.617900 0.470340
0.820329 0.643040 0.489926
0.851900 0.668180 0.509512
0.883471 0.693319 0.529098
0.915042 0.718459 0.548684
0.946613 0.743599 0.568269
0.978184 0.768739 0.587855
0.831823 0.652192 0.497057
0.863394 0.677332 0.516642
0.894965 0.702472 0.536228
0.926536 0.727612 0.555814
0.958107 0.752752 0.575400
0.989678 0.777892 0.594986
1.000000 0.803032 0.614571
1.000000 0.828172 0.634157
1.000000 0.853312 0.653743
0.000000 0.000000 0.000000
0.024458 0.009291 0.000000
0.056029 0.034430 0.015777
0.087600 0.059570 0.035363
0.119171 0.084710 0.054949
0.150742 0.109850 0.074535
0.182313 0.134990 0.094120
0.213884 0.160130 0.113706
0.245456 0.185270 0.133292
0.099094 0.068723 0.042493
0.130665 0.093863 0.062079
0.162236 0.119003 0.081665
0.193807 0.144143 0.101251
0.225378 0.169283 0.120837
0.256950 0.194423 0.140422
0.288521 0.219563 0.160008
0.320092 0.244703 0.179594
0.351663 0.269843 0.199180
0.205301 0.153295 0.108381
0.236872 0.178435 0.127967
0.268443 0.203575 0.147553
0.300015 0.228715 0.167139
0.331586 0.253855 0.186724
0.363157 0.278995 0.206310
0.394728 0.304135 0.225896
0.426299 0.329275 0.245482
0.457870 0.354415 0.265067
0.311508 0.237868 0.174269
0.343080 0.263008 0.193855
0.374651 0.288148 0.213441
0.406222 0.313288 0.233026
0.437793 0.338428 0.252612
0.469364 0.363568 0.272198
0.500935 0.388707 0.291784
0.532506 0.413847 0.311370
0.564077 0.438987 0.330955
0.417716 0.322440 0.240157
0.449287 0.347580 0.259743
0.480858 0.372720 0.279328
0.512429 0.397860 0.298914
0.544000 0.423000 0.318500
0.575571 0.448140 0.338086
0.607142 0.473280 0.357672
0.638713 0.498420 0.377257
0.670284 0.523560 0.396843
0.523923 0.407013 0.306045
0.555494 0.432153 0.325630
0.587065 0.457292 0.345216
0.618636 0.482432 0.364802
0.650207 0.507572 0.384388
0.681778 0.532712 0.403974
0.713349 0.557852 0.423559
0.744921 0.582992 0.443145
0.776492 0.608132 0.462731
0.630130 0.491585 0.371933
0.661701 0.516725 0.391518
0.693272 0.541865 0.411104
0.724843 0.567005 0.430690
0.756414 0.592145 0.450276
0.787986 0.617285 0.469861
0.819557 0.642425 0.489447
0.851128 0.667565 0.509033
0.882699 0.692705 0.528619
0.736337 0.576157 0.437820
0.767908 0.601297 0.457406
0.799479 0.626437 0.476992
0.831051 0.651577 0.496578
0.862622 0.676717 0.516163
0.894193 0.701857 0.535749
0.925764 0.726997 0.555335
0.957335 0.752137 0.574921
0.988906 0.777277 0.594506
0.842544 0.660730 0.503708
0.874116 0.685870 0.523294
0.905687 0.711010 0.542880
0.937258 0.736150 0.562465
0.968829 0.761290 0.582051
1.000000 0.786430 0.601637
1.000000 0.811570 0.621223
1.000000 0.836709 0.640809
1.000000 0.861849 0.660394
0.003608 0.000000 0.000000
0.035180 0.017828 0.002843
0.066751 0.042968 0.022429
0.098322 0.068108 0.042014
0.129893 0.093248 0.061600
0.161464 0.118388 0.081186
0.193035 0.143528 0.100772
0.224606 0.168668 0.120358
0.256177 0.193808 0.139943
0.109816 0.077261 0.049145
0.141387 0.102401 0.068731
0.172958 0.127541 0.088316
0.204529 0.152680 0.107902
0.236100 0.177820 0.127488
0.267671 0.202960 0.147074
0.299242 0.228100 0.166660
0.330813 0.253240 0.186245
0.362384 0.278380 0.205831
0.216023 0.161833 0.115033
0.247594 0.186973 0.134618
0.279165 0.212113 0.154204
0.310736 0.237253 0.173790
0.342307 0.262393 0.193376
0.373878 0.287533 0.212962
0.405450 0.312673 0.232547
0.437021 0.337813 0.252133
0.468592 0.362953 0.271719
0.322230 0.246405 0.180921
0.353801 0.271545 0.200506
0.385372 0.296685 0.220092
0.416943 0.321825 0.239678
0.448515 0.346965 0.259264
0.480086 0.372105 0.278849
0.511657 0.397245 0.298435
0.543228 0.422385 0.318021
0.574799 0.447525 0.337607
0.428437 0.330978 0.246808
0.460008 0.356118 0.266394
0.491579 0.381258 0.285980
0.523151 0.406398 0.305566
0.554722 0.431538 0.325151
0.586293 0.456678 0.344737
0.617864 0.481818 0.364323
0.649435 0.506958 0.383909
0.681006 0.532097 0.403495
0.534644 0.415550 0.312696
0.566216 0.440690 0.332282
0.597787 0.465830 0.351868
0.629358 0.490970 0.371453
0.660929 0.516110 0.391039
0.692500 0.541250 0.410625
0.724071 0.566390 0.430211
0.755642 0.591530 0.449797
0.787213 0.616670 0.469382
0.640852 0.500123 0.378584
0.672423 0.525263 0.398170
0.703994 0.550403 0.417755
0.735565 0.575543 0.437341
0.767136 0.600682 0.456927
0.798707 0.625822 0.476513
0.830278 0.650962 0.496099
0.861849 0.676102 0.515684
0.893421 0.701242 0.535270
0.747059 0.584695 0.444472
0.778630 0.609835 0.464057
0.810201 0.634975 0.483643
0.841772 0.660115 0.503229
0.873343 0.685255 0.522815
0.904914 0.710395 0.542401
0.936485 0.735535 0.561986
0.968057 0.760675 0.581572
0.999628 0.785815 0.601158
0.853266 0.669267 0.510360
0.884837 0.694407 0.529945
0.916408 0.719547 0.549531
0.947979 0.744687 0.569117
0.979550 0.769827 0.588703
1.000000 0.794967 0.608288
1.000000 0.820107 0.627874
1.000000 0.845247 0.647460
1.000000 0.870387 0.667046
0.014330 0.001226 0.000000
0.045901 0.026366 0.009494
0.077472 0.051506 0.029080
0.109044 0.076646 0.048666
0.140615 0.101786 0.068252
0.172186 0.126926 0.087837
0.203757 0.152066 0.107423
0.235328 0.177206 0.127009
0.266899 0.202346 0.146595
0.120537 0.085798 0.055796
0.152108 0.110938 0.075382
0.183680 0.136078 0.094968
0.215251 0.161218 0.114554
0.246822 0.186358 0.134139
0.278393 0.211498 0.153725
0.309964 0.236638 0.173311
0.341535 0.261778 0.192897
0.373106 0.286918 0.212483
0.226745 0.170371 0.121684
0.258316 0.195511 0.141270
0.289887 0.220651 0.160856
0.321458 0.245791 0.180441
0.353029 0.270931 0.200027
0.384600 0.296070 0.219613
0.416171 0.321210 0.239199
0.447742 0.346350 0.258785
0.479313 0.371490 0.278370
0.332952 0.254943 0.187572
0.364523 0.280083 0.207158
0.396094 0.305223 0.226744
0.427665 0.330363 0.246329
0.459236 0.355503 0.265915
0.490807 0.380643 0.285501
0.522378 0.405783 0.305087
0.553949 0.430923 0.324672
0.585521 0.456063 0.344258
0.439159 0.339515 0.253460
0.470730 0.364655 0.273046
0.502301 0.389795 0.292631
0.533872 0.414935 0.312217
0.565443 0.440075 0.331803
0.597015 0.465215 0.351389
0.628586 0.490355 0.370974
0.660157 0.515495 0.390560
0.691728 0.540635 0.410146
0.545366 0.424088 0.319348
0.576937 0.449228 0.338933
0.608508 0.474368 0.358519
0.640080 0.499508 0.378105
0.671651 0.524648 0.397691
0.703222 0.549788 0.417276
0.734793 0.574928 0.436862
0.766364 0.600068 0.456448
0.797935 0.625207 0.476034
0.651573 0.508660 0.385235
0.683145 0.533800 0.404821
0.714716 0.558940 0.424407
0.746287 0.584080 0.443993
0.777858 0.609220 0.463578
0.809429 0.634360 0.483164
0.841000 0.659500 0.502750
0.872571 0.684640 0.522336
0.904142 0.709780 0.541922
0.757781 0.593233 0.451123
0.789352 0.618373 0.470709
0.820923 0.643513 0.490295
0.852494 0.668653 0.509880
0.884065 0.693793 0.529466
0.915636 0.718932 0.549052
0.947207 0.744072 0.568638
0.978778 0.769212 0.588224
1.000000 0.794352 0.607809
0.863988 0.677805 0.517011
0.895559 0.702945 0.536597
0.927130 0.728085 0.556183
0.958701 0.753225 0.575768
0.990272 0.778365 0.595354
1.000000 0.803505 0.614940
1.000000 0.828645 0.634526
1.000000 0.853785 0.654111
1.000000 0.878925 0.673697
0.025052 0.009764 0.000000
0.056623 0.034903 0.016146
0.088194 0.060043 0.035732
0.119765 0.085183 0.055317
0.151336 0.110323 0.074903
0.182907 0.135463 0.094489
0.214479 0.160603 0.114075
0.246050 0.185743 0.133660
0.277621 0.210883 0.153246
0.131259 0.094336 0.062448
0.162830 0.119476 0.082034
0.194401 0.144616 0.101619
0.225972 0.169756 0.121205
0.257543 0.194896 0.140791
0.289115 0.220036 0.160377
0.320686 0.245176 0.179962
0.352257 0.270316 0.199548
0.383828 0.295456 0.219134
0.237466 0.178908 0.128336
0.269037 0.204048 0.147921
0.300608 0.229188 0.167507
0.332180 0.254328 0.187093
0.363751 0.279468 0.206679
0.395322 0.304608 0.226264
0.426893 0.329748 0.245850
0.458464 0.354888 0.265436
0.490035 0.380028 0.285022
0.343673 0.263481 0.194223
0.375245 0.288621 0.213809
0.406816 0.313761 0.233395
0.438387 0.338901 0.252981
0.469958 0.364041 0.272566
0.501529 0.389180 0.292152
0.533100 0.414320 0.311738
0.564671 0.439460 0.331324
0.596242 0.464600 0.350910
0.449881 0.348053 0.260111
0.481452 0.373193 0.279697
0.513023 0.398333 0.299283
0.544594 0.423473 0.318868
0.576165 0.448613 0.338454
0.607736 0.473753 0.358040
0.639307 0.498893 0.377626
0.670878 0.524033 0.397212
0.702450 0.549173 0.416797
0.556088 0.432626 0.325999
0.587659 0.457765 0.345585
0.619230 0.482905 0.365171
0.650801 0.508045 0.384756
0.682372 0.533185 0.404342
0.713943 0.558325 0.423928
0.745514 0.583465 0.443514
0.777086 0.608605 0.463099
0.808657 0.633745 0.482685
0.662295 0.517198 0.391887
0.693866 0.542338 0.411473
0.725437 0.567478 0.431058
0.757008 0.592618 0.450644
0.788580 0.617758 0.470230
0.820151 0.642898 0.489816
0.851722 0.668038 0.509401
0.883293 0.693178 0.528987
0.914864 0.718318 0.548573
0.768502 0.601770 0.457775
0.800073 0.626910 0.477360
0.831644 0.652050 0.496946
0.863216 0.677190 0.516532
0.894787 0.702330 0.536118
0.926358 0.727470 0.555703
0.957929 0.752610 0.575289
0.989500 0.777750 0.594875
1.000000 0.802890 0.614461
0.874710 0.686343 0.523662
0.906281 0.711483 0.543248
0.937852 0.736623 0.562834
0.969423 0.761763 0.582420
1.000000 0.786903 0.602005
1.000000 0.812042 0.621591
1.000000 0.837182 0.641177
1.000000 0.862322 0.660763
1.000000 0.887462 0.680349
0.035774 0.018301 0.003211
0.067345 0.043441 0.022797
0.098916 0.068581 0.042383
0.130487 0.093721 0.061969
0.162058 0.118861 0.081554
0.193629 0.144001 0.101140
0.225200 0.169141 0.120726
0.256771 0.194281 0.140312
0.288342 0.219421 0.159898
0.141981 0.102874 0.069099
0.173552 0.128014 0.088685
0.205123 0.153153 0.108271
0.236694 0.178293 0.127857
0.268265 0.203433 0.147442
0.299836 0.228573 0.167028
0.331407 0.253713 0.186614
0.362978 0.278853 0.206200
0.394550 0.303993 0.225785
0.248188 0.187446 0.134987
0.279759 0.212586 0.154573
0.311330 0.237726 0.174159
0.342901 0.262866 0.193744
0.374472 0.288006 0.213330
0.406044 0.313146 0.232916
0.437615 0.338286 0.252502
0.469186 0.363426 0.272087
0.500757 0.388566 0.291673
0.354395 0.272018 0.200875
0.385966 0.297158 0.220461
0.417537 0.322298 0.240046
0.449109 0.347438 0.259632
0.480680 0.372578 0.279218
0.512251 0.397718 0.298804
0.543822 0.422858 0.318389
0.575393 0.447998 0.337975
0.606964 0.473138 0.357561
0.460602 0.356591 0.266763
0.492174 0.381731 0.286348
0.523745 0.406871 0.305934
0.555316 0.432011 0.325520
0.586887 0.457151 0.345106
0.618458 0.482291 0.364691
0.650029 0.507431 0.384277
0.681600 0.532570 0.403863
0.713171 0.557710 0.423449
0.566810 0.441163 0.332650
0.598381 0.466303 0.352236
0.629952 0.491443 0.371822
0.661523 0.516583 0.391408
0.693094 0.541723 0.410993
0.724665 0.566863 0.430579
0.756236 0.592003 0.450165
0.787807 0.617143 0.469751
0.819378 0.642283 0.489337
0.673017 0.525736 0.398538
0.704588 0.550876 0.418124
0.736159 0.576016 0.437710
0.767730 0.601155 0.457296
0.799301 0.626295 0.476881
0.830872 0.651435 0.496467
0.862443 0.676575 0.516053
0.894015 0.701715 0.535639
0.925586 0.726855 0.555224
0.779224 0.610308 0.464426
0.810795 0.635448 0.484012
0.842366 0.660588 0.503598
0.873937 0.685728 0.523183
0.905508 0.710868 0.542769
0.937080 0.736008 0.562355
0.968651 0.761148 0.581941
1.000000 0.786288 0.601526
1.000000 0.811428 0.621112
0.885431 0.694880 0.530314
0.917002 0.720020 0.549900
0.948573 0.745160 0.569485
0.980145 0.770300 0.589071
1.000000 0.795440 0.608657
1.000000 0.820580 0.628243
1.000000 0.845720 0.647828
1.000000 0.870860 0.667414
1.000000 0.896000 0.687000
