indra/newview/app_settings/luts/sepia.cube
TITLE "Sepia"
LUT_3D_SIZE 5
0.000000 0.000000 0.000000
0.013142 0.000280 0.000000
0.076284 0.050560 0.028343
0.139427 0.100840 0.067515
0.202569 0.151120 0.106686
0.162414 0.119145 0.081776
0.225557 0.169425 0.120947
0.288699 0.219705 0.160119
0.351841 0.269984 0.199290
0.414983 0.320264 0.238462
0.374829 0.288290 0.213551
0.437971 0.338569 0.252723
0.501113 0.388849 0.291894
0.564255 0.439129 0.331066
0.627398 0.489409 0.370237
0.587243 0.457434 0.345327
0.650385 0.507714 0.384498
0.713528 0.557994 0.423670
0.776670 0.608274 0.462841
0.839812 0.658554 0.502013
0.799658 0.626579 0.477102
0.862800 0.676859 0.516274
0.925942 0.727139 0.555445
0.989084 0.777419 0.594617
1.000000 0.827699 0.633789
0.000000 0.000000 0.000000
0.034586 0.017355 0.002474
0.097728 0.067635 0.041646
0.160870 0.117915 0.080817
0.224012 0.168195 0.119989
0.183858 0.136220 0.095078
0.247000 0.186500 0.134250
0.310142 0.236780 0.173422
0.373284 0.287060 0.212593
0.436427 0.337340 0.251765
0.396272 0.305365 0.226854
0.459414 0.355645 0.266026
0.522557 0.405925 0.305197
0.585699 0.456205 0.344369
0.648841 0.506485 0.383540
0.608687 0.474510 0.358630
0.671829 0.524790 0.397801
0.734971 0.575070 0.436973
0.798113 0.625349 0.476144
0.861255 0.675629 0.515316
0.821101 0.643654 0.490405
0.884243 0.693934 0.529577
0.947385 0.744214 0.568748
1.000000 0.794494 0.607920
1.000000 0.844774 0.647091
0.000000 0.000000 0.000000
0.056029 0.034430 0.015777
0.119171 0.084710 0.054949
0.182313 0.134990 0.094120
0.245456 0.185270 0.133292
0.205301 0.153295 0.108381
0.268443 0.203575 0.147553
0.331586 0.253855 0.186724
0.394728 0.304135 0.225896
0.457870 0.354415 0.265067
0.417716 0.322440 0.240157
0.480858 0.372720 0.279328
0.544000 0.423000 0.318500
0.607142 0.473280 0.357672
0.670284 0.523560 0.396843
0.630130 0.491585 0.371933
0.693272 0.541865 0.411104
0.756414 0.592145 0.450276
0.819557 0.642425 0.489447
0.882699 0.692705 0.528619
0.842544 0.660730 0.503708
0.905687 0.711010 0.542880
0.968829 0.761290 0.582051
1.000000 0.811570 0.621223
1.000000 0.861849 0.660394
0.014330 0.001226 0.000000
0.077472 0.051506 0.029080
0.140615 0.101786 0.068252
0.203757 0.152066 0.107423
0.266899 0.202346 0.146595
0.226745 0.170371 0.121684
0.289887 0.220651 0.160856
0.353029 0.270931 0.200027
0.416171 0.321210 0.239199
0.479313 0.371490 0.278370
0.439159 0.339515 0.253460
0.502301 0.389795 0.292631
0.565443 0.440075 0.331803
0.628586 0.490355 0.370974
0.691728 0.540635 0.410146
0.651573 0.508660 0.385235
0.714716 0.558940 0.424407
0.777858 0.609220 0.463578
0.841000 0.659500 0.502750
0.904142 0.709780 0.541922
0.863988 0.677805 0.517011
0.927130 0.728085 0.556183
0.990272 0.778365 0.595354
1.000000 0.828645 0.634526
1.000000 0.878925 0.673697
0.035774 0.018301 0.003211
0.098916 0.068581 0.042383
0.162058 0.118861 0.081554
0.225200 0.169141 0.120726
0.288342 0.219421 0.159898
0.248188 0.187446 0.134987
0.311330 0.237726 0.174159
0.374472 0.288006 0.213330
0.437615 0.338286 0.252502
0.500757 0.388566 0.291673
0.460602 0.356591 0.266763
0.523745 0.406871 0.305934
0.586887 0.457151 0.345106
0.650029 0.507431 0.384277
0.713171 0.557710 0.423449
0.673017 0.525736 0.398538
0.736159 0.576016 0.437710
0.799301 0.626295 0.476881
0.862443 0.676575 0.516053
0.925586 0.726855 0.555224
0.885431 0.694880 0.530314
0.948573 0.745160 0.569485
1.000000 0.795440 0.608657
1.000000 0.845720 0.647828
1.000000 0.896000 0.687000
