indra/newview/app_settings/luts/sepia.cube
TITLE "Sepia"
LUT_3D_SIZE 33
0.000000 0.000000 0.000000
0.000000 0.000000 0.000000
0.000000 0.000000 0.000000
0.000000 0.000000 0.000000
0.000000 0.000000 0.000000
0.000000 0.000000 0.000000
0.000000 0.000000 0.000000
0.005249 0.000000 0.000000
0.013142 0.000280 0.000000
0.021035 0.006565 0.000000
0.028928 0.012850 0.000000
0.036821 0.019135 0.003861
0.044713 0.025420 0.008757
0.052606 0.031705 0.013654
0.060499 0.037990 0.018550
0.068392 0.044275 0.023447
0.076284 0.050560 0.028343
0.084177 0.056845 0.033240
0.092070 0.063130 0.038136
0.099963 0.069415 0.043032
0.107855 0.075700 0.047929
0.115748 0.081985 0.052825
0.123641 0.088270 0.057722
0.131534 0.094555 0.062618
0.139427 0.100840 0.067515
0.147319 0.107125 0.072411
0.155212 0.113410 0.077308
0.163105 0.119695 0.082204
0.170998 0.125980 0.087100
0.178890 0.132265 0.091997
0.186783 0.138550 0.096893
0.194676 0.144835 0.101790
0.202569 0.151120 0.106686
0.000000 0.000000 0.000000
0.000000 0.000000 0.000000
0.000000 0.000000 0.000000
0.000230 0.000000 0.000000
0.008123 0.000000 0.000000
0.016016 0.002568 0.000000
0.023908 0.008853 0.000000
0.031801 0.015138 0.000747
0.039694 0.021423 0.005643
0.047587 0.027708 0.010540
0.055480 0.033993 0.015436
0.063372 0.040278 0.020333
0.071265 0.046563 0.025229
0.079158 0.052848 0.030126
0.087051 0.059133 0.035022
0.094943 0.065418 0.039919
0.102836 0.071703 0.044815
0.110729 0.077988 0.049711
0.118622 0.084273 0.054608
0.126515 0.090558 0.059504
0.134407 0.096843 0.064401
0.142300 0.103128 0.069297
0.150193 0.109413 0.074194
0.158086 0.115698 0.079090
0.165978 0.121983 0.083987
0.173871 0.128268 0.088883
0.181764 0.134553 0.093779
0.189657 0.140838 0.098676
0.197550 0.147123 0.103572
0.205442 0.153408 0.108469
0.213335 0.159693 0.113365
0.221228 0.165978 0.118262
0.229121 0.172263 0.123158
0.003104 0.000000 0.000000
0.010996 0.000000 0.000000
0.018889 0.004856 0.000000
0.026782 0.011141 0.000000
0.034675 0.017426 0.002530
0.042567 0.023711 0.007426
0.050460 0.029996 0.012323
0.058353 0.036281 0.017219
0.066246 0.042566 0.022115
0.074139 0.048851 0.027012
0.082031 0.055136 0.031908
0.089924 0.061421 0.036805
0.097817 0.067706 0.041701
0.105710 0.073991 0.046598
0.113602 0.080276 0.051494
0.121495 0.086561 0.056391
0.129388 0.092846 0.061287
0.137281 0.099131 0.066183
0.145174 0.105416 0.071080
0.153066 0.111701 0.075976
0.160959 0.117986 0.080873
0.168852 0.124271 0.085769
0.176745 0.130556 0.090666
0.184637 0.136841 0.095562
0.192530 0.143126 0.100459
0.200423 0.149411 0.105355
0.208316 0.155696 0.110251
0.216209 0.161981 0.115148
0.224101 0.168266 0.120044
0.231994 0.174551 0.124941
0.239887 0.180836 0.129837
0.247780 0.187121 0.134734
0.255672 0.193406 0.139630
0.029655 0.013429 0.000000
0.037548 0.019714 0.004312
0.045441 0.025999 0.009209
0.053334 0.032284 0.014105
0.061226 0.038569 0.019002
0.069119 0.044854 0.023898
0.077012 0.051139 0.028795
0.084905 0.057424 0.033691
0.092798 0.063709 0.038587
0.100690 0.069994 0.043484
0.108583 0.076279 0.048380
0.116476 0.082564 0.053277
0.124369 0.088849 0.058173
0.132261 0.095134 0.063070
0.140154 0.101419 0.067966
0.148047 0.107704 0.072863
0.155940 0.113989 0.077759
0.163833 0.120274 0.082655
0.171725 0.126559 0.087552
0.179618 0.132844 0.092448
0.187511 0.139129 0.097345
0.195404 0.145414 0.102241
0.203296 0.151699 0.107138
0.211189 0.157984 0.112034
0.219082 0.164269 0.116930
0.226975 0.170554 0.121827
0.234868 0.176839 0.126723
0.242760 0.183124 0.131620
0.250653 0.189409 0.136516
0.258546 0.195694 0.141413
0.266439 0.201979 0.146309
0.274331 0.208264 0.151206
0.282224 0.214549 0.156102
0.056207 0.034572 0.015888
0.064100 0.040857 0.020784
0.071993 0.047142 0.025681
0.079886 0.053427 0.030577
0.087778 0.059712 0.035474
0.095671 0.065997 0.040370
0.103564 0.072282 0.045266
0.111457 0.078567 0.050163
0.119349 0.084852 0.055059
0.127242 0.091137 0.059956
0.135135 0.097422 0.064852
0.143028 0.103707 0.069749
0.150920 0.109992 0.074645
0.158813 0.116277 0.079542
0.166706 0.122562 0.084438
0.174599 0.128847 0.089334
0.182492 0.135132 0.094231
0.190384 0.141417 0.099127
0.198277 0.147702 0.104024
0.206170 0.153987 0.108920
0.214063 0.160272 0.113817
0.221955 0.166557 0.118713
0.229848 0.172842 0.123610
0.237741 0.179127 0.128506
0.245634 0.185412 0.133402
0.253527 0.191697 0.138299
0.261419 0.197982 0.143195
0.269312 0.204267 0.148092
0.277205 0.210552 0.152988
0.285098 0.216837 0.157885
0.292990 0.223122 0.162781
0.300883 0.229407 0.167678
0.308776 0.235692 0.172574
0.082759 0.055715 0.032360
0.090652 0.062000 0.037256
0.098545 0.068285 0.042153
0.106437 0.074570 0.047049
0.114330 0.080855 0.051946
0.122223 0.087140 0.056842
0.130116 0.093425 0.061738
0.138008 0.099710 0.066635
0.145901 0.105995 0.071531
0.153794 0.112280 0.076428
0.161687 0.118565 0.081324
0.169580 0.124850 0.086221
0.177472 0.131135 0.091117
0.185365 0.137420 0.096014
0.193258 0.143705 0.100910
0.201151 0.149990 0.105806
0.209043 0.156275 0.110703
0.216936 0.162560 0.115599
0.224829 0.168845 0.120496
0.232722 0.175130 0.125392
0.240615 0.181415 0.130289
0.248507 0.187700 0.135185
0.256400 0.193985 0.140082
0.264293 0.200270 0.144978
0.272186 0.206555 0.149874
0.280078 0.212840 0.154771
0.287971 0.219125 0.159667
0.295864 0.225410 0.164564
0.303757 0.231695 0.169460
0.311649 0.237980 0.174357
0.319542 0.244265 0.179253
0.327435 0.250550 0.184150
0.335328 0.256835 0.189046
0.109311 0.076859 0.048832
0.117204 0.083144 0.053728
0.125096 0.089429 0.058625
0.132989 0.095714 0.063521
0.140882 0.101999 0.068417
0.148775 0.108284 0.073314
0.156667 0.114569 0.078210
0.164560 0.120854 0.083107
0.172453 0.127138 0.088003
0.180346 0.133423 0.092900
0.188239 0.139708 0.097796
0.196131 0.145993 0.102693
0.204024 0.152278 0.107589
0.211917 0.158563 0.112485
0.219810 0.164848 0.117382
0.227702 0.171133 0.122278
0.235595 0.177418 0.127175
0.243488 0.183703 0.132071
0.251381 0.189988 0.136968
0.259274 0.196273 0.141864
0.267166 0.202558 0.146761
0.275059 0.208843 0.151657
0.282952 0.215128 0.156553
0.290845 0.221413 0.161450
0.298737 0.227698 0.166346
0.306630 0.233983 0.171243
0.314523 0.240268 0.176139
0.322416 0.246553 0.181036
0.330309 0.252838 0.185932
0.338201 0.259123 0.190829
0.346094 0.265408 0.195725
0.353987 0.271693 0.200621
0.361880 0.277978 0.205518
0.135863 0.098002 0.065304
0.143755 0.104287 0.070200
0.151648 0.110572 0.075097
0.159541 0.116857 0.079993
0.167434 0.123142 0.084889
0.175326 0.129427 0.089786
0.183219 0.135712 0.094682
0.191112 0.141997 0.099579
0.199005 0.148282 0.104475
0.206898 0.154567 0.109372
0.214790 0.160852 0.114268
0.222683 0.167137 0.119165
0.230576 0.173422 0.124061
0.238469 0.179707 0.128957
0.246361 0.185992 0.133854
0.254254 0.192277 0.138750
0.262147 0.198561 0.143647
0.270040 0.204846 0.148543
0.277933 0.211131 0.153440
0.285825 0.217416 0.158336
0.293718 0.223701 0.163233
0.301611 0.229986 0.168129
0.309504 0.236271 0.173025
0.317396 0.242556 0.177922
0.325289 0.248841 0.182818
0.333182 0.255126 0.187715
0.341075 0.261411 0.192611
0.348968 0.267696 0.197508
0.356860 0.273981 0.202404
0.364753 0.280266 0.207301
0.372646 0.286551 0.212197
0.380539 0.292836 0.217093
0.388431 0.299121 0.221990
0.162414 0.119145 0.081776
0.170307 0.125430 0.086672
0.178200 0.131715 0.091568
0.186093 0.138000 0.096465
0.193985 0.144285 0.101361
0.201878 0.150570 0.106258
0.209771 0.156855 0.111154
0.217664 0.163140 0.116051
0.225557 0.169425 0.120947
0.233449 0.175710 0.125844
0.241342 0.181995 0.130740
0.249235 0.188280 0.135636
0.257128 0.194565 0.140533
0.265020 0.200850 0.145429
0.272913 0.207135 0.150326
0.280806 0.213420 0.155222
0.288699 0.219705 0.160119
0.296592 0.225990 0.165015
0.304484 0.232275 0.169912
0.312377 0.238560 0.174808
0.320270 0.244845 0.179704
0.328163 0.251130 0.184601
0.336055 0.257415 0.189497
0.343948 0.263700 0.194394
0.351841 0.269984 0.199290
0.359734 0.276269 0.204187
0.367627 0.282554 0.209083
0.375519 0.288839 0.213980
0.383412 0.295124 0.218876
0.391305 0.301409 0.223772
0.399198 0.307694 0.228669
0.407090 0.313979 0.233565
0.414983 0.320264 0.238462
0.188966 0.140288 0.098248
0.196859 0.146573 0.103144
0.204752 0.152858 0.108040
0.212645 0.159143 0.112937
0.220537 0.165428 0.117833
0.228430 0.171713 0.122730
0.236323 0.177998 0.127626
0.244216 0.184283 0.132523
0.252108 0.190568 0.137419
0.260001 0.196853 0.142316
0.267894 0.203138 0.147212
0.275787 0.209423 0.152108
0.283680 0.215708 0.157005
0.291572 0.221993 0.161901
0.299465 0.228278 0.166798
0.307358 0.234563 0.171694
0.315251 0.240848 0.176591
0.323143 0.247133 0.181487
0.331036 0.253418 0.186384
0.338929 0.259703 0.191280
0.346822 0.265988 0.196176
0.354714 0.272273 0.201073
0.362607 0.278558 0.205969
0.370500 0.284843 0.210866
0.378393 0.291128 0.215762
0.386286 0.297413 0.220659
0.394178 0.303698 0.225555
0.402071 0.309983 0.230452
0.409964 0.316268 0.235348
0.417857 0.322553 0.240244
0.425749 0.328838 0.245141
0.433642 0.335123 0.250037
0.441535 0.341407 0.254934
0.215518 0.161431 0.114719
0.223411 0.167716 0.119616
0.231304 0.174001 0.124512
0.239196 0.180286 0.129409
0.247089 0.186571 0.134305
0.254982 0.192856 0.139202
0.262875 0.199141 0.144098
0.270767 0.205426 0.148995
0.278660 0.211711 0.153891
0.286553 0.217996 0.158787
0.294446 0.224281 0.163684
0.302339 0.230566 0.168580
0.310231 0.236851 0.173477
0.318124 0.243136 0.178373
0.326017 0.249421 0.183270
0.333910 0.255706 0.188166
0.341802 0.261991 0.193063
0.349695 0.268276 0.197959
0.357588 0.274561 0.202855
0.365481 0.280846 0.207752
0.373374 0.287131 0.212648
0.381266 0.293416 0.217545
0.389159 0.299701 0.222441
0.397052 0.305986 0.227338
0.404945 0.312271 0.232234
0.412837 0.318556 0.237131
0.420730 0.324841 0.242027
0.428623 0.331126 0.246923
0.436516 0.337411 0.251820
0.444408 0.343696 0.256716
0.452301 0.349981 0.261613
0.460194 0.356266 0.266509
0.468087 0.362551 0.271406
0.242070 0.182574 0.131191
0.249963 0.188859 0.136088
0.257855 0.195144 0.140984
0.265748 0.201429 0.145881
0.273641 0.207714 0.150777
0.281534 0.213999 0.155674
0.289426 0.220284 0.160570
0.297319 0.226569 0.165467
0.305212 0.232854 0.170363
0.313105 0.239139 0.175259
0.320998 0.245424 0.180156
0.328890 0.251709 0.185052
0.336783 0.257994 0.189949
0.344676 0.264279 0.194845
0.352569 0.270564 0.199742
0.360461 0.276849 0.204638
0.368354 0.283134 0.209535
0.376247 0.289419 0.214431
0.384140 0.295704 0.219327
0.392033 0.301989 0.224224
0.399925 0.308274 0.229120
0.407818 0.314559 0.234017
0.415711 0.320844 0.238913
0.423604 0.327129 0.243810
0.431496 0.333414 0.248706
0.439389 0.339699 0.253603
0.447282 0.345984 0.258499
0.455175 0.352269 0.263395
0.463068 0.358554 0.268292
0.470960 0.364839 0.273188
0.478853 0.371124 0.278085
0.486746 0.377409 0.282981
0.494639 0.383694 0.287878
0.268622 0.203717 0.147663
0.276514 0.210002 0.152560
0.284407 0.216287 0.157456
0.292300 0.222572 0.162353
0.300193 0.228857 0.167249
0.308085 0.235142 0.172146
0.315978 0.241427 0.177042
0.323871 0.247712 0.181939
0.331764 0.253997 0.186835
0.339657 0.260282 0.191731
0.347549 0.266567 0.196628
0.355442 0.272852 0.201524
0.363335 0.279137 0.206421
0.371228 0.285422 0.211317
0.379120 0.291707 0.216214
0.387013 0.297992 0.221110
0.394906 0.304277 0.226006
0.402799 0.310562 0.230903
0.410692 0.316847 0.235799
0.418584 0.323132 0.240696
0.426477 0.329417 0.245592
0.434370 0.335702 0.250489
0.442263 0.341987 0.255385
0.450155 0.348272 0.260282
0.458048 0.354557 0.265178
0.465941 0.360842 0.270074
0.473834 0.367127 0.274971
0.481727 0.373412 0.279867
0.489619 0.379697 0.284764
0.497512 0.385982 0.289660
0.505405 0.392267 0.294557
0.513298 0.398552 0.299453
0.521190 0.404837 0.304350
0.295173 0.224860 0.164135
0.303066 0.231145 0.169032
0.310959 0.237430 0.173928
0.318852 0.243715 0.178825
0.326744 0.250000 0.183721
0.334637 0.256285 0.188618
0.342530 0.262570 0.193514
0.350423 0.268855 0.198410
0.358316 0.275140 0.203307
0.366208 0.281425 0.208203
0.374101 0.287710 0.213100
0.381994 0.293995 0.217996
0.389887 0.300280 0.222893
0.397779 0.306565 0.227789
0.405672 0.312850 0.232686
0.413565 0.319135 0.237582
0.421458 0.325420 0.242478
0.429351 0.331705 0.247375
0.437243 0.337990 0.252271
0.445136 0.344275 0.257168
0.453029 0.350560 0.262064
0.460922 0.356845 0.266961
0.468814 0.363130 0.271857
0.476707 0.369415 0.276754
0.484600 0.375700 0.281650
0.492493 0.381985 0.286546
0.500386 0.388270 0.291443
0.508278 0.394555 0.296339
0.516171 0.400840 0.301236
0.524064 0.407125 0.306132
0.531957 0.413410 0.311029
0.539849 0.419695 0.315925
0.547742 0.425980 0.320822
0.321725 0.246003 0.180607
0.329618 0.252288 0.185504
0.337511 0.258573 0.190400
0.345404 0.264858 0.195297
0.353296 0.271143 0.200193
0.361189 0.277428 0.205090
0.369082 0.283713 0.209986
0.376975 0.289998 0.214882
0.384867 0.296283 0.219779
0.392760 0.302568 0.224675
0.400653 0.308853 0.229572
0.408546 0.315138 0.234468
0.416438 0.321423 0.239365
0.424331 0.327708 0.244261
0.432224 0.333993 0.249158
0.440117 0.340278 0.254054
0.448010 0.346563 0.258950
0.455902 0.352848 0.263847
0.463795 0.359133 0.268743
0.471688 0.365418 0.273640
0.479581 0.371703 0.278536
0.487473 0.377988 0.283433
0.495366 0.384273 0.288329
0.503259 0.390558 0.293226
0.511152 0.396843 0.298122
0.519045 0.403128 0.303018
0.526937 0.409413 0.307915
0.534830 0.415698 0.312811
0.542723 0.421983 0.317708
0.550616 0.428268 0.322604
0.558508 0.434553 0.327501
0.566401 0.440838 0.332397
0.574294 0.447123 0.337293
0.348277 0.267146 0.197079
0.356170 0.273431 0.201976
0.364063 0.279716 0.206872
0.371955 0.286001 0.211769
0.379848 0.292286 0.216665
0.387741 0.298571 0.221561
0.395634 0.304856 0.226458
0.403526 0.311141 0.231354
0.411419 0.317426 0.236251
0.419312 0.323711 0.241147
0.427205 0.329996 0.246044
0.435098 0.336281 0.250940
0.442990 0.342566 0.255837
0.450883 0.348851 0.260733
0.458776 0.355136 0.265629
0.466669 0.361421 0.270526
0.474561 0.367706 0.275422
0.482454 0.373991 0.280319
0.490347 0.380276 0.285215
0.498240 0.386561 0.290112
0.506132 0.392846 0.295008
0.514025 0.399131 0.299905
0.521918 0.405416 0.304801
0.529811 0.411701 0.309697
0.537704 0.417986 0.314594
0.545596 0.424271 0.319490
0.553489 0.430556 0.324387
0.561382 0.436841 0.329283
0.569275 0.443126 0.334180
0.577167 0.449411 0.339076
0.585060 0.455696 0.343973
0.592953 0.461981 0.348869
0.600846 0.468266 0.353765
0.374829 0.288290 0.213551
0.382722 0.294575 0.218448
0.390614 0.300860 0.223344
0.398507 0.307145 0.228241
0.406400 0.313430 0.233137
0.414293 0.319715 0.238033
0.422185 0.326000 0.242930
0.430078 0.332285 0.247826
0.437971 0.338569 0.252723
0.445864 0.344854 0.257619
0.453757 0.351139 0.262516
0.461649 0.357424 0.267412
0.469542 0.363709 0.272309
0.477435 0.369994 0.277205
0.485328 0.376279 0.282101
0.493220 0.382564 0.286998
0.501113 0.388849 0.291894
0.509006 0.395134 0.296791
0.516899 0.401419 0.301687
0.524792 0.407704 0.306584
0.532684 0.413989 0.311480
0.540577 0.420274 0.316377
0.548470 0.426559 0.321273
0.556363 0.432844 0.326169
0.564255 0.439129 0.331066
0.572148 0.445414 0.335962
0.580041 0.451699 0.340859
0.587934 0.457984 0.345755
0.595827 0.464269 0.350652
0.603719 0.470554 0.355548
0.611612 0.476839 0.360445
0.619505 0.483124 0.365341
0.627398 0.489409 0.370237
0.401381 0.309433 0.230023
0.409273 0.315718 0.234920
0.417166 0.322003 0.239816
0.425059 0.328288 0.244712
0.432952 0.334573 0.249609
0.440844 0.340858 0.254505
0.448737 0.347143 0.259402
0.456630 0.353428 0.264298
0.464523 0.359713 0.269195
0.472416 0.365998 0.274091
0.480308 0.372283 0.278988
0.488201 0.378568 0.283884
0.496094 0.384853 0.288780
0.503987 0.391138 0.293677
0.511879 0.397423 0.298573
0.519772 0.403708 0.303470
0.527665 0.409992 0.308366
0.535558 0.416277 0.313263
0.543451 0.422562 0.318159
0.551343 0.428847 0.323056
0.559236 0.435132 0.327952
0.567129 0.441417 0.332848
0.575022 0.447702 0.337745
0.582914 0.453987 0.342641
0.590807 0.460272 0.347538
0.598700 0.466557 0.352434
0.606593 0.472842 0.357331
0.614486 0.479127 0.362227
0.622378 0.485412 0.367124
0.630271 0.491697 0.372020
0.638164 0.497982 0.376916
0.646057 0.504267 0.381813
0.653949 0.510552 0.386709
0.427932 0.330576 0.246495
0.435825 0.336861 0.251392
0.443718 0.343146 0.256288
0.451611 0.349431 0.261184
0.459504 0.355716 0.266081
0.467396 0.362001 0.270977
0.475289 0.368286 0.275874
0.483182 0.374571 0.280770
0.491075 0.380856 0.285667
0.498967 0.387141 0.290563
0.506860 0.393426 0.295460
0.514753 0.399711 0.300356
0.522646 0.405996 0.305252
0.530538 0.412281 0.310149
0.538431 0.418566 0.315045
0.546324 0.424851 0.319942
0.554217 0.431136 0.324838
0.562110 0.437421 0.329735
0.570002 0.443706 0.334631
0.577895 0.449991 0.339528
0.585788 0.456276 0.344424
0.593681 0.462561 0.349320
0.601573 0.468846 0.354217
0.609466 0.475131 0.359113
0.617359 0.481415 0.364010
0.625252 0.487700 0.368906
0.633145 0.493985 0.373803
0.641037 0.500270 0.378699
0.648930 0.506555 0.383596
0.656823 0.512840 0.388492
0.664716 0.519125 0.393388
0.672608 0.525410 0.398285
0.680501 0.531695 0.403181
0.454484 0.351719 0.262967
0.462377 0.358004 0.267863
0.470270 0.364289 0.272760
0.478163 0.370574 0.277656
0.486055 0.376859 0.282553
0.493948 0.383144 0.287449
0.501841 0.389429 0.292346
0.509734 0.395714 0.297242
0.517626 0.401999 0.302139
0.525519 0.408284 0.307035
0.533412 0.414569 0.311931
0.541305 0.420854 0.316828
0.549198 0.427139 0.321724
0.557090 0.433424 0.326621
0.564983 0.439709 0.331517
0.572876 0.445994 0.336414
0.580769 0.452279 0.341310
0.588661 0.458564 0.346207
0.596554 0.464849 0.351103
0.604447 0.471134 0.355999
0.612340 0.477419 0.360896
0.620232 0.483704 0.365792
0.628125 0.489989 0.370689
0.636018 0.496274 0.375585
0.643911 0.502559 0.380482
0.651804 0.508844 0.385378
0.659696 0.515129 0.390275
0.667589 0.521414 0.395171
0.675482 0.527699 0.400067
0.683375 0.533984 0.404964
0.691267 0.540269 0.409860
0.699160 0.546554 0.414757
0.707053 0.552838 0.419653
0.481036 0.372862 0.279439
0.488929 0.379147 0.284335
0.496822 0.385432 0.289232
0.504714 0.391717 0.294128
0.512607 0.398002 0.299025
0.520500 0.404287 0.303921
0.528393 0.410572 0.308818
0.536285 0.416857 0.313714
0.544178 0.423142 0.318611
0.552071 0.429427 0.323507
0.559964 0.435712 0.328403
0.567857 0.441997 0.333300
0.575749 0.448282 0.338196
0.583642 0.454567 0.343093
0.591535 0.460852 0.347989
0.599428 0.467137 0.352886
0.607320 0.473422 0.357782
0.615213 0.479707 0.362679
0.623106 0.485992 0.367575
0.630999 0.492277 0.372471
0.638891 0.498562 0.377368
0.646784 0.504847 0.382264
0.654677 0.511132 0.387161
0.662570 0.517417 0.392057
0.670463 0.523702 0.396954
0.678355 0.529987 0.401850
0.686248 0.536272 0.406747
0.694141 0.542557 0.411643
0.702034 0.548842 0.416539
0.709926 0.555127 0.421436
0.717819 0.561412 0.426332
0.725712 0.567697 0.431229
0.733605 0.573982 0.436125
0.507588 0.394005 0.295911
0.515481 0.400290 0.300807
0.523373 0.406575 0.305704
0.531266 0.412860 0.310600
0.539159 0.419145 0.315497
0.547052 0.425430 0.320393
0.554944 0.431715 0.325290
0.562837 0.438000 0.330186
0.570730 0.444285 0.335082
0.578623 0.450570 0.339979
0.586516 0.456855 0.344875
0.594408 0.463140 0.349772
0.602301 0.469425 0.354668
0.610194 0.475710 0.359565
0.618087 0.481995 0.364461
0.625979 0.488280 0.369358
0.633872 0.494565 0.374254
0.641765 0.500850 0.379150
0.649658 0.507135 0.384047
0.657551 0.513420 0.388943
0.665443 0.519705 0.393840
0.673336 0.525990 0.398736
0.681229 0.532275 0.403633
0.689122 0.538560 0.408529
0.697014 0.544845 0.413426
0.704907 0.551130 0.418322
0.712800 0.557415 0.423218
0.720693 0.563700 0.428115
0.728586 0.569985 0.433011
0.736478 0.576270 0.437908
0.744371 0.582555 0.442804
0.752264 0.588840 0.447701
0.760157 0.595125 0.452597
0.534140 0.415148 0.312383
0.542032 0.421433 0.317279
0.549925 0.427718 0.322176
0.557818 0.434003 0.327072
0.565711 0.440288 0.331969
0.573603 0.446573 0.336865
0.581496 0.452858 0.341762
0.589389 0.459143 0.346658
0.597282 0.465428 0.351554
0.605175 0.471713 0.356451
0.613067 0.477998 0.361347
0.620960 0.484283 0.366244
0.628853 0.490568 0.371140
0.636746 0.496853 0.376037
0.644638 0.503138 0.380933
0.652531 0.509423 0.385830
0.660424 0.515708 0.390726
0.668317 0.521993 0.395622
0.676210 0.528278 0.400519
0.684102 0.534563 0.405415
0.691995 0.540848 0.410312
0.699888 0.547133 0.415208
0.707781 0.553418 0.420105
0.715673 0.559703 0.425001
0.723566 0.565988 0.429898
0.731459 0.572273 0.434794
0.739352 0.578558 0.439690
0.747245 0.584843 0.444587
0.755137 0.591128 0.449483
0.763030 0.597413 0.454380
0.770923 0.603698 0.459276
0.778816 0.609983 0.464173
0.786708 0.616268 0.469069
0.560691 0.436291 0.328855
0.568584 0.442576 0.333751
0.576477 0.448861 0.338648
0.584370 0.455146 0.343544
0.592263 0.461431 0.348441
0.600155 0.467716 0.353337
0.608048 0.474001 0.358234
0.615941 0.480286 0.363130
0.623834 0.486571 0.368026
0.631726 0.492856 0.372923
0.639619 0.499141 0.377819
0.647512 0.505426 0.382716
0.655405 0.511711 0.387612
0.663297 0.517996 0.392509
0.671190 0.524281 0.397405
0.679083 0.530566 0.402302
0.686976 0.536851 0.407198
0.694869 0.543136 0.412094
0.702761 0.549421 0.416991
0.710654 0.555706 0.421887
0.718547 0.561991 0.426784
0.726440 0.568276 0.431680
0.734332 0.574561 0.436577
0.742225 0.580846 0.441473
0.750118 0.587131 0.446369
0.758011 0.593416 0.451266
0.765904 0.599701 0.456162
0.773796 0.605986 0.461059
0.781689 0.612271 0.465955
0.789582 0.618556 0.470852
0.797475 0.624841 0.475748
0.805367 0.631126 0.480645
0.813260 0.637411 0.485541
0.587243 0.457434 0.345327
0.595136 0.463719 0.350223
0.603029 0.470004 0.355120
0.610922 0.476289 0.360016
0.618814 0.482574 0.364913
0.626707 0.488859 0.369809
0.634600 0.495144 0.374705
0.642493 0.501429 0.379602
0.650385 0.507714 0.384498
0.658278 0.513999 0.389395
0.666171 0.520284 0.394291
0.674064 0.526569 0.399188
0.681957 0.532854 0.404084
0.689849 0.539139 0.408981
0.697742 0.545424 0.413877
0.705635 0.551709 0.418773
0.713528 0.557994 0.423670
0.721420 0.564279 0.428566
0.729313 0.570564 0.433463
0.737206 0.576849 0.438359
0.745099 0.583134 0.443256
0.752991 0.589419 0.448152
0.760884 0.595704 0.453049
0.768777 0.601989 0.457945
0.776670 0.608274 0.462841
0.784563 0.614559 0.467738
0.792455 0.620844 0.472634
0.800348 0.627129 0.477531
0.808241 0.633414 0.482427
0.816134 0.639699 0.487324
0.824026 0.645984 0.492220
0.831919 0.652269 0.497117
0.839812 0.658554 0.502013
0.613795 0.478577 0.361799
0.621688 0.484862 0.366695
0.629581 0.491147 0.371592
0.637473 0.497432 0.376488
0.645366 0.503717 0.381385
0.653259 0.510002 0.386281
0.661152 0.516287 0.391177
0.669044 0.522572 0.396074
0.676937 0.528857 0.400970
0.684830 0.535142 0.405867
0.692723 0.541427 0.410763
0.700616 0.547712 0.415660
0.708508 0.553997 0.420556
0.716401 0.560282 0.425453
0.724294 0.566567 0.430349
0.732187 0.572852 0.435245
0.740079 0.579137 0.440142
0.747972 0.585422 0.445038
0.755865 0.591707 0.449935
0.763758 0.597992 0.454831
0.771651 0.604277 0.459728
0.779543 0.610562 0.464624
0.787436 0.616847 0.469521
0.795329 0.623132 0.474417
0.803222 0.629417 0.479313
0.811114 0.635702 0.484210
0.819007 0.641987 0.489106
0.826900 0.648272 0.494003
0.834793 0.654557 0.498899
0.842685 0.660842 0.503796
0.850578 0.667127 0.508692
0.858471 0.673412 0.513589
0.866364 0.679697 0.518485
0.640347 0.499721 0.378271
0.648240 0.506006 0.383167
0.656132 0.512291 0.388064
0.664025 0.518576 0.392960
0.671918 0.524861 0.397856
0.679811 0.531146 0.402753
0.687703 0.537431 0.407649
0.695596 0.543716 0.412546
0.703489 0.550001 0.417442
0.711382 0.556285 0.422339
0.719275 0.562570 0.427235
0.727167 0.568855 0.432132
0.735060 0.575140 0.437028
0.742953 0.581425 0.441924
0.750846 0.587710 0.446821
0.758738 0.593995 0.451717
0.766631 0.600280 0.456614
0.774524 0.606565 0.461510
0.782417 0.612850 0.466407
0.790310 0.619135 0.471303
0.798202 0.625420 0.476200
0.806095 0.631705 0.481096
0.813988 0.637990 0.485992
0.821881 0.644275 0.490889
0.829773 0.650560 0.495785
0.837666 0.656845 0.500682
0.845559 0.663130 0.505578
0.853452 0.669415 0.510475
0.861344 0.675700 0.515371
