indra/newview/app_settings/luts/teal_orange.cube
TITLE "Teal and Orange"
LUT_3D_SIZE 9
0.000000 0.000000 0.000000
0.048334 0.000000 0.000000
0.173959 0.000000 0.000000
0.301877 0.000000 0.000000
0.432087 0.000000 0.000000
0.564589 0.000000 0.000000
0.699383 0.000000 0.000000
0.836469 0.000000 0.000000
0.975847 0.000000 0.000000
0.000000 0.075552 0.000000
0.052189 0.075437 0.000000
0.181670 0.075323 0.000000
0.313443 0.075208 0.000000
0.447508 0.075094 0.000000
0.583866 0.074979 0.000000
0.722515 0.074864 0.000000
0.863456 0.074750 0.000000
1.000000 0.074635 0.000000
0.000000 0.225333 0.000000
0.056044 0.225104 0.000000
0.189381 0.224874 0.000000
0.325009 0.224645 0.000000
0.462930 0.224416 0.000000
0.603142 0.224187 0.000000
0.745647 0.223958 0.000000
0.890444 0.223728 0.000000
1.000000 0.223499 0.000000
0.000000 0.374343 0.000000
0.059900 0.373999 0.000000
0.197091 0.373655 0.000000
0.336575 0.373311 0.000000
0.478351 0.372967 0.000000
0.622419 0.372624 0.000000
0.768779 0.372280 0.000000
0.917432 0.371936 0.000000
1.000000 0.371592 0.000000
0.000000 0.522581 0.000000
0.063755 0.522123 0.000000
0.204802 0.521665 0.000000
0.348141 0.521206 0.000000
0.493773 0.520748 0.000000
0.641696 0.520289 0.000000
0.791912 0.519831 0.000000
0.944419 0.519372 0.000000
1.000000 0.518914 0.000000
0.000000 0.670049 0.000000
0.067610 0.669476 0.000000
0.212513 0.668903 0.000000
0.359708 0.668330 0.000000
0.509194 0.667757 0.000000
0.660973 0.667184 0.000000
0.815044 0.666611 0.000000
0.971407 0.666038 0.000000
1.000000 0.665465 0.000000
0.000000 0.816746 0.000000
0.071466 0.816058 0.000000
0.220224 0.815370 0.000000
0.371274 0.814683 0.000000
0.524616 0.813995 0.000000
0.680250 0.813308 0.000000
0.838176 0.812620 0.000000
0.998395 0.811932 0.000000
1.000000 0.811245 0.000000
0.000000 0.962671 0.000000
0.075321 0.961869 0.000000
0.227934 0.961067 0.000000
0.382840 0.960264 0.000000
0.540037 0.959462 0.000000
0.699527 0.958660 0.000000
0.861308 0.957858 0.000000
1.000000 0.957056 0.000000
1.000000 0.956253 0.000000
0.000000 1.000000 0.000000
0.079177 1.000000 0.000000
0.235645 1.000000 0.000000
0.394406 1.000000 0.000000
0.555459 1.000000 0.000000
0.718804 1.000000 0.000000
0.884441 1.000000 0.000000
1.000000 1.000000 0.000000
1.000000 1.000000 0.000000
0.000000 0.000000 0.096981
0.048723 0.000000 0.095453
0.174738 0.000000 0.093925
0.303045 0.000000 0.092397
0.433644 0.000000 0.090869
0.566535 0.000000 0.089341
0.701718 0.000000 0.087813
0.839193 0.000000 0.086285
0.978961 0.000000 0.084757
0.000000 0.075513 0.091841
0.052578 0.075398 0.090313
0.182448 0.075284 0.088784
0.314611 0.075169 0.087256
0.449065 0.075055 0.085728
0.585812 0.074940 0.084200
0.724850 0.074825 0.082672
0.866181 0.074711 0.081144
1.000000 0.074596 0.079616
0.000000 0.225255 0.086700
0.056434 0.225026 0.085172
0.190159 0.224797 0.083644
0.326177 0.224567 0.082116
0.464487 0.224338 0.080588
0.605088 0.224109 0.079060
0.747982 0.223880 0.077532
0.893168 0.223651 0.076004
1.000000 0.223421 0.074476
0.000000 0.374226 0.081560
0.060289 0.373882 0.080032
0.197870 0.373538 0.078503
0.337743 0.373194 0.076975
0.479908 0.372851 0.075447
0.624365 0.372507 0.073919
0.771115 0.372163 0.072391
0.920156 0.371819 0.070863
1.000000 0.371475 0.069335
0.000000 0.522426 0.076419
0.064144 0.521967 0.074891
0.205581 0.521509 0.073363
0.349309 0.521050 0.071835
0.495330 0.520592 0.070307
0.643642 0.520134 0.068779
0.794247 0.519675 0.067251
0.947144 0.519217 0.065723
1.000000 0.518758 0.064195
0.000000 0.669854 0.071279
0.068000 0.669281 0.069751
0.213291 0.668708 0.068222
0.360875 0.668135 0.066694
0.510751 0.667562 0.065166
0.662919 0.666989 0.063638
0.817379 0.666416 0.062110
0.974131 0.665843 0.060582
1.000000 0.665270 0.059054
0.000000 0.816512 0.066138
0.071855 0.815824 0.064610
0.221002 0.815137 0.063082
0.372441 0.814449 0.061554
0.526173 0.813762 0.060026
0.682196 0.813074 0.058498
0.840511 0.812386 0.056970
1.000000 0.811699 0.055442
1.000000 0.811011 0.053914
0.000000 0.962399 0.060998
0.075710 0.961596 0.059470
0.228713 0.960794 0.057941
0.384007 0.959992 0.056413
0.541594 0.959190 0.054885
0.701473 0.958388 0.053357
0.863644 0.957585 0.051829
1.000000 0.956783 0.050301
1.000000 0.955981 0.048773
0.000000 1.000000 0.055857
0.079566 1.000000 0.054329
0.236424 1.000000 0.052801
0.395574 1.000000 0.051273
0.557016 1.000000 0.049745
0.720750 1.000000 0.048217
0.886776 1.000000 0.046689
1.000000 1.000000 0.045161
1.000000 1.000000 0.043633
0.000000 0.000000 0.267924
0.049112 0.000000 0.264868
0.175516 0.000000 0.261812
0.304212 0.000000 0.258756
0.435200 0.000000 0.255700
0.568481 0.000000 0.252644
0.704053 0.000000 0.249588
0.841918 0.000000 0.246531
0.982074 0.000000 0.243475
0.000000 0.075474 0.257643
0.052967 0.075360 0.254587
0.183227 0.075245 0.251531
0.315778 0.075130 0.248475
0.450622 0.075016 0.245419
0.587758 0.074901 0.242363
0.727185 0.074786 0.239307
0.868905 0.074672 0.236250
1.000000 0.074557 0.233194
0.000000 0.225177 0.247362
0.056823 0.224948 0.244306
0.190937 0.224719 0.241250
0.327344 0.224490 0.238194
0.466043 0.224260 0.235138
0.607034 0.224031 0.232082
0.750318 0.223802 0.229025
0.895893 0.223573 0.225969
1.000000 0.223343 0.222913
0.000000 0.374109 0.237081
0.060678 0.373765 0.234025
0.198648 0.373422 0.230969
0.338911 0.373078 0.227913
0.481465 0.372734 0.224857
0.626311 0.372390 0.221801
0.773450 0.372046 0.218745
0.922881 0.371702 0.215688
1.000000 0.371359 0.212632
0.000000 0.522270 0.226800
0.064533 0.521812 0.223744
0.206359 0.521353 0.220688
0.350477 0.520895 0.217632
0.496886 0.520436 0.214576
0.645588 0.519978 0.211520
0.796582 0.519520 0.208464
0.949868 0.519061 0.205407
1.000000 0.518603 0.202351
0.000000 0.669660 0.216519
0.068389 0.669087 0.213463
0.214070 0.668514 0.210407
0.362043 0.667941 0.207351
0.512308 0.667368 0.204295
0.664865 0.666795 0.201239
0.819714 0.666222 0.198183
0.976856 0.665649 0.195126
1.000000 0.665076 0.192070
0.000000 0.816279 0.206238
0.072244 0.815591 0.203182
0.221781 0.814903 0.200126
0.373609 0.814216 0.197070
0.527729 0.813528 0.194014
0.684142 0.812840 0.190958
0.842847 0.812153 0.187901
1.000000 0.811465 0.184845
1.000000 0.810778 0.181789
0.000000 0.962126 0.195957
0.076100 0.961324 0.192901
0.229491 0.960522 0.189845
0.385175 0.959720 0.186789
0.543151 0.958917 0.183733
0.703419 0.958115 0.180677
0.865979 0.957313 0.177621
1.000000 0.956511 0.174564
1.000000 0.955708 0.171508
0.000000 1.000000 0.185676
0.079955 1.000000 0.182620
0.237202 1.000000 0.179564
0.396741 1.000000 0.176508
0.558572 1.000000 0.173452
0.722696 1.000000 0.170396
0.889111 1.000000 0.167340
1.000000 1.000000 0.164283
1.000000 1.000000 0.161227
0.000000 0.000000 0.437830
0.049501 0.000000 0.433245
0.176294 0.000000 0.428661
0.305380 0.000000 0.424077
0.436757 0.000000 0.419493
0.570427 0.000000 0.414909
0.706388 0.000000 0.410324
0.844642 0.000000 0.405740
0.985188 0.000000 0.401156
0.000000 0.075435 0.422408
0.053357 0.075321 0.417824
0.184005 0.075206 0.413240
0.316946 0.075091 0.408656
0.452179 0.074977 0.404071
0.589704 0.074862 0.399487
0.729521 0.074748 0.394903
0.871630 0.074633 0.390319
1.000000 0.074518 0.385735
0.000000 0.225099 0.406987
0.057212 0.224870 0.402402
0.191716 0.224641 0.397818
0.328512 0.224412 0.393234
0.467600 0.224182 0.388650
0.608980 0.223953 0.384066
0.752653 0.223724 0.379481
0.898617 0.223495 0.374897
1.000000 0.223266 0.370313
0.000000 0.373992 0.391565
0.061067 0.373649 0.386981
0.199427 0.373305 0.382397
0.340078 0.372961 0.377813
0.483022 0.372617 0.373228
0.628257 0.372273 0.368644
0.775785 0.371929 0.364060
0.925605 0.371586 0.359476
1.000000 0.371242 0.354892
0.000000 0.522114 0.376144
0.064923 0.521656 0.371559
0.207137 0.521198 0.366975
0.351644 0.520739 0.362391
0.498443 0.520281 0.357807
0.647534 0.519822 0.353223
0.798917 0.519364 0.348638
0.952593 0.518905 0.344054
1.000000 0.518447 0.339470
0.000000 0.669465 0.360722
0.068778 0.668892 0.356138
0.214848 0.668319 0.351554
0.363210 0.667746 0.346969
0.513865 0.667173 0.342385
0.666811 0.666600 0.337801
0.822050 0.666027 0.333217
0.979580 0.665454 0.328633
1.000000 0.664881 0.324049
0.000000 0.816045 0.345301
0.072633 0.815357 0.340716
0.222559 0.814670 0.336132
0.374776 0.813982 0.331548
0.529286 0.813295 0.326964
0.686088 0.812607 0.322380
0.845182 0.811919 0.317795
1.000000 0.811232 0.313211
1.000000 0.810544 0.308627
0.000000 0.961854 0.329879
0.076489 0.961052 0.325295
0.230270 0.960249 0.320711
0.386343 0.959447 0.316127
0.544708 0.958645 0.311542
0.705365 0.957843 0.306958
0.868314 0.957040 0.302374
1.000000 0.956238 0.297790
1.000000 0.955436 0.293206
0.000000 1.000000 0.314458
0.080344 1.000000 0.309873
0.237980 1.000000 0.305289
0.397909 1.000000 0.300705
0.560129 1.000000 0.296121
0.724642 1.000000 0.291537
0.891446 1.000000 0.286952
1.000000 1.000000 0.282368
1.000000 1.000000 0.277784
0.000000 0.000000 0.606697
0.049890 0.000000 0.600585
0.177073 0.000000 0.594472
0.306547 0.000000 0.588360
0.438314 0.000000 0.582248
0.572373 0.000000 0.576136
0.708724 0.000000 0.570024
0.847366 0.000000 0.563911
0.988301 0.000000 0.557799
0.000000 0.075396 0.586135
0.053746 0.075282 0.580023
0.184784 0.075167 0.573910
0.318113 0.075052 0.567798
0.453735 0.074938 0.561686
0.591650 0.074823 0.555574
0.731856 0.074709 0.549461
0.874354 0.074594 0.543349
1.000000 0.074479 0.537237
0.000000 0.225021 0.565573
0.057601 0.224792 0.559461
0.192494 0.224563 0.553349
0.329680 0.224334 0.547236
0.469157 0.224105 0.541124
0.610926 0.223875 0.535012
0.754988 0.223646 0.528899
0.901342 0.223417 0.522787
1.000000 0.223188 0.516675
0.000000 0.373876 0.545011
0.061456 0.373532 0.538899
0.200205 0.373188 0.532787
0.341246 0.372844 0.526674
0.484578 0.372500 0.520562
0.630203 0.372157 0.514450
0.778120 0.371813 0.508337
0.928329 0.371469 0.502225
1.000000 0.371125 0.496113
0.000000 0.521959 0.524449
0.065312 0.521500 0.518337
0.207916 0.521042 0.512225
0.352812 0.520583 0.506112
0.500000 0.520125 0.500000
0.649480 0.519667 0.493888
0.801253 0.519208 0.487775
0.955317 0.518750 0.481663
1.000000 0.518291 0.475551
0.000000 0.669271 0.503887
0.069167 0.668698 0.497775
0.215627 0.668125 0.491663
0.364378 0.667552 0.485550
0.515421 0.666979 0.479438
0.668757 0.666406 0.473326
0.824385 0.665833 0.467213
0.982305 0.665259 0.461101
1.000000 0.664686 0.454989
0.000000 0.815812 0.483325
0.073023 0.815124 0.477213
0.223337 0.814436 0.471101
0.375944 0.813749 0.464988
0.530843 0.813061 0.458876
0.688034 0.812373 0.452764
0.847517 0.811686 0.446651
1.000000 0.810998 0.440539
1.000000 0.810311 0.434427
0.000000 0.961581 0.462763
0.076878 0.960779 0.456651
0.231048 0.959977 0.450539
0.387510 0.959175 0.444426
0.546264 0.958372 0.438314
0.707311 0.957570 0.432202
0.870649 0.956768 0.426090
1.000000 0.955966 0.419977
1.000000 0.955164 0.413865
0.000000 1.000000 0.442201
0.080733 1.000000 0.436089
0.238759 1.000000 0.429976
0.399076 1.000000 0.423864
0.561686 1.000000 0.417752
0.726588 1.000000 0.411640
0.893782 1.000000 0.405528
1.000000 1.000000 0.399415
1.000000 1.000000 0.393303
0.000000 0.000000 0.774527
0.050280 0.000000 0.766886
0.177851 0.000000 0.759246
0.307715 0.000000 0.751606
0.439871 0.000000 0.743965
0.574319 0.000000 0.736325
0.711059 0.000000 0.728685
0.850091 0.000000 0.721044
0.991415 0.000000 0.713404
0.000000 0.075357 0.748824
0.054135 0.075243 0.741184
0.185562 0.075128 0.733543
0.319281 0.075014 0.725903
0.455292 0.074899 0.718263
0.593596 0.074784 0.710622
0.734191 0.074670 0.702982
0.877079 0.074555 0.695342
1.000000 0.074441 0.687702
0.000000 0.224944 0.723122
0.057990 0.224714 0.715481
0.193273 0.224485 0.707841
0.330847 0.224256 0.700201
0.470714 0.224027 0.692560
0.612872 0.223798 0.684920
0.757323 0.223568 0.677280
0.904066 0.223339 0.669639
1.000000 0.223110 0.661999
0.000000 0.373759 0.697419
0.061846 0.373415 0.689779
0.200983 0.373071 0.682138
0.342413 0.372727 0.674498
0.486135 0.372384 0.666858
0.632149 0.372040 0.659218
0.780456 0.371696 0.651577
0.931054 0.371352 0.643937
1.000000 0.371008 0.636297
0.000000 0.521803 0.671717
0.065701 0.521345 0.664076
0.208694 0.520886 0.656436
0.353979 0.520428 0.648796
0.501557 0.519969 0.641155
0.651426 0.519511 0.633515
0.803588 0.519052 0.625875
0.958041 0.518594 0.618234
1.000000 0.518136 0.610594
0.000000 0.669076 0.646014
0.069556 0.668503 0.638374
0.216405 0.667930 0.630733
0.365546 0.667357 0.623093
0.516978 0.666784 0.615453
0.670703 0.666211 0.607812
0.826720 0.665638 0.600172
0.985029 0.665065 0.592532
1.000000 0.664492 0.584892
0.000000 0.815578 0.620312
0.073412 0.814890 0.612671
0.224116 0.814203 0.605031
0.377112 0.813515 0.597391
0.532400 0.812828 0.589750
0.689980 0.812140 0.582110
0.849852 0.811452 0.574470
1.000000 0.810765 0.566829
1.000000 0.810077 0.559189
0.000000 0.961309 0.594609
0.077267 0.960507 0.586969
0.231826 0.959704 0.579328
0.388678 0.958902 0.571688
0.547821 0.958100 0.564048
0.709257 0.957298 0.556408
0.872985 0.956496 0.548767
1.000000 0.955693 0.541127
1.000000 0.954891 0.533487
0.000000 1.000000 0.568907
0.081123 1.000000 0.561266
0.239537 1.000000 0.553626
0.400244 1.000000 0.545986
0.563243 1.000000 0.538345
0.728534 1.000000 0.530705
0.896117 1.000000 0.523065
1.000000 1.000000 0.515424
1.000000 1.000000 0.507784
0.000000 0.000000 0.941318
0.050669 0.000000 0.932150
0.178630 0.000000 0.922981
0.308883 0.000000 0.913813
0.441428 0.000000 0.904645
0.576265 0.000000 0.895476
0.713394 0.000000 0.886308
0.852815 0.000000 0.877140
0.994529 0.000000 0.867971
0.000000 0.075318 0.910475
0.054524 0.075204 0.901307
0.186340 0.075089 0.892138
0.320449 0.074975 0.882970
0.456849 0.074860 0.873802
0.595542 0.074745 0.864633
0.736526 0.074631 0.855465
0.879803 0.074516 0.846297
1.000000 0.074402 0.837128
0.000000 0.224866 0.879632
0.058380 0.224637 0.870464
0.194051 0.224407 0.861295
0.332015 0.224178 0.852127
0.472271 0.223949 0.842959
0.614819 0.223720 0.833790
0.759658 0.223491 0.824622
0.906791 0.223261 0.815454
1.000000 0.223032 0.806285
0.000000 0.373642 0.848789
0.062235 0.373298 0.839621
0.201762 0.372954 0.830453
0.343581 0.372611 0.821284
0.487692 0.372267 0.812116
0.634095 0.371923 0.802947
0.782791 0.371579 0.793779
0.933778 0.371235 0.784611
1.000000 0.370892 0.775442
0.000000 0.521647 0.817946
0.066090 0.521189 0.808778
0.209473 0.520730 0.799609
0.355147 0.520272 0.790441
0.503114 0.519814 0.781273
0.653372 0.519355 0.772104
0.805923 0.518897 0.762936
0.960766 0.518438 0.753768
1.000000 0.517980 0.744599
0.000000 0.668881 0.787103
0.069946 0.668308 0.777935
0.217183 0.667735 0.768766
0.366713 0.667162 0.759598
0.518535 0.666589 0.750430
0.672649 0.666016 0.741261
0.829055 0.665443 0.732093
0.987753 0.664870 0.722925
1.000000 0.664297 0.713756
0.000000 0.815345 0.756260
0.073801 0.814657 0.747092
0.224894 0.813969 0.737923
0.378279 0.813282 0.728755
0.533957 0.812594 0.719587
0.691926 0.811906 0.710418
0.852187 0.811219 0.701250
1.000000 0.810531 0.692082
1.000000 0.809843 0.682913
0.000000 0.961037 0.725417
0.077656 0.960234 0.716249
0.232605 0.959432 0.707081
0.389845 0.958630 0.697912
0.549378 0.957828 0.688744
0.711203 0.957025 0.679575
0.875320 0.956223 0.670407
1.000000 0.955421 0.661239
1.000000 0.954619 0.652070
0.000000 1.000000 0.694574
0.081512 1.000000 0.685406
0.240316 1.000000 0.676238
0.401412 1.000000 0.667069
0.564800 1.000000 0.657901
0.730480 1.000000 0.648732
0.898452 1.000000 0.639564
1.000000 1.000000 0.630396
1.000000 1.000000 0.621227
0.000000 0.000000 1.000000
0.051058 0.000000 1.000000
0.179408 0.000000 1.000000
0.310050 0.000000 1.000000
0.442984 0.000000 1.000000
0.578211 0.000000 1.000000
0.715729 0.000000 1.000000
0.855540 0.000000 1.000000
0.997642 0.000000 1.000000
0.000000 0.075280 1.000000
0.054913 0.075165 1.000000
0.187119 0.075050 1.000000
0.321616 0.074936 1.000000
0.458406 0.074821 1.000000
0.597488 0.074706 1.000000
0.738861 0.074592 1.000000
0.882527 0.074477 0.996214
1.000000 0.074363 0.985517
0.000000 0.224788 1.000000
0.058769 0.224559 1.000000
0.194830 0.224330 1.000000
0.333182 0.224100 1.000000
0.473827 0.223871 0.992319
0.616765 0.223642 0.981623
0.761994 0.223413 0.970926
0.909515 0.223184 0.960230
1.000000 0.222954 0.949534
0.000000 0.373525 0.999122
0.062624 0.373182 0.988425
0.202540 0.372838 0.977729
0.344749 0.372494 0.967032
0.489249 0.372150 0.956336
0.636041 0.371806 0.945639
0.785126 0.371462 0.934943
0.936503 0.371119 0.924246
1.000000 0.370775 0.913550
0.000000 0.521492 0.963138
0.066479 0.521033 0.952442
0.210251 0.520575 0.941745
0.356315 0.520116 0.931049
0.504670 0.519658 0.920352
0.655318 0.519200 0.909656
0.808258 0.518741 0.898959
0.963490 0.518283 0.888263
1.000000 0.517824 0.877567
0.000000 0.668687 0.927155
0.070335 0.668114 0.916458
0.217962 0.667541 0.905762
0.367881 0.666968 0.895065
0.520092 0.666395 0.884369
0.674595 0.665822 0.873672
0.831390 0.665249 0.862976
0.990478 0.664676 0.852280
1.000000 0.664103 0.841583
0.000000 0.815111 0.891171
0.074190 0.814423 0.880475
0.225673 0.813736 0.869778
0.379447 0.813048 0.859082
0.535513 0.812360 0.848385
0.693872 0.811673 0.837689
0.854523 0.810985 0.826992
1.000000 0.810298 0.816296
1.000000 0.809610 0.805600
0.000000 0.960764 0.855188
0.078046 0.959962 0.844491
0.233383 0.959160 0.833795
0.391013 0.958357 0.823098
0.550935 0.957555 0.812402
0.713149 0.956753 0.801705
0.877655 0.955951 0.791009
1.000000 0.955148 0.780312
1.000000 0.954346 0.769616
0.000000 1.000000 0.819204
0.081901 1.000000 0.808508
0.241094 1.000000 0.797811
0.402579 1.000000 0.787115
0.566356 1.000000 0.776418
0.732426 1.000000 0.765722
0.900787 1.000000 0.755025
1.000000 1.000000 0.744329
1.000000 1.000000 0.733633
0.000000 0.000000 1.000000
0.051447 0.000000 1.000000
0.180186 0.000000 1.000000
0.311218 0.000000 1.000000
0.444541 0.000000 1.000000
0.580157 0.000000 1.000000
0.718064 0.000000 1.000000
0.858264 0.000000 1.000000
1.000000 0.000000 1.000000
0.000000 0.075241 1.000000
0.055303 0.075126 1.000000
0.187897 0.075011 1.000000
0.322784 0.074897 1.000000
0.459963 0.074782 1.000000
0.599434 0.074668 1.000000
0.741197 0.074553 1.000000
0.885252 0.074438 1.000000
1.000000 0.074324 1.000000
0.000000 0.224710 1.000000
0.059158 0.224481 1.000000
0.195608 0.224252 1.000000
0.334350 0.224022 1.000000
0.475384 0.223793 1.000000
0.618711 0.223564 1.000000
0.764329 0.223335 1.000000
0.912239 0.223106 1.000000
1.000000 0.222876 1.000000
0.000000 0.373409 1.000000
0.063013 0.373065 1.000000
0.203319 0.372721 1.000000
0.345916 0.372377 1.000000
0.490806 0.372033 1.000000
0.637987 0.371690 1.000000
0.787461 0.371346 1.000000
0.939227 0.371002 1.000000
1.000000 0.370658 1.000000
0.000000 0.521336 1.000000
0.066869 0.520878 1.000000
0.211029 0.520419 1.000000
0.357482 0.519961 1.000000
0.506227 0.519502 1.000000
0.657264 0.519044 1.000000
0.810593 0.518585 1.000000
0.966215 0.518127 1.000000
1.000000 0.517669 1.000000
0.000000 0.668492 1.000000
0.070724 0.667919 1.000000
0.218740 0.667346 1.000000
0.369048 0.666773 1.000000
0.521649 0.666200 1.000000
0.676541 0.665627 1.000000
0.833726 0.665054 0.992821
0.993202 0.664481 0.980596
1.000000 0.663908 0.968372
0.000000 0.814877 1.000000
0.074579 0.814190 1.000000
0.226451 0.813502 1.000000
0.380615 0.812815 0.988370
0.537070 0.812127 0.976146
0.695818 0.811439 0.963922
0.856858 0.810752 0.951697
1.000000 0.810064 0.939472
1.000000 0.809376 0.927248
0.000000 0.960492 0.983920
0.078435 0.959689 0.971695
0.234162 0.958887 0.959471
0.392181 0.958085 0.947247
0.552492 0.957283 0.935022
0.715095 0.956480 0.922797
0.879990 0.955678 0.910573
1.000000 0.954876 0.898348
1.000000 0.954074 0.886124
0.000000 1.000000 0.942796
0.082290 1.000000 0.930572
0.241872 1.000000 0.918347
0.403747 1.000000 0.906123
0.567913 1.000000 0.893898
0.734372 1.000000 0.881673
0.903122 1.000000 0.869449
1.000000 1.000000 0.857224
1.000000 1.000000 0.845000
