indra/newview/app_settings/luts/teal_orange.cube
TITLE "Teal and Orange"
LUT_3D_SIZE 33
0.000000 0.000000 0.000000
0.000000 0.000000 0.000000
0.000000 0.000000 0.000000
0.017285 0.000000 0.000000
0.048334 0.000000 0.000000
0.079525 0.000000 0.000000
0.110860 0.000000 0.000000
0.142338 0.000000 0.000000
0.173959 0.000000 0.000000
0.205724 0.000000 0.000000
0.237632 0.000000 0.000000
0.269683 0.000000 0.000000
0.301877 0.000000 0.000000
0.334214 0.000000 0.000000
0.366695 0.000000 0.000000
0.399319 0.000000 0.000000
0.432087 0.000000 0.000000
0.464997 0.000000 0.000000
0.498051 0.000000 0.000000
0.531248 0.000000 0.000000
0.564589 0.000000 0.000000
0.598072 0.000000 0.000000
0.631699 0.000000 0.000000
0.665469 0.000000 0.000000
0.699383 0.000000 0.000000
0.733439 0.000000 0.000000
0.767639 0.000000 0.000000
0.801982 0.000000 0.000000
0.836469 0.000000 0.000000
0.871098 0.000000 0.000000
0.905871 0.000000 0.000000
0.940788 0.000000 0.000000
0.975847 0.000000 0.000000
0.000000 0.000000 0.000000
0.000000 0.000000 0.000000
0.000000 0.000000 0.000000
0.018008 0.000000 0.000000
0.049297 0.000000 0.000000
0.080730 0.000000 0.000000
0.112306 0.000000 0.000000
0.144025 0.000000 0.000000
0.175887 0.000000 0.000000
0.207892 0.000000 0.000000
0.240041 0.000000 0.000000
0.272333 0.000000 0.000000
0.304768 0.000000 0.000000
0.337347 0.000000 0.000000
0.370069 0.000000 0.000000
0.402934 0.000000 0.000000
0.435942 0.000000 0.000000
0.469094 0.000000 0.000000
0.502388 0.000000 0.000000
0.535827 0.000000 0.000000
0.569408 0.000000 0.000000
0.603132 0.000000 0.000000
0.637000 0.000000 0.000000
0.671011 0.000000 0.000000
0.705166 0.000000 0.000000
0.739463 0.000000 0.000000
0.773904 0.000000 0.000000
0.808488 0.000000 0.000000
0.843216 0.000000 0.000000
0.878086 0.000000 0.000000
0.913100 0.000000 0.000000
0.948257 0.000000 0.000000
0.983558 0.000000 0.000000
0.000000 0.000372 0.000000
0.000000 0.000358 0.000000
0.000000 0.000344 0.000000
0.018731 0.000329 0.000000
0.050261 0.000315 0.000000
0.081935 0.000301 0.000000
0.113751 0.000286 0.000000
0.145711 0.000272 0.000000
0.177815 0.000258 0.000000
0.210061 0.000243 0.000000
0.242451 0.000229 0.000000
0.274984 0.000215 0.000000
0.307660 0.000200 0.000000
0.340479 0.000186 0.000000
0.373442 0.000172 0.000000
0.406548 0.000157 0.000000
0.439798 0.000143 0.000000
0.473190 0.000129 0.000000
0.506726 0.000115 0.000000
0.540405 0.000100 0.000000
0.574227 0.000086 0.000000
0.608193 0.000072 0.000000
0.642301 0.000057 0.000000
0.676554 0.000043 0.000000
0.710949 0.000029 0.000000
0.745487 0.000014 0.000000
0.780169 0.000000 0.000000
0.814994 0.000000 0.000000
0.849963 0.000000 0.000000
0.885074 0.000000 0.000000
0.920329 0.000000 0.000000
0.955727 0.000000 0.000000
0.991268 0.000000 0.000000
0.000000 0.037986 0.000000
0.000000 0.037965 0.000000
0.000000 0.037943 0.000000
0.019454 0.037922 0.000000
0.051225 0.037900 0.000000
0.083139 0.037879 0.000000
0.115197 0.037857 0.000000
0.147398 0.037836 0.000000
0.179742 0.037814 0.000000
0.212230 0.037793 0.000000
0.244860 0.037771 0.000000
0.277634 0.037750 0.000000
0.310552 0.037728 0.000000
0.343612 0.037707 0.000000
0.376816 0.037685 0.000000
0.410163 0.037664 0.000000
0.443653 0.037642 0.000000
0.477286 0.037621 0.000000
0.511063 0.037599 0.000000
0.544983 0.037578 0.000000
0.579046 0.037556 0.000000
0.613253 0.037535 0.000000
0.647603 0.037514 0.000000
0.682096 0.037492 0.000000
0.716732 0.037471 0.000000
0.751511 0.037449 0.000000
0.786434 0.037428 0.000000
0.821500 0.037406 0.000000
0.856710 0.037385 0.000000
0.892062 0.037363 0.000000
0.927558 0.037342 0.000000
0.963197 0.037320 0.000000
0.998979 0.037299 0.000000
0.000000 0.075552 0.000000
0.000000 0.075523 0.000000
0.000000 0.075495 0.000000
0.020177 0.075466 0.000000
0.052189 0.075437 0.000000
0.084344 0.075409 0.000000
0.116643 0.075380 0.000000
0.149085 0.075351 0.000000
0.181670 0.075323 0.000000
0.214398 0.075294 0.000000
0.247270 0.075265 0.000000
0.280285 0.075237 0.000000
0.313443 0.075208 0.000000
0.346744 0.075179 0.000000
0.380189 0.075151 0.000000
0.413777 0.075122 0.000000
0.447508 0.075094 0.000000
0.481383 0.075065 0.000000
0.515400 0.075036 0.000000
0.549561 0.075008 0.000000
0.583866 0.074979 0.000000
0.618313 0.074950 0.000000
0.652904 0.074922 0.000000
0.687638 0.074893 0.000000
0.722515 0.074864 0.000000
0.757535 0.074836 0.000000
0.792699 0.074807 0.000000
0.828006 0.074778 0.000000
0.863456 0.074750 0.000000
0.899050 0.074721 0.000000
0.934787 0.074692 0.000000
0.970667 0.074664 0.000000
1.000000 0.074635 0.000000
0.000000 0.113069 0.000000
0.000000 0.113034 0.000000
0.000000 0.112998 0.000000
0.020900 0.112962 0.000000
0.053153 0.112926 0.000000
0.085549 0.112890 0.000000
0.118089 0.112855 0.000000
0.150772 0.112819 0.000000
0.183598 0.112783 0.000000
0.216567 0.112747 0.000000
0.249680 0.112711 0.000000
0.282935 0.112676 0.000000
0.316335 0.112640 0.000000
0.349877 0.112604 0.000000
0.383563 0.112568 0.000000
0.417391 0.112532 0.000000
0.451364 0.112496 0.000000
0.485479 0.112461 0.000000
0.519738 0.112425 0.000000
0.554140 0.112389 0.000000
0.588685 0.112353 0.000000
0.623373 0.112317 0.000000
0.658205 0.112282 0.000000
0.693180 0.112246 0.000000
0.728298 0.112210 0.000000
0.763559 0.112174 0.000000
0.798964 0.112138 0.000000
0.834512 0.112102 0.000000
0.870203 0.112067 0.000000
0.906038 0.112031 0.000000
0.942016 0.111995 0.000000
0.978137 0.111959 0.000000
1.000000 0.111923 0.000000
0.000000 0.150539 0.000000
0.000000 0.150496 0.000000
0.000000 0.150453 0.000000
0.021623 0.150410 0.000000
0.054117 0.150367 0.000000
0.086754 0.150324 0.000000
0.119534 0.150281 0.000000
0.152458 0.150238 0.000000
0.185525 0.150195 0.000000
0.218736 0.150152 0.000000
0.252089 0.150109 0.000000
0.285586 0.150066 0.000000
0.319226 0.150023 0.000000
0.353009 0.149980 0.000000
0.386936 0.149937 0.000000
0.421006 0.149894 0.000000
0.455219 0.149851 0.000000
0.489575 0.149808 0.000000
0.524075 0.149765 0.000000
0.558718 0.149722 0.000000
0.593504 0.149679 0.000000
0.628433 0.149636 0.000000
0.663506 0.149593 0.000000
0.698722 0.149550 0.000000
0.734081 0.149507 0.000000
0.769583 0.149464 0.000000
0.805229 0.149421 0.000000
0.841018 0.149378 0.000000
0.876950 0.149335 0.000000
0.913026 0.149292 0.000000
0.949244 0.149249 0.000000
0.985606 0.149207 0.000000
1.000000 0.149164 0.000000
0.000000 0.187960 0.000000
0.000000 0.187910 0.000000
0.000000 0.187860 0.000000
0.022345 0.187809 0.000000
0.055080 0.187759 0.000000
0.087959 0.187709 0.000000
0.120980 0.187659 0.000000
0.154145 0.187609 0.000000
0.187453 0.187559 0.000000
0.220904 0.187509 0.000000
0.254499 0.187459 0.000000
0.288237 0.187408 0.000000
0.322118 0.187358 0.000000
0.356142 0.187308 0.000000
0.390309 0.187258 0.000000
0.424620 0.187208 0.000000
0.459074 0.187158 0.000000
0.493672 0.187108 0.000000
0.528412 0.187057 0.000000
0.563296 0.187007 0.000000
0.598323 0.186957 0.000000
0.633494 0.186907 0.000000
0.668807 0.186857 0.000000
0.704264 0.186807 0.000000
0.739864 0.186757 0.000000
0.775607 0.186706 0.000000
0.811494 0.186656 0.000000
0.847524 0.186606 0.000000
0.883697 0.186556 0.000000
0.920014 0.186506 0.000000
0.956473 0.186456 0.000000
0.993076 0.186406 0.000000
1.000000 0.186355 0.000000
0.000000 0.225333 0.000000
0.000000 0.225276 0.000000
0.000000 0.225218 0.000000
0.023068 0.225161 0.000000
0.056044 0.225104 0.000000
0.089164 0.225046 0.000000
0.122426 0.224989 0.000000
0.155832 0.224932 0.000000
0.189381 0.224874 0.000000
0.223073 0.224817 0.000000
0.256908 0.224760 0.000000
0.290887 0.224703 0.000000
0.325009 0.224645 0.000000
0.359274 0.224588 0.000000
0.393683 0.224531 0.000000
0.428235 0.224473 0.000000
0.462930 0.224416 0.000000
0.497768 0.224359 0.000000
0.532750 0.224301 0.000000
0.567874 0.224244 0.000000
0.603142 0.224187 0.000000
0.638554 0.224130 0.000000
0.674108 0.224072 0.000000
0.709806 0.224015 0.000000
0.745647 0.223958 0.000000
0.781632 0.223900 0.000000
0.817759 0.223843 0.000000
0.854030 0.223786 0.000000
0.890444 0.223728 0.000000
0.927001 0.223671 0.000000
0.963702 0.223614 0.000000
1.000000 0.223556 0.000000
1.000000 0.223499 0.000000
0.000000 0.262658 0.000000
0.000000 0.262593 0.000000
0.000000 0.262529 0.000000
0.023791 0.262464 0.000000
0.057008 0.262400 0.000000
0.090368 0.262335 0.000000
0.123872 0.262271 0.000000
0.157518 0.262206 0.000000
0.191308 0.262142 0.000000
0.225242 0.262077 0.000000
0.259318 0.262013 0.000000
0.293538 0.261948 0.000000
0.327901 0.261884 0.000000
0.362407 0.261820 0.000000
0.397056 0.261755 0.000000
0.431849 0.261691 0.000000
0.466785 0.261626 0.000000
0.501864 0.261562 0.000000
0.537087 0.261497 0.000000
0.572453 0.261433 0.000000
0.607962 0.261368 0.000000
0.643614 0.261304 0.000000
0.679409 0.261239 0.000000
0.715348 0.261175 0.000000
0.751430 0.261110 0.000000
0.787656 0.261046 0.000000
0.824024 0.260981 0.000000
0.860536 0.260917 0.000000
0.897191 0.260853 0.000000
0.933989 0.260788 0.000000
0.970931 0.260724 0.000000
1.000000 0.260659 0.000000
1.000000 0.260595 0.000000
0.000000 0.299934 0.000000
0.000000 0.299863 0.000000
0.000000 0.299791 0.000000
0.024514 0.299719 0.000000
0.057972 0.299648 0.000000
0.091573 0.299576 0.000000
0.125318 0.299504 0.000000
0.159205 0.299433 0.000000
0.193236 0.299361 0.000000
0.227410 0.299289 0.000000
0.261728 0.299218 0.000000
0.296188 0.299146 0.000000
0.330792 0.299075 0.000000
0.365539 0.299003 0.000000
0.400430 0.298931 0.000000
0.435464 0.298860 0.000000
0.470640 0.298788 0.000000
0.505961 0.298716 0.000000
0.541424 0.298645 0.000000
0.577031 0.298573 0.000000
0.612781 0.298502 0.000000
0.648674 0.298430 0.000000
0.684711 0.298358 0.000000
0.720890 0.298287 0.000000
0.757213 0.298215 0.000000
0.793680 0.298143 0.000000
0.830289 0.298072 0.000000
0.867042 0.298000 0.000000
0.903938 0.297929 0.000000
0.940977 0.297857 0.000000
0.978160 0.297785 0.000000
1.000000 0.297714 0.000000
1.000000 0.297642 0.000000
0.000000 0.337162 0.000000
0.000000 0.337084 0.000000
0.000000 0.337005 0.000000
0.025237 0.336926 0.000000
0.058936 0.336847 0.000000
0.092778 0.336769 0.000000
0.126763 0.336690 0.000000
0.160892 0.336611 0.000000
0.195164 0.336532 0.000000
0.229579 0.336453 0.000000
0.264137 0.336375 0.000000
0.298839 0.336296 0.000000
0.333684 0.336217 0.000000
0.368672 0.336138 0.000000
0.403803 0.336059 0.000000
0.439078 0.335981 0.000000
0.474496 0.335902 0.000000
0.510057 0.335823 0.000000
0.545761 0.335744 0.000000
0.581609 0.335665 0.000000
0.617600 0.335587 0.000000
0.653734 0.335508 0.000000
0.690012 0.335429 0.000000
0.726432 0.335350 0.000000
0.762996 0.335272 0.000000
0.799704 0.335193 0.000000
0.836554 0.335114 0.000000
0.873548 0.335035 0.000000
0.910685 0.334956 0.000000
0.947965 0.334878 0.000000
0.985388 0.334799 0.000000
1.000000 0.334720 0.000000
1.000000 0.334641 0.000000
0.000000 0.374343 0.000000
0.000000 0.374257 0.000000
0.000000 0.374171 0.000000
0.025960 0.374085 0.000000
0.059900 0.373999 0.000000
0.093983 0.373913 0.000000
0.128209 0.373827 0.000000
0.162579 0.373741 0.000000
0.197091 0.373655 0.000000
0.231748 0.373569 0.000000
0.266547 0.373483 0.000000
0.301489 0.373397 0.000000
0.336575 0.373311 0.000000
0.371804 0.373225 0.000000
0.407177 0.373139 0.000000
0.442692 0.373053 0.000000
0.478351 0.372967 0.000000
0.514153 0.372881 0.000000
0.550099 0.372795 0.000000
0.586187 0.372710 0.000000
0.622419 0.372624 0.000000
0.658794 0.372538 0.000000
0.695313 0.372452 0.000000
0.731975 0.372366 0.000000
0.768779 0.372280 0.000000
0.805728 0.372194 0.000000
0.842819 0.372108 0.000000
0.880054 0.372022 0.000000
0.917432 0.371936 0.000000
0.954953 0.371850 0.000000
0.992617 0.371764 0.000000
1.000000 0.371678 0.000000
1.000000 0.371592 0.000000
0.000000 0.411475 0.000000
0.000000 0.411382 0.000000
0.000000 0.411288 0.000000
0.026683 0.411195 0.000000
0.060864 0.411102 0.000000
0.095188 0.411009 0.000000
0.129655 0.410916 0.000000
0.164265 0.410823 0.000000
0.199019 0.410730 0.000000
0.233916 0.410637 0.000000
0.268956 0.410543 0.000000
0.304140 0.410450 0.000000
0.339467 0.410357 0.000000
0.374937 0.410264 0.000000
0.410550 0.410171 0.000000
0.446307 0.410078 0.000000
0.482207 0.409985 0.000000
0.518250 0.409892 0.000000
0.554436 0.409799 0.000000
0.590766 0.409705 0.000000
0.627239 0.409612 0.000000
0.663855 0.409519 0.000000
0.700614 0.409426 0.000000
0.737517 0.409333 0.000000
0.774563 0.409240 0.000000
0.811752 0.409147 0.000000
0.849084 0.409054 0.000000
0.886560 0.408960 0.000000
0.924179 0.408867 0.000000
0.961941 0.408774 0.000000
0.999846 0.408681 0.000000
1.000000 0.408588 0.000000
1.000000 0.408495 0.000000
0.000000 0.448558 0.000000
0.000000 0.448458 0.000000
0.000000 0.448358 0.000000
0.027406 0.448258 0.000000
0.061827 0.448157 0.000000
0.096392 0.448057 0.000000
0.131101 0.447957 0.000000
0.165952 0.447856 0.000000
0.200947 0.447756 0.000000
0.236085 0.447656 0.000000
0.271366 0.447556 0.000000
0.306791 0.447455 0.000000
0.342358 0.447355 0.000000
0.378069 0.447255 0.000000
0.413924 0.447155 0.000000
0.449921 0.447054 0.000000
0.486062 0.446954 0.000000
0.522346 0.446854 0.000000
0.558773 0.446753 0.000000
0.595344 0.446653 0.000000
0.632058 0.446553 0.000000
0.668915 0.446453 0.000000
0.705915 0.446352 0.000000
0.743059 0.446252 0.000000
0.780346 0.446152 0.000000
0.817776 0.446051 0.000000
0.855349 0.445951 0.000000
0.893066 0.445851 0.000000
0.930925 0.445751 0.000000
0.968929 0.445650 0.000000
1.000000 0.445550 0.000000
1.000000 0.445450 0.000000
1.000000 0.445349 0.000000
0.000000 0.485594 0.000000
0.000000 0.485487 0.000000
0.000000 0.485379 0.000000
0.028129 0.485272 0.000000
0.062791 0.485164 0.000000
0.097597 0.485057 0.000000
0.132546 0.484949 0.000000
0.167639 0.484842 0.000000
0.202875 0.484734 0.000000
0.238253 0.484627 0.000000
0.273776 0.484520 0.000000
0.309441 0.484412 0.000000
0.345250 0.484305 0.000000
0.381202 0.484197 0.000000
0.417297 0.484090 0.000000
0.453536 0.483982 0.000000
0.489917 0.483875 0.000000
0.526442 0.483767 0.000000
0.563111 0.483660 0.000000
0.599922 0.483553 0.000000
0.636877 0.483445 0.000000
0.673975 0.483338 0.000000
0.711216 0.483230 0.000000
0.748601 0.483123 0.000000
0.786129 0.483015 0.000000
0.823800 0.482908 0.000000
0.861614 0.482801 0.000000
0.899572 0.482693 0.000000
0.937672 0.482586 0.000000
0.975916 0.482478 0.000000
1.000000 0.482371 0.000000
1.000000 0.482263 0.000000
1.000000 0.482156 0.000000
0.000000 0.522581 0.000000
0.000000 0.522467 0.000000
0.000000 0.522352 0.000000
0.028851 0.522238 0.000000
0.063755 0.522123 0.000000
0.098802 0.522008 0.000000
0.133992 0.521894 0.000000
0.169326 0.521779 0.000000
0.204802 0.521665 0.000000
0.240422 0.521550 0.000000
0.276185 0.521435 0.000000
0.312092 0.521321 0.000000
0.348141 0.521206 0.000000
0.384334 0.521092 0.000000
0.420671 0.520977 0.000000
0.457150 0.520862 0.000000
0.493773 0.520748 0.000000
0.530539 0.520633 0.000000
0.567448 0.520519 0.000000
0.604500 0.520404 0.000000
0.641696 0.520289 0.000000
0.679035 0.520175 0.000000
0.716517 0.520060 0.000000
0.754143 0.519945 0.000000
0.791912 0.519831 0.000000
0.829824 0.519716 0.000000
0.867879 0.519602 0.000000
0.906078 0.519487 0.000000
0.944419 0.519372 0.000000
0.982904 0.519258 0.000000
1.000000 0.519143 0.000000
1.000000 0.519029 0.000000
1.000000 0.518914 0.000000
0.000000 0.559521 0.000000
0.000000 0.559399 0.000000
0.000000 0.559277 0.000000
0.029574 0.559155 0.000000
0.064719 0.559034 0.000000
0.100007 0.558912 0.000000
0.135438 0.558790 0.000000
0.171012 0.558668 0.000000
0.206730 0.558546 0.000000
0.242591 0.558425 0.000000
0.278595 0.558303 0.000000
0.314742 0.558181 0.000000
0.351033 0.558059 0.000000
0.387467 0.557938 0.000000
0.424044 0.557816 0.000000
0.460764 0.557694 0.000000
0.497628 0.557572 0.000000
0.534635 0.557451 0.000000
0.571785 0.557329 0.000000
0.609079 0.557207 0.000000
0.646515 0.557085 0.000000
0.684095 0.556963 0.000000
0.721819 0.556842 0.000000
0.759685 0.556720 0.000000
0.797695 0.556598 0.000000
0.835848 0.556476 0.000000
0.874144 0.556355 0.000000
0.912583 0.556233 0.000000
0.951166 0.556111 0.000000
0.989892 0.555989 0.000000
1.000000 0.555868 0.000000
1.000000 0.555746 0.000000
1.000000 0.555624 0.000000
0.000000 0.596412 0.000000
0.000000 0.596283 0.000000
0.000000 0.596154 0.000000
0.030297 0.596025 0.000000
0.065683 0.595896 0.000000
0.101212 0.595767 0.000000
0.136884 0.595638 0.000000
0.172699 0.595509 0.000000
0.208658 0.595380 0.000000
0.244759 0.595251 0.000000
0.281005 0.595122 0.000000
0.317393 0.594993 0.000000
0.353924 0.594864 0.000000
0.390599 0.594736 0.000000
0.427417 0.594607 0.000000
0.464379 0.594478 0.000000
0.501483 0.594349 0.000000
0.538731 0.594220 0.000000
0.576123 0.594091 0.000000
0.613657 0.593962 0.000000
0.651335 0.593833 0.000000
0.689156 0.593704 0.000000
0.727120 0.593575 0.000000
0.765227 0.593446 0.000000
0.803478 0.593317 0.000000
0.841872 0.593188 0.000000
0.880409 0.593059 0.000000
0.919089 0.592930 0.000000
0.957913 0.592802 0.000000
0.996880 0.592673 0.000000
1.000000 0.592544 0.000000
1.000000 0.592415 0.000000
1.000000 0.592286 0.000000
0.000000 0.633254 0.000000
0.000000 0.633118 0.000000
0.000000 0.632982 0.000000
0.031020 0.632846 0.000000
0.066647 0.632710 0.000000
0.102416 0.632574 0.000000
0.138329 0.632438 0.000000
0.174386 0.632302 0.000000
0.210585 0.632166 0.000000
0.246928 0.632030 0.000000
0.283414 0.631894 0.000000
0.320043 0.631757 0.000000
0.356816 0.631621 0.000000
0.393732 0.631485 0.000000
0.430791 0.631349 0.000000
0.467993 0.631213 0.000000
0.505339 0.631077 0.000000
0.542828 0.630941 0.000000
0.580460 0.630805 0.000000
0.618235 0.630669 0.000000
0.656154 0.630533 0.000000
0.694216 0.630396 0.000000
0.732421 0.630260 0.000000
0.770769 0.630124 0.000000
0.809261 0.629988 0.000000
0.847896 0.629852 0.000000
0.886674 0.629716 0.000000
0.925595 0.629580 0.000000
0.964660 0.629444 0.000000
1.000000 0.629308 0.000000
1.000000 0.629172 0.000000
1.000000 0.629036 0.000000
1.000000 0.628899 0.000000
0.000000 0.670049 0.000000
0.000000 0.669906 0.000000
0.000000 0.669763 0.000000
0.031743 0.669619 0.000000
0.067610 0.669476 0.000000
0.103621 0.669333 0.000000
0.139775 0.669190 0.000000
0.176072 0.669046 0.000000
0.212513 0.668903 0.000000
0.249097 0.668760 0.000000
0.285824 0.668617 0.000000
0.322694 0.668473 0.000000
0.359708 0.668330 0.000000
0.396864 0.668187 0.000000
0.434164 0.668043 0.000000
0.471608 0.667900 0.000000
0.509194 0.667757 0.000000
0.546924 0.667614 0.000000
0.584797 0.667470 0.000000
0.622813 0.667327 0.000000
0.660973 0.667184 0.000000
0.699276 0.667041 0.000000
0.737722 0.666897 0.000000
0.776311 0.666754 0.000000
0.815044 0.666611 0.000000
0.853920 0.666468 0.000000
0.892939 0.666324 0.000000
0.932101 0.666181 0.000000
0.971407 0.666038 0.000000
1.000000 0.665895 0.000000
1.000000 0.665751 0.000000
1.000000 0.665608 0.000000
1.000000 0.665465 0.000000
0.000000 0.706795 0.000000
0.000000 0.706645 0.000000
0.000000 0.706495 0.000000
0.032466 0.706344 0.000000
0.068574 0.706194 0.000000
0.104826 0.706043 0.000000
0.141221 0.705893 0.000000
0.177759 0.705743 0.000000
0.214441 0.705592 0.000000
0.251265 0.705442 0.000000
0.288233 0.705291 0.000000
0.325345 0.705141 0.000000
0.362599 0.704990 0.000000
0.399997 0.704840 0.000000
0.437538 0.704690 0.000000
0.475222 0.704539 0.000000
0.513050 0.704389 0.000000
0.551020 0.704238 0.000000
0.589134 0.704088 0.000000
0.627392 0.703938 0.000000
0.665792 0.703787 0.000000
0.704336 0.703637 0.000000
0.743023 0.703486 0.000000
0.781853 0.703336 0.000000
0.820827 0.703185 0.000000
0.859944 0.703035 0.000000
0.899204 0.702885 0.000000
0.938607 0.702734 0.000000
0.978154 0.702584 0.000000
1.000000 0.702433 0.000000
1.000000 0.702283 0.000000
1.000000 0.702133 0.000000
1.000000 0.701982 0.000000
0.000000 0.743494 0.000000
0.000000 0.743336 0.000000
0.000000 0.743179 0.000000
0.033189 0.743021 0.000000
0.069538 0.742863 0.000000
0.106031 0.742706 0.000000
0.142667 0.742548 0.000000
0.179446 0.742391 0.000000
0.216368 0.742233 0.000000
0.253434 0.742076 0.000000
0.290643 0.741918 0.000000
0.327995 0.741760 0.000000
0.365491 0.741603 0.000000
0.403129 0.741445 0.000000
0.440911 0.741288 0.000000
0.478837 0.741130 0.000000
0.516905 0.740972 0.000000
0.555117 0.740815 0.000000
0.593472 0.740657 0.000000
0.631970 0.740500 0.000000
0.670611 0.740342 0.000000
0.709396 0.740185 0.000000
0.748324 0.740027 0.000000
0.787396 0.739869 0.000000
0.826610 0.739712 0.000000
0.865968 0.739554 0.000000
0.905469 0.739397 0.000000
0.945113 0.739239 0.000000
0.984901 0.739081 0.000000
1.000000 0.738924 0.000000
1.000000 0.738766 0.000000
1.000000 0.738609 0.000000
1.000000 0.738451 0.000000
0.000000 0.780144 0.000000
0.000000 0.779979 0.000000
0.000000 0.779814 0.000000
0.033912 0.779650 0.000000
0.070502 0.779485 0.000000
0.107236 0.779320 0.000000
0.144112 0.779155 0.000000
0.181133 0.778991 0.000000
0.218296 0.778826 0.000000
0.255603 0.778661 0.000000
0.293053 0.778496 0.000000
0.330646 0.778332 0.000000
0.368382 0.778167 0.000000
0.406262 0.778002 0.000000
0.444285 0.777837 0.000000
0.482451 0.777673 0.000000
0.520760 0.777508 0.000000
0.559213 0.777343 0.000000
0.597809 0.777178 0.000000
0.636548 0.777014 0.000000
0.675431 0.776849 0.000000
0.714456 0.776684 0.000000
0.753625 0.776519 0.000000
0.792938 0.776355 0.000000
0.832393 0.776190 0.000000
0.871992 0.776025 0.000000
0.911734 0.775860 0.000000
0.951619 0.775696 0.000000
0.991648 0.775531 0.000000
1.000000 0.775366 0.000000
1.000000 0.775201 0.000000
1.000000 0.775037 0.000000
1.000000 0.774872 0.000000
0.000000 0.816746 0.000000
0.000000 0.816574 0.000000
0.000000 0.816402 0.000000
0.034634 0.816230 0.000000
0.071466 0.816058 0.000000
0.108440 0.815886 0.000000
0.145558 0.815714 0.000000
0.182819 0.815542 0.000000
0.220224 0.815370 0.000000
0.257771 0.815198 0.000000
0.295462 0.815027 0.000000
0.333296 0.814855 0.000000
0.371274 0.814683 0.000000
0.409394 0.814511 0.000000
0.447658 0.814339 0.000000
0.486065 0.814167 0.000000
0.524616 0.813995 0.000000
0.563309 0.813823 0.000000
0.602146 0.813651 0.000000
0.641126 0.813479 0.000000
0.680250 0.813308 0.000000
0.719517 0.813136 0.000000
0.758927 0.812964 0.000000
0.798480 0.812792 0.000000
0.838176 0.812620 0.000000
0.878016 0.812448 0.000000
0.917999 0.812276 0.000000
0.958125 0.812104 0.000000
0.998395 0.811932 0.000000
1.000000 0.811760 0.000000
1.000000 0.811588 0.000000
1.000000 0.811417 0.000000
1.000000 0.811245 0.000000
0.000000 0.853299 0.000000
0.000000 0.853120 0.000000
0.000000 0.852941 0.000000
0.035357 0.852762 0.000000
0.072430 0.852583 0.000000
0.109645 0.852404 0.000000
0.147004 0.852225 0.000000
0.184506 0.852046 0.000000
0.222151 0.851867 0.000000
0.259940 0.851688 0.000000
0.297872 0.851509 0.000000
0.335947 0.851330 0.000000
0.374165 0.851150 0.000000
0.412527 0.850971 0.000000
0.451032 0.850792 0.000000
0.489680 0.850613 0.000000
0.528471 0.850434 0.000000
0.567406 0.850255 0.000000
0.606484 0.850076 0.000000
0.645705 0.849897 0.000000
0.685069 0.849718 0.000000
0.724577 0.849539 0.000000
0.764228 0.849360 0.000000
0.804022 0.849181 0.000000
0.843959 0.849002 0.000000
0.884040 0.848823 0.000000
0.924264 0.848644 0.000000
0.964631 0.848464 0.000000
1.000000 0.848285 0.000000
1.000000 0.848106 0.000000
1.000000 0.847927 0.000000
1.000000 0.847748 0.000000
1.000000 0.847569 0.000000
0.000000 0.889805 0.000000
0.000000 0.889619 0.000000
0.000000 0.889432 0.000000
0.036080 0.889246 0.000000
0.073393 0.889060 0.000000
0.110850 0.888874 0.000000
0.148450 0.888687 0.000000
0.186193 0.888501 0.000000
0.224079 0.888315 0.000000
0.262109 0.888129 0.000000
0.300281 0.887942 0.000000
0.338597 0.887756 0.000000
0.377057 0.887570 0.000000
0.415659 0.887384 0.000000
0.454405 0.887198 0.000000
0.493294 0.887011 0.000000
0.532326 0.886825 0.000000
0.571502 0.886639 0.000000
0.610821 0.886453 0.000000
0.650283 0.886266 0.000000
0.689888 0.886080 0.000000
0.729637 0.885894 0.000000
0.769529 0.885708 0.000000
0.809564 0.885521 0.000000
0.849742 0.885335 0.000000
0.890064 0.885149 0.000000
0.930529 0.884963 0.000000
0.971137 0.884777 0.000000
1.000000 0.884590 0.000000
