indra/newview/app_settings/luts/teal_orange.cube
TITLE "Teal and Orange"
LUT_3D_SIZE 5
0.000000 0.000000 0.000000
0.173959 0.000000 0.000000
0.432087 0.000000 0.000000
0.699383 0.000000 0.000000
0.975847 0.000000 0.000000
0.000000 0.225333 0.000000
0.189381 0.224874 0.000000
0.462930 0.224416 0.000000
0.745647 0.223958 0.000000
1.000000 0.223499 0.000000
0.000000 0.522581 0.000000
0.204802 0.521665 0.000000
0.493773 0.520748 0.000000
0.791912 0.519831 0.000000
1.000000 0.518914 0.000000
0.000000 0.816746 0.000000
0.220224 0.815370 0.000000
0.524616 0.813995 0.000000
0.838176 0.812620 0.000000
1.000000 0.811245 0.000000
0.000000 1.000000 0.000000
0.235645 1.000000 0.000000
0.555459 1.000000 0.000000
0.884441 1.000000 0.000000
1.000000 1.000000 0.000000
0.000000 0.000000 0.267924
0.175516 0.000000 0.261812
0.435200 0.000000 0.255700
0.704053 0.000000 0.249588
0.982074 0.000000 0.243475
0.000000 0.225177 0.247362
0.190937 0.224719 0.241250
0.466043 0.224260 0.235138
0.750318 0.223802 0.229025
1.000000 0.223343 0.222913
0.000000 0.522270 0.226800
0.206359 0.521353 0.220688
0.496886 0.520436 0.214576
0.796582 0.519520 0.208464
1.000000 0.518603 0.202351
0.000000 0.816279 0.206238
0.221781 0.814903 0.200126
0.527729 0.813528 0.194014
0.842847 0.812153 0.187901
1.000000 0.810778 0.181789
0.000000 1.000000 0.185676
0.237202 1.000000 0.179564
0.558572 1.000000 0.173452
0.889111 1.000000 0.167340
1.000000 1.000000 0.161227
0.000000 0.000000 0.606697
0.177073 0.000000 0.594472
0.438314 0.000000 0.582248
0.708724 0.000000 0.570024
0.988301 0.000000 0.557799
0.000000 0.225021 0.565573
0.192494 0.224563 0.553349
0.469157 0.224105 0.541124
0.754988 0.223646 0.528899
1.000000 0.223188 0.516675
0.000000 0.521959 0.524449
0.207916 0.521042 0.512225
0.500000 0.520125 0.500000
0.801253 0.519208 0.487775
1.000000 0.518291 0.475551
0.000000 0.815812 0.483325
0.223337 0.814436 0.471101
0.530843 0.813061 0.458876
0.847517 0.811686 0.446651
1.000000 0.810311 0.434427
0.000000 1.000000 0.442201
0.238759 1.000000 0.429976
0.561686 1.000000 0.417752
0.893782 1.000000 0.405528
1.000000 1.000000 0.393303
0.000000 0.000000 0.941318
0.178630 0.000000 0.922981
0.441428 0.000000 0.904645
0.713394 0.000000 0.886308
0.994529 0.000000 0.867971
0.000000 0.224866 0.879632
0.194051 0.224407 0.861295
0.472271 0.223949 0.842959
0.759658 0.223491 0.824622
1.000000 0.223032 0.806285
0.000000 0.521647 0.817946
0.209473 0.520730 0.799609
0.503114 0.519814 0.781273
0.805923 0.518897 0.762936
1.000000 0.517980 0.744599
0.000000 0.815345 0.756260
0.224894 0.813969 0.737923
0.533957 0.812594 0.719587
0.852187 0.811219 0.701250
1.000000 0.809843 0.682913
0.000000 1.000000 0.694574
0.240316 1.000000 0.676238
0.564800 1.000000 0.657901
0.898452 1.000000 0.639564
1.000000 1.000000 0.621227
0.000000 0.000000 1.000000
0.180186 0.000000 1.000000
0.444541 0.000000 1.000000
0.718064 0.000000 1.000000
1.000000 0.000000 1.000000
0.000000 0.224710 1.000000
0.195608 0.224252 1.000000
0.475384 0.223793 1.000000
0.764329 0.223335 1.000000
1.000000 0.222876 1.000000
0.000000 0.521336 1.000000
0.211029 0.520419 1.000000
0.506227 0.519502 1.000000
0.810593 0.518585 1.000000
1.000000 0.517669 1.000000
0.000000 0.814877 1.000000
0.226451 0.813502 1.000000
0.537070 0.812127 0.976146
0.856858 0.810752 0.951697
1.000000 0.809376 0.927248
0.000000 1.000000 0.942796
0.241872 1.000000 0.918347
0.567913 1.000000 0.893898
0.903122 1.000000 0.869449
1.000000 1.000000 0.845000
