indra/newview/app_settings/luts/warm.cube
TITLE "Warm"
LUT_3D_SIZE 33
0.000000 0.000000 0.000000
0.035937 0.000000 0.000000
0.071875 0.000000 0.000000
0.107812 0.000000 0.000000
0.143750 0.000000 0.000000
0.179688 0.000000 0.000000
0.215625 0.000000 0.000000
0.251562 0.000000 0.000000
0.287500 0.000000 0.000000
0.323437 0.000000 0.000000
0.359375 0.000000 0.000000
0.395312 0.000000 0.000000
0.431250 0.000000 0.000000
0.467187 0.000000 0.000000
0.503125 0.000000 0.000000
0.539062 0.000000 0.000000
0.575000 0.000000 0.000000
0.610937 0.000000 0.000000
0.646875 0.000000 0.000000
0.682812 0.000000 0.000000
0.718750 0.000000 0.000000
0.754687 0.000000 0.000000
0.790625 0.000000 0.000000
0.826562 0.000000 0.000000
0.862500 0.000000 0.000000
0.898437 0.000000 0.000000
0.934375 0.000000 0.000000
0.970312 0.000000 0.000000
1.000000 0.000000 0.000000
1.000000 0.000000 0.000000
1.000000 0.000000 0.000000
1.000000 0.000000 0.000000
1.000000 0.000000 0.000000
0.000000 0.032813 0.000000
0.035937 0.032813 0.000000
0.071875 0.032813 0.000000
0.107812 0.032813 0.000000
0.143750 0.032813 0.000000
0.179688 0.032813 0.000000
0.215625 0.032813 0.000000
0.251562 0.032813 0.000000
0.287500 0.032813 0.000000
0.323437 0.032813 0.000000
0.359375 0.032813 0.000000
0.395312 0.032813 0.000000
0.431250 0.032813 0.000000
0.467187 0.032813 0.000000
0.503125 0.032813 0.000000
0.539062 0.032813 0.000000
0.575000 0.032813 0.000000
0.610937 0.032813 0.000000
0.646875 0.032813 0.000000
0.682812 0.032813 0.000000
0.718750 0.032813 0.000000
0.754687 0.032813 0.000000
0.790625 0.032813 0.000000
0.826562 0.032813 0.000000
0.862500 0.032813 0.000000
0.898437 0.032813 0.000000
0.934375 0.032813 0.000000
0.970312 0.032813 0.000000
1.000000 0.032813 0.000000
1.000000 0.032813 0.000000
1.000000 0.032813 0.000000
1.000000 0.032813 0.000000
1.000000 0.032813 0.000000
0.000000 0.065625 0.000000
0.035937 0.065625 0.000000
0.071875 0.065625 0.000000
0.107812 0.065625 0.000000
0.143750 0.065625 0.000000
0.179688 0.065625 0.000000
0.215625 0.065625 0.000000
0.251562 0.065625 0.000000
0.287500 0.065625 0.000000
0.323437 0.065625 0.000000
0.359375 0.065625 0.000000
0.395312 0.065625 0.000000
0.431250 0.065625 0.000000
0.467187 0.065625 0.000000
0.503125 0.065625 0.000000
0.539062 0.065625 0.000000
0.575000 0.065625 0.000000
0.610937 0.065625 0.000000
0.646875 0.065625 0.000000
0.682812 0.065625 0.000000
0.718750 0.065625 0.000000
0.754687 0.065625 0.000000
0.790625 0.065625 0.000000
0.826562 0.065625 0.000000
0.862500 0.065625 0.000000
0.898437 0.065625 0.000000
0.934375 0.065625 0.000000
0.970312 0.065625 0.000000
1.000000 0.065625 0.000000
1.000000 0.065625 0.000000
1.000000 0.065625 0.000000
1.000000 0.065625 0.000000
1.000000 0.065625 0.000000
0.000000 0.098438 0.000000
0.035937 0.098438 0.000000
0.071875 0.098438 0.000000
0.107812 0.098438 0.000000
0.143750 0.098438 0.000000
0.179688 0.098438 0.000000
0.215625 0.098438 0.000000
0.251562 0.098438 0.000000
0.287500 0.098438 0.000000
0.323437 0.098438 0.000000
0.359375 0.098438 0.000000
0.395312 0.098438 0.000000
0.431250 0.098438 0.000000
0.467187 0.098438 0.000000
0.503125 0.098438 0.000000
0.539062 0.098438 0.000000
0.575000 0.098438 0.000000
0.610937 0.098438 0.000000
0.646875 0.098438 0.000000
0.682812 0.098438 0.000000
0.718750 0.098438 0.000000
0.754687 0.098438 0.000000
0.790625 0.098438 0.000000
0.826562 0.098438 0.000000
0.862500 0.098438 0.000000
0.898437 0.098438 0.000000
0.934375 0.098438 0.000000
0.970312 0.098438 0.000000
1.000000 0.098438 0.000000
1.000000 0.098438 0.000000
1.000000 0.098438 0.000000
1.000000 0.098438 0.000000
1.000000 0.098438 0.000000
0.000000 0.131250 0.000000
0.035937 0.131250 0.000000
0.071875 0.131250 0.000000
0.107812 0.131250 0.000000
0.143750 0.131250 0.000000
0.179688 0.131250 0.000000
0.215625 0.131250 0.000000
0.251562 0.131250 0.000000
0.287500 0.131250 0.000000
0.323437 0.131250 0.000000
0.359375 0.131250 0.000000
0.395312 0.131250 0.000000
0.431250 0.131250 0.000000
0.467187 0.131250 0.000000
0.503125 0.131250 0.000000
0.539062 0.131250 0.000000
0.575000 0.131250 0.000000
0.610937 0.131250 0.000000
0.646875 0.131250 0.000000
0.682812 0.131250 0.000000
0.718750 0.131250 0.000000
0.754687 0.131250 0.000000
0.790625 0.131250 0.000000
0.826562 0.131250 0.000000
0.862500 0.131250 0.000000
0.898437 0.131250 0.000000
0.934375 0.131250 0.000000
0.970312 0.131250 0.000000
1.000000 0.131250 0.000000
1.000000 0.131250 0.000000
1.000000 0.131250 0.000000
1.000000 0.131250 0.000000
1.000000 0.131250 0.000000
0.000000 0.164062 0.000000
0.035937 0.164062 0.000000
0.071875 0.164062 0.000000
0.107812 0.164062 0.000000
0.143750 0.164062 0.000000
0.179688 0.164062 0.000000
0.215625 0.164062 0.000000
0.251562 0.164062 0.000000
0.287500 0.164062 0.000000
0.323437 0.164062 0.000000
0.359375 0.164062 0.000000
0.395312 0.164062 0.000000
0.431250 0.164062 0.000000
0.467187 0.164062 0.000000
0.503125 0.164062 0.000000
0.539062 0.164062 0.000000
0.575000 0.164062 0.000000
0.610937 0.164062 0.000000
0.646875 0.164062 0.000000
0.682812 0.164062 0.000000
0.718750 0.164062 0.000000
0.754687 0.164062 0.000000
0.790625 0.164062 0.000000
0.826562 0.164062 0.000000
0.862500 0.164062 0.000000
0.898437 0.164062 0.000000
0.934375 0.164062 0.000000
0.970312 0.164062 0.000000
1.000000 0.164062 0.000000
1.000000 0.164062 0.000000
1.000000 0.164062 0.000000
1.000000 0.164062 0.000000
1.000000 0.164062 0.000000
0.000000 0.196875 0.000000
0.035937 0.196875 0.000000
0.071875 0.196875 0.000000
0.107812 0.196875 0.000000
0.143750 0.196875 0.000000
0.179688 0.196875 0.000000
0.215625 0.196875 0.000000
0.251562 0.196875 0.000000
0.287500 0.196875 0.000000
0.323437 0.196875 0.000000
0.359375 0.196875 0.000000
0.395312 0.196875 0.000000
0.431250 0.196875 0.000000
0.467187 0.196875 0.000000
0.503125 0.196875 0.000000
0.539062 0.196875 0.000000
0.575000 0.196875 0.000000
0.610937 0.196875 0.000000
0.646875 0.196875 0.000000
0.682812 0.196875 0.000000
0.718750 0.196875 0.000000
0.754687 0.196875 0.000000
0.790625 0.196875 0.000000
0.826562 0.196875 0.000000
0.862500 0.196875 0.000000
0.898437 0.196875 0.000000
0.934375 0.196875 0.000000
0.970312 0.196875 0.000000
1.000000 0.196875 0.000000
1.000000 0.196875 0.000000
1.000000 0.196875 0.000000
1.000000 0.196875 0.000000
1.000000 0.196875 0.000000
0.000000 0.229688 0.000000
0.035937 0.229688 0.000000
0.071875 0.229688 0.000000
0.107812 0.229688 0.000000
0.143750 0.229688 0.000000
0.179688 0.229688 0.000000
0.215625 0.229688 0.000000
0.251562 0.229688 0.000000
0.287500 0.229688 0.000000
0.323437 0.229688 0.000000
0.359375 0.229688 0.000000
0.395312 0.229688 0.000000
0.431250 0.229688 0.000000
0.467187 0.229688 0.000000
0.503125 0.229688 0.000000
0.539062 0.229688 0.000000
0.575000 0.229688 0.000000
0.610937 0.229688 0.000000
0.646875 0.229688 0.000000
0.682812 0.229688 0.000000
0.718750 0.229688 0.000000
0.754687 0.229688 0.000000
0.790625 0.229688 0.000000
0.826562 0.229688 0.000000
0.862500 0.229688 0.000000
0.898437 0.229688 0.000000
0.934375 0.229688 0.000000
0.970312 0.229688 0.000000
1.000000 0.229688 0.000000
1.000000 0.229688 0.000000
1.000000 0.229688 0.000000
1.000000 0.229688 0.000000
1.000000 0.229688 0.000000
0.000000 0.262500 0.000000
0.035937 0.262500 0.000000
0.071875 0.262500 0.000000
0.107812 0.262500 0.000000
0.143750 0.262500 0.000000
0.179688 0.262500 0.000000
0.215625 0.262500 0.000000
0.251562 0.262500 0.000000
0.287500 0.262500 0.000000
0.323437 0.262500 0.000000
0.359375 0.262500 0.000000
0.395312 0.262500 0.000000
0.431250 0.262500 0.000000
0.467187 0.262500 0.000000
0.503125 0.262500 0.000000
0.539062 0.262500 0.000000
0.575000 0.262500 0.000000
0.610937 0.262500 0.000000
0.646875 0.262500 0.000000
0.682812 0.262500 0.000000
0.718750 0.262500 0.000000
0.754687 0.262500 0.000000
0.790625 0.262500 0.000000
0.826562 0.262500 0.000000
0.862500 0.262500 0.000000
0.898437 0.262500 0.000000
0.934375 0.262500 0.000000
0.970312 0.262500 0.000000
1.000000 0.262500 0.000000
1.000000 0.262500 0.000000
1.000000 0.262500 0.000000
1.000000 0.262500 0.000000
1.000000 0.262500 0.000000
0.000000 0.295313 0.000000
0.035937 0.295313 0.000000
0.071875 0.295313 0.000000
0.107812 0.295313 0.000000
0.143750 0.295313 0.000000
0.179688 0.295313 0.000000
0.215625 0.295313 0.000000
0.251562 0.295313 0.000000
0.287500 0.295313 0.000000
0.323437 0.295313 0.000000
0.359375 0.295313 0.000000
0.395312 0.295313 0.000000
0.431250 0.295313 0.000000
0.467187 0.295313 0.000000
0.503125 0.295313 0.000000
0.539062 0.295313 0.000000
0.575000 0.295313 0.000000
0.610937 0.295313 0.000000
0.646875 0.295313 0.000000
0.682812 0.295313 0.000000
0.718750 0.295313 0.000000
0.754687 0.295313 0.000000
0.790625 0.295313 0.000000
0.826562 0.295313 0.000000
0.862500 0.295313 0.000000
0.898437 0.295313 0.000000
0.934375 0.295313 0.000000
0.970312 0.295313 0.000000
1.000000 0.295313 0.000000
1.000000 0.295313 0.000000
1.000000 0.295313 0.000000
1.000000 0.295313 0.000000
1.000000 0.295313 0.000000
0.000000 0.328125 0.000000
0.035937 0.328125 0.000000
0.071875 0.328125 0.000000
0.107812 0.328125 0.000000
0.143750 0.328125 0.000000
0.179688 0.328125 0.000000
0.215625 0.328125 0.000000
0.251562 0.328125 0.000000
0.287500 0.328125 0.000000
0.323437 0.328125 0.000000
0.359375 0.328125 0.000000
0.395312 0.328125 0.000000
0.431250 0.328125 0.000000
0.467187 0.328125 0.000000
0.503125 0.328125 0.000000
0.539062 0.328125 0.000000
0.575000 0.328125 0.000000
0.610937 0.328125 0.000000
0.646875 0.328125 0.000000
0.682812 0.328125 0.000000
0.718750 0.328125 0.000000
0.754687 0.328125 0.000000
0.790625 0.328125 0.000000
0.826562 0.328125 0.000000
0.862500 0.328125 0.000000
0.898437 0.328125 0.000000
0.934375 0.328125 0.000000
0.970312 0.328125 0.000000
1.000000 0.328125 0.000000
1.000000 0.328125 0.000000
1.000000 0.328125 0.000000
1.000000 0.328125 0.000000
1.000000 0.328125 0.000000
0.000000 0.360938 0.000000
0.035937 0.360938 0.000000
0.071875 0.360938 0.000000
0.107812 0.360938 0.000000
0.143750 0.360938 0.000000
0.179688 0.360938 0.000000
0.215625 0.360938 0.000000
0.251562 0.360938 0.000000
0.287500 0.360938 0.000000
0.323437 0.360938 0.000000
0.359375 0.360938 0.000000
0.395312 0.360938 0.000000
0.431250 0.360938 0.000000
0.467187 0.360938 0.000000
0.503125 0.360938 0.000000
0.539062 0.360938 0.000000
0.575000 0.360938 0.000000
0.610937 0.360938 0.000000
0.646875 0.360938 0.000000
0.682812 0.360938 0.000000
0.718750 0.360938 0.000000
0.754687 0.360938 0.000000
0.790625 0.360938 0.000000
0.826562 0.360938 0.000000
0.862500 0.360938 0.000000
0.898437 0.360938 0.000000
0.934375 0.360938 0.000000
0.970312 0.360938 0.000000
1.000000 0.360938 0.000000
1.000000 0.360938 0.000000
1.000000 0.360938 0.000000
1.000000 0.360938 0.000000
1.000000 0.360938 0.000000
0.000000 0.393750 0.000000
0.035937 0.393750 0.000000
0.071875 0.393750 0.000000
0.107812 0.393750 0.000000
0.143750 0.393750 0.000000
0.179688 0.393750 0.000000
0.215625 0.393750 0.000000
0.251562 0.393750 0.000000
0.287500 0.393750 0.000000
0.323437 0.393750 0.000000
0.359375 0.393750 0.000000
0.395312 0.393750 0.000000
0.431250 0.393750 0.000000
0.467187 0.393750 0.000000
0.503125 0.393750 0.000000
0.539062 0.393750 0.000000
0.575000 0.393750 0.000000
0.610937 0.393750 0.000000
0.646875 0.393750 0.000000
0.682812 0.393750 0.000000
0.718750 0.393750 0.000000
0.754687 0.393750 0.000000
0.790625 0.393750 0.000000
0.826562 0.393750 0.000000
0.862500 0.393750 0.000000
0.898437 0.393750 0.000000
0.934375 0.393750 0.000000
0.970312 0.393750 0.000000
1.000000 0.393750 0.000000
1.000000 0.393750 0.000000
1.000000 0.393750 0.000000
1.000000 0.393750 0.000000
1.000000 0.393750 0.000000
0.000000 0.426563 0.000000
0.035937 0.426563 0.000000
0.071875 0.426563 0.000000
0.107812 0.426563 0.000000
0.143750 0.426563 0.000000
0.179688 0.426563 0.000000
0.215625 0.426563 0.000000
0.251562 0.426563 0.000000
0.287500 0.426563 0.000000
0.323437 0.426563 0.000000
0.359375 0.426563 0.000000
0.395312 0.426563 0.000000
0.431250 0.426563 0.000000
0.467187 0.426563 0.000000
0.503125 0.426563 0.000000
0.539062 0.426563 0.000000
0.575000 0.426563 0.000000
0.610937 0.426563 0.000000
0.646875 0.426563 0.000000
0.682812 0.426563 0.000000
0.718750 0.426563 0.000000
0.754687 0.426563 0.000000
0.790625 0.426563 0.000000
0.826562 0.426563 0.000000
0.862500 0.426563 0.000000
0.898437 0.426563 0.000000
0.934375 0.426563 0.000000
0.970312 0.426563 0.000000
1.000000 0.426563 0.000000
1.000000 0.426563 0.000000
1.000000 0.426563 0.000000
1.000000 0.426563 0.000000
1.000000 0.426563 0.000000
0.000000 0.459375 0.000000
0.035937 0.459375 0.000000
0.071875 0.459375 0.000000
0.107812 0.459375 0.000000
0.143750 0.459375 0.000000
0.179688 0.459375 0.000000
0.215625 0.459375 0.000000
0.251562 0.459375 0.000000
0.287500 0.459375 0.000000
0.323437 0.459375 0.000000
0.359375 0.459375 0.000000
0.395312 0.459375 0.000000
0.431250 0.459375 0.000000
0.467187 0.459375 0.000000
0.503125 0.459375 0.000000
0.539062 0.459375 0.000000
0.575000 0.459375 0.000000
0.610937 0.459375 0.000000
0.646875 0.459375 0.000000
0.682812 0.459375 0.000000
0.718750 0.459375 0.000000
0.754687 0.459375 0.000000
0.790625 0.459375 0.000000
0.826562 0.459375 0.000000
0.862500 0.459375 0.000000
0.898437 0.459375 0.000000
0.934375 0.459375 0.000000
0.970312 0.459375 0.000000
1.000000 0.459375 0.000000
1.000000 0.459375 0.000000
1.000000 0.459375 0.000000
1.000000 0.459375 0.000000
1.000000 0.459375 0.000000
0.000000 0.492188 0.000000
0.035937 0.492188 0.000000
0.071875 0.492188 0.000000
0.107812 0.492188 0.000000
0.143750 0.492188 0.000000
0.179688 0.492188 0.000000
0.215625 0.492188 0.000000
0.251562 0.492188 0.000000
0.287500 0.492188 0.000000
0.323437 0.492188 0.000000
0.359375 0.492188 0.000000
0.395312 0.492188 0.000000
0.431250 0.492188 0.000000
0.467187 0.492188 0.000000
0.503125 0.492188 0.000000
0.539062 0.492188 0.000000
0.575000 0.492188 0.000000
0.610937 0.492188 0.000000
0.646875 0.492188 0.000000
0.682812 0.492188 0.000000
0.718750 0.492188 0.000000
0.754687 0.492188 0.000000
0.790625 0.492188 0.000000
0.826562 0.492188 0.000000
0.862500 0.492188 0.000000
0.898437 0.492188 0.000000
0.934375 0.492188 0.000000
0.970312 0.492188 0.000000
1.000000 0.492188 0.000000
1.000000 0.492188 0.000000
1.000000 0.492188 0.000000
1.000000 0.492188 0.000000
1.000000 0.492188 0.000000
0.000000 0.525000 0.000000
0.035937 0.525000 0.000000
0.071875 0.525000 0.000000
0.107812 0.525000 0.000000
0.143750 0.525000 0.000000
0.179688 0.525000 0.000000
0.215625 0.525000 0.000000
0.251562 0.525000 0.000000
0.287500 0.525000 0.000000
0.323437 0.525000 0.000000
0.359375 0.525000 0.000000
0.395312 0.525000 0.000000
0.431250 0.525000 0.000000
0.467187 0.525000 0.000000
0.503125 0.525000 0.000000
0.539062 0.525000 0.000000
0.575000 0.525000 0.000000
0.610937 0.525000 0.000000
0.646875 0.525000 0.000000
0.682812 0.525000 0.000000
0.718750 0.525000 0.000000
0.754687 0.525000 0.000000
0.790625 0.525000 0.000000
0.826562 0.525000 0.000000
0.862500 0.525000 0.000000
0.898437 0.525000 0.000000
0.934375 0.525000 0.000000
0.970312 0.525000 0.000000
1.000000 0.525000 0.000000
1.000000 0.525000 0.000000
1.000000 0.525000 0.000000
1.000000 0.525000 0.000000
1.000000 0.525000 0.000000
0.000000 0.557813 0.000000
0.035937 0.557813 0.000000
0.071875 0.557813 0.000000
0.107812 0.557813 0.000000
0.143750 0.557813 0.000000
0.179688 0.557813 0.000000
0.215625 0.557813 0.000000
0.251562 0.557813 0.000000
0.287500 0.557813 0.000000
0.323437 0.557813 0.000000
0.359375 0.557813 0.000000
0.395312 0.557813 0.000000
0.431250 0.557813 0.000000
0.467187 0.557813 0.000000
0.503125 0.557813 0.000000
0.539062 0.557813 0.000000
0.575000 0.557813 0.000000
0.610937 0.557813 0.000000
0.646875 0.557813 0.000000
0.682812 0.557813 0.000000
0.718750 0.557813 0.000000
0.754687 0.557813 0.000000
0.790625 0.557813 0.000000
0.826562 0.557813 0.000000
0.862500 0.557813 0.000000
0.898437 0.557813 0.000000
0.934375 0.557813 0.000000
0.970312 0.557813 0.000000
1.000000 0.557813 0.000000
1.000000 0.557813 0.000000
1.000000 0.557813 0.000000
1.000000 0.557813 0.000000
1.000000 0.557813 0.000000
0.000000 0.590625 0.000000
0.035937 0.590625 0.000000
0.071875 0.590625 0.000000
0.107812 0.590625 0.000000
0.143750 0.590625 0.000000
0.179688 0.590625 0.000000
0.215625 0.590625 0.000000
0.251562 0.590625 0.000000
0.287500 0.590625 0.000000
0.323437 0.590625 0.000000
0.359375 0.590625 0.000000
0.395312 0.590625 0.000000
0.431250 0.590625 0.000000
0.467187 0.590625 0.000000
0.503125 0.590625 0.000000
0.539062 0.590625 0.000000
0.575000 0.590625 0.000000
0.610937 0.590625 0.000000
0.646875 0.590625 0.000000
0.682812 0.590625 0.000000
0.718750 0.590625 0.000000
0.754687 0.590625 0.000000
0.790625 0.590625 0.000000
0.826562 0.590625 0.000000
0.862500 0.590625 0.000000
0.898437 0.590625 0.000000
0.934375 0.590625 0.000000
0.970312 0.590625 0.000000
1.000000 0.590625 0.000000
1.000000 0.590625 0.000000
1.000000 0.590625 0.000000
1.000000 0.590625 0.000000
1.000000 0.590625 0.000000
0.000000 0.623437 0.000000
0.035937 0.623437 0.000000
0.071875 0.623437 0.000000
0.107812 0.623437 0.000000
0.143750 0.623437 0.000000
0.179688 0.623437 0.000000
0.215625 0.623437 0.000000
0.251562 0.623437 0.000000
0.287500 0.623437 0.000000
0.323437 0.623437 0.000000
0.359375 0.623437 0.000000
0.395312 0.623437 0.000000
0.431250 0.623437 0.000000
0.467187 0.623437 0.000000
0.503125 0.623437 0.000000
0.539062 0.623437 0.000000
0.575000 0.623437 0.000000
0.610937 0.623437 0.000000
0.646875 0.623437 0.000000
0.682812 0.623437 0.000000
0.718750 0.623437 0.000000
0.754687 0.623437 0.000000
0.790625 0.623437 0.000000
0.826562 0.623437 0.000000
0.862500 0.623437 0.000000
0.898437 0.623437 0.000000
0.934375 0.623437 0.000000
0.970312 0.623437 0.000000
1.000000 0.623437 0.000000
1.000000 0.623437 0.000000
1.000000 0.623437 0.000000
1.000000 0.623437 0.000000
1.000000 0.623437 0.000000
0.000000 0.656250 0.000000
0.035937 0.656250 0.000000
0.071875 0.656250 0.000000
0.107812 0.656250 0.000000
0.143750 0.656250 0.000000
0.179688 0.656250 0.000000
0.215625 0.656250 0.000000
0.251562 0.656250 0.000000
0.287500 0.656250 0.000000
0.323437 0.656250 0.000000
0.359375 0.656250 0.000000
0.395312 0.656250 0.000000
0.431250 0.656250 0.000000
0.467187 0.656250 0.000000
0.503125 0.656250 0.000000
0.539062 0.656250 0.000000
0.575000 0.656250 0.000000
0.610937 0.656250 0.000000
0.646875 0.656250 0.000000
0.682812 0.656250 0.000000
0.718750 0.656250 0.000000
0.754687 0.656250 0.000000
0.790625 0.656250 0.000000
0.826562 0.656250 0.000000
0.862500 0.656250 0.000000
0.898437 0.656250 0.000000
0.934375 0.656250 0.000000
0.970312 0.656250 0.000000
1.000000 0.656250 0.000000
1.000000 0.656250 0.000000
1.000000 0.656250 0.000000
1.000000 0.656250 0.000000
1.000000 0.656250 0.000000
0.000000 0.689063 0.000000
0.035937 0.689063 0.000000
0.071875 0.689063 0.000000
0.107812 0.689063 0.000000
0.143750 0.689063 0.000000
0.179688 0.689063 0.000000
0.215625 0.689063 0.000000
0.251562 0.689063 0.000000
0.287500 0.689063 0.000000
0.323437 0.689063 0.000000
0.359375 0.689063 0.000000
0.395312 0.689063 0.000000
0.431250 0.689063 0.000000
0.467187 0.689063 0.000000
0.503125 0.689063 0.000000
0.539062 0.689063 0.000000
0.575000 0.689063 0.000000
0.610937 0.689063 0.000000
0.646875 0.689063 0.000000
0.682812 0.689063 0.000000
0.718750 0.689063 0.000000
0.754687 0.689063 0.000000
0.790625 0.689063 0.000000
0.826562 0.689063 0.000000
0.862500 0.689063 0.000000
0.898437 0.689063 0.000000
0.934375 0.689063 0.000000
0.970312 0.689063 0.000000
1.000000 0.689063 0.000000
1.000000 0.689063 0.000000
1.000000 0.689063 0.000000
1.000000 0.689063 0.000000
1.000000 0.689063 0.000000
0.000000 0.721875 0.000000
0.035937 0.721875 0.000000
0.071875 0.721875 0.000000
0.107812 0.721875 0.000000
0.143750 0.721875 0.000000
0.179688 0.721875 0.000000
0.215625 0.721875 0.000000
0.251562 0.721875 0.000000
0.287500 0.721875 0.000000
0.323437 0.721875 0.000000
0.359375 0.721875 0.000000
0.395312 0.721875 0.000000
0.431250 0.721875 0.000000
0.467187 0.721875 0.000000
0.503125 0.721875 0.000000
0.539062 0.721875 0.000000
0.575000 0.721875 0.000000
0.610937 0.721875 0.000000
0.646875 0.721875 0.000000
0.682812 0.721875 0.000000
0.718750 0.721875 0.000000
0.754687 0.721875 0.000000
0.790625 0.721875 0.000000
0.826562 0.721875 0.000000
0.862500 0.721875 0.000000
0.898437 0.721875 0.000000
0.934375 0.721875 0.000000
0.970312 0.721875 0.000000
1.000000 0.721875 0.000000
1.000000 0.721875 0.000000
1.000000 0.721875 0.000000
1.000000 0.721875 0.000000
1.000000 0.721875 0.000000
0.000000 0.754688 0.000000
0.035937 0.754688 0.000000
0.071875 0.754688 0.000000
0.107812 0.754688 0.000000
0.143750 0.754688 0.000000
0.179688 0.754688 0.000000
0.215625 0.754688 0.000000
0.251562 0.754688 0.000000
0.287500 0.754688 0.000000
0.323437 0.754688 0.000000
0.359375 0.754688 0.000000
0.395312 0.754688 0.000000
0.431250 0.754688 0.000000
0.467187 0.754688 0.000000
0.503125 0.754688 0.000000
0.539062 0.754688 0.000000
0.575000 0.754688 0.000000
0.610937 0.754688 0.000000
0.646875 0.754688 0.000000
0.682812 0.754688 0.000000
0.718750 0.754688 0.000000
0.754687 0.754688 0.000000
0.790625 0.754688 0.000000
0.826562 0.754688 0.000000
0.862500 0.754688 0.000000
0.898437 0.754688 0.000000
0.934375 0.754688 0.000000
0.970312 0.754688 0.000000
1.000000 0.754688 0.000000
1.000000 0.754688 0.000000
1.000000 0.754688 0.000000
1.000000 0.754688 0.000000
1.000000 0.754688 0.000000
0.000000 0.787500 0.000000
0.035937 0.787500 0.000000
0.071875 0.787500 0.000000
0.107812 0.787500 0.000000
0.143750 0.787500 0.000000
0.179688 0.787500 0.000000
0.215625 0.787500 0.000000
0.251562 0.787500 0.000000
0.287500 0.787500 0.000000
0.323437 0.787500 0.000000
0.359375 0.787500 0.000000
0.395312 0.787500 0.000000
0.431250 0.787500 0.000000
0.467187 0.787500 0.000000
0.503125 0.787500 0.000000
0.539062 0.787500 0.000000
0.575000 0.787500 0.000000
0.610937 0.787500 0.000000
0.646875 0.787500 0.000000
0.682812 0.787500 0.000000
0.718750 0.787500 0.000000
0.754687 0.787500 0.000000
0.790625 0.787500 0.000000
0.826562 0.787500 0.000000
0.862500 0.787500 0.000000
0.898437 0.787500 0.000000
0.934375 0.787500 0.000000
0.970312 0.787500 0.000000
1.000000 0.787500 0.000000
1.000000 0.787500 0.000000
1.000000 0.787500 0.000000
1.000000 0.787500 0.000000
1.000000 0.787500 0.000000
0.000000 0.820312 0.000000
0.035937 0.820312 0.000000
0.071875 0.820312 0.000000
0.107812 0.820312 0.000000
0.143750 0.820312 0.000000
0.179688 0.820312 0.000000
0.215625 0.820312 0.000000
0.251562 0.820312 0.000000
0.287500 0.820312 0.000000
0.323437 0.820312 0.000000
0.359375 0.820312 0.000000
0.395312 0.820312 0.000000
0.431250 0.820312 0.000000
0.467187 0.820312 0.000000
0.503125 0.820312 0.000000
0.539062 0.820312 0.000000
0.575000 0.820312 0.000000
0.610937 0.820312 0.000000
0.646875 0.820312 0.000000
0.682812 0.820312 0.000000
0.718750 0.820312 0.000000
0.754687 0.820312 0.000000
0.790625 0.820312 0.000000
0.826562 0.820312 0.000000
0.862500 0.820312 0.000000
0.898437 0.820312 0.000000
0.934375 0.820312 0.000000
0.970312 0.820312 0.000000
1.000000 0.820312 0.000000
1.000000 0.820312 0.000000
1.000000 0.820312 0.000000
1.000000 0.820312 0.000000
1.000000 0.820312 0.000000
0.000000 0.853125 0.000000
0.035937 0.853125 0.000000
0.071875 0.853125 0.000000
0.107812 0.853125 0.000000
0.143750 0.853125 0.000000
0.179688 0.853125 0.000000
0.215625 0.853125 0.000000
0.251562 0.853125 0.000000
0.287500 0.853125 0.000000
0.323437 0.853125 0.000000
0.359375 0.853125 0.000000
0.395312 0.853125 0.000000
0.431250 0.853125 0.000000
0.467187 0.853125 0.000000
0.503125 0.853125 0.000000
0.539062 0.853125 0.000000
0.575000 0.853125 0.000000
0.610937 0.853125 0.000000
0.646875 0.853125 0.000000
0.682812 0.853125 0.000000
0.718750 0.853125 0.000000
0.754687 0.853125 0.000000
0.790625 0.853125 0.000000
0.826562 0.853125 0.000000
0.862500 0.853125 0.000000
0.898437 0.853125 0.000000
0.934375 0.853125 0.000000
0.970312 0.853125 0.000000
1.000000 0.853125 0.000000
