indra/newview/app_settings/luts/warm.cube
TITLE "Warm"
LUT_3D_SIZE 5
0.000000 0.000000 0.000000
0.287500 0.000000 0.000000
0.575000 0.000000 0.000000
0.862500 0.000000 0.000000
1.000000 0.000000 0.000000
0.000000 0.262500 0.000000
0.287500 0.262500 0.000000
0.575000 0.262500 0.000000
0.862500 0.262500 0.000000
1.000000 0.262500 0.000000
0.000000 0.525000 0.000000
0.287500 0.525000 0.000000
0.575000 0.525000 0.000000
0.862500 0.525000 0.000000
1.000000 0.525000 0.000000
0.000000 0.787500 0.000000
0.287500 0.787500 0.000000
0.575000 0.787500 0.000000
0.862500 0.787500 0.000000
1.000000 0.787500 0.000000
0.000000 1.000000 0.000000
0.287500 1.000000 0.000000
0.575000 1.000000 0.000000
0.862500 1.000000 0.000000
1.000000 1.000000 0.000000
0.000000 0.000000 0.212500
0.287500 0.000000 0.212500
0.575000 0.000000 0.212500
0.862500 0.000000 0.212500
1.000000 0.000000 0.212500
0.000000 0.262500 0.212500
0.287500 0.262500 0.212500
0.575000 0.262500 0.212500
0.862500 0.262500 0.212500
1.000000 0.262500 0.212500
0.000000 0.525000 0.212500
0.287500 0.525000 0.212500
0.575000 0.525000 0.212500
0.862500 0.525000 0.212500
1.000000 0.525000 0.212500
0.000000 0.787500 0.212500
0.287500 0.787500 0.212500
0.575000 0.787500 0.212500
0.862500 0.787500 0.212500
1.000000 0.787500 0.212500
0.000000 1.000000 0.212500
0.287500 1.000000 0.212500
0.575000 1.000000 0.212500
0.862500 1.000000 0.212500
1.000000 1.000000 0.212500
0.000000 0.000000 0.425000
0.287500 0.000000 0.425000
0.575000 0.000000 0.425000
0.862500 0.000000 0.425000
1.000000 0.000000 0.425000
0.000000 0.262500 0.425000
0.287500 0.262500 0.425000
0.575000 0.262500 0.425000
0.862500 0.262500 0.425000
1.000000 0.262500 0.425000
0.000000 0.525000 0.425000
0.287500 0.525000 0.425000
0.575000 0.525000 0.425000
0.862500 0.525000 0.425000
1.000000 0.525000 0.425000
0.000000 0.787500 0.425000
0.287500 0.787500 0.425000
0.575000 0.787500 0.425000
0.862500 0.787500 0.425000
1.000000 0.787500 0.425000
0.000000 1.000000 0.425000
0.287500 1.000000 0.425000
0.575000 1.000000 0.425000
0.862500 1.000000 0.425000
1.000000 1.000000 0.425000
0.000000 0.000000 0.637500
0.287500 0.000000 0.637500
0.575000 0.000000 0.637500
0.862500 0.000000 0.637500
1.000000 0.000000 0.637500
0.000000 0.262500 0.637500
0.287500 0.262500 0.637500
0.575000 0.262500 0.637500
0.862500 0.262500 0.637500
1.000000 0.262500 0.637500
0.000000 0.525000 0.637500
0.287500 0.525000 0.637500
0.575000 0.525000 0.637500
0.862500 0.525000 0.637500
1.000000 0.525000 0.637500
0.000000 0.787500 0.637500
0.287500 0.787500 0.637500
0.575000 0.787500 0.637500
0.862500 0.787500 0.637500
1.000000 0.787500 0.637500
0.000000 1.000000 0.637500
0.287500 1.000000 0.637500
0.575000 1.000000 0.637500
0.862500 1.000000 0.637500
1.000000 1.000000 0.637500
0.000000 0.000000 0.850000
0.287500 0.000000 0.850000
0.575000 0.000000 0.850000
0.862500 0.000000 0.850000
1.000000 0.000000 0.850000
0.000000 0.262500 0.850000
0.287500 0.262500 0.850000
0.575000 0.262500 0.850000
0.862500 0.262500 0.850000
1.000000 0.262500 0.850000
0.000000 0.525000 0.850000
0.287500 0.525000 0.850000
0.575000 0.525000 0.850000
0.862500 0.525000 0.850000
1.000000 0.525000 0.850000
0.000000 0.787500 0.850000
0.287500 0.787500 0.850000
0.575000 0.787500 0.850000
0.862500 0.787500 0.850000
1.000000 0.787500 0.850000
0.000000 1.000000 0.850000
0.287500 1.000000 0.850000
0.575000 1.000000 0.850000
0.862500 1.000000 0.850000
1.000000 1.000000 0.850000
